; generated by PrusaSlicer 2.7.1+win64 on 2024-07-10 at 08:27:22 UTC

; 

; external perimeters extrusion width = 0.42mm
; perimeters extrusion width = 0.44mm
; infill extrusion width = 0.44mm
; solid infill extrusion width = 0.44mm
; top infill extrusion width = 0.40mm
; first layer extrusion width = 0.42mm

; external perimeters extrusion width = 0.42mm
; perimeters extrusion width = 0.44mm
; infill extrusion width = 0.44mm
; solid infill extrusion width = 0.44mm
; top infill extrusion width = 0.40mm
; first layer extrusion width = 0.42mm

M201 X500 Y500 Z100 E5000 ; sets maximum accelerations, mm/sec^2
M203 X500 Y500 Z10 E60 ; sets maximum feedrates, mm / sec
M204 S500 T1000 ; sets acceleration (S) and retract acceleration (R), mm/sec^2
M205 X8.00 Y8.00 Z0.40 E5.00 ; sets the jerk limits, mm/sec
M205 S0 T0 ; sets the minimum extruding and travel feed rate, mm/sec

; printing object WingHolder8mmPart2.STL id:1 copy 0
; stop printing object WingHolder8mmPart2.STL id:1 copy 0
; printing object WingHolder8mmPart2.STL id:1 copy 1
; stop printing object WingHolder8mmPart2.STL id:1 copy 1
; printing object WingHolder.STL id:0 copy 0
; stop printing object WingHolder.STL id:0 copy 0
; printing object WingHolder.STL id:0 copy 1
; stop printing object WingHolder.STL id:0 copy 1

;TYPE:Custom
G90 ; use absolute coordinates
M83 ; extruder relative mode
M104 S160 ; set temporary nozzle temp to prevent oozing during homing
M140 S70 ; set final bed temp
G4 S30 ; allow partial nozzle warmup
G28 ; home all axis and restore leveling
G1 Z50 F240
G1 X2.0 Y10 F3000
M104 S240 ; set final nozzle temp
M190 S70 ; wait for bed temp to stabilize
M109 S240 ; wait for nozzle temp to stabilize
G1 Z0.28 F240
G92 E0
G1 X2.0 Y140 E10 F1500 ; prime the nozzle
G1 X2.3 Y140 F5000
G92 E0
G1 X2.3 Y10 E10 F1200 ; prime the nozzle
G92 E0
G21 ; set units to millimeters
G90 ; use absolute coordinates
M83 ; use relative distances for extrusion
; Filament gcode
M107
;LAYER_CHANGE
;Z:0.2
;HEIGHT:0.2
;BEFORE_LAYER_CHANGE
G92 E0
;0.2


G1 E-.8 F1800
G1 Z.2 F9000
;AFTER_LAYER_CHANGE
;0.2
G1 X87.335 Y87.065
G1 Z.2
G1 E.8 F1800
M204 S500
;TYPE:Skirt/Brim
;WIDTH:0.42
G1 F1200
G1 X88.484 Y86.066 E.04774
G1 X89.737 Y85.203 E.0477
G1 X90.738 Y84.65 E.03586
G1 X92.136 Y84.048 E.04772
G1 X93.593 Y83.606 E.04774
G1 X95.09 Y83.33 E.04773
G1 X96.798 Y83.218 E.05367
G1 X122.944 Y83.22 E.81979
G1 X124.08 Y83.248 E.03563
G1 X125.468 Y83.41 E.04382
G1 X127.166 Y83.811 E.0547
G1 X128.48 Y84.287 E.04382
G1 X129.738 Y84.895 E.04381
G1 X130.639 Y85.436 E.03295
G1 X131.767 Y86.26 E.0438
G1 X133.048 Y87.446 E.05474
G1 X133.957 Y88.507 E.04381
G1 X134.565 Y89.363 E.03292
G1 X135.269 Y90.57 E.04381
G1 X135.845 Y91.843 E.04381
G1 X136.376 Y93.505 E.05471
G1 X136.644 Y94.877 E.04383
G1 X136.782 Y96.707 E.05754
G1 X136.769 Y123.805 E.84964
G1 X136.59 Y125.454 E.05201
G1 X136.287 Y126.818 E.04381
G1 X135.968 Y127.818 E.03291
G1 X135.424 Y129.106 E.04384
G1 X134.565 Y130.624 E.05469
G1 X133.741 Y131.753 E.04382
G1 X132.805 Y132.791 E.04382
G1 X131.767 Y133.727 E.04382
G1 X130.639 Y134.551 E.0438
G1 X129.432 Y135.255 E.04381
G1 X128.158 Y135.831 E.04384
G1 X126.833 Y136.273 E.04379
G1 X125.468 Y136.577 E.04385
G1 X124.427 Y136.712 E.03291
G1 X122.945 Y136.767 E.0465
G1 X96.8 Y136.782 E.81976
G1 X95.467 Y136.712 E.04185
G1 X93.963 Y136.478 E.04772
G1 X92.494 Y136.077 E.04774
G1 X90.739 Y135.35 E.05956
G1 X89.417 Y134.596 E.04772
G1 X88.188 Y133.697 E.04774
G1 X87.067 Y132.667 E.04773
G1 X86.069 Y131.519 E.04769
G1 X85.206 Y130.265 E.04773
G1 X84.488 Y128.923 E.04772
G1 X83.925 Y127.508 E.04775
G1 X83.524 Y126.04 E.04771
G1 X83.29 Y124.536 E.04772
G1 X83.221 Y123.205 E.04179
G1 X83.22 Y96.795 E.82807
G1 X83.29 Y95.464 E.04179
G1 X83.524 Y93.96 E.04772
G1 X83.925 Y92.491 E.04774
G1 X84.652 Y90.736 E.05956
G1 X85.407 Y89.414 E.04773
G1 X86.305 Y88.185 E.04772
G1 X87.294 Y87.109 E.04582
; printing object WingHolder.STL id:0 copy 1
;WIPE_START
G1 F7200
G1 X87.335 Y87.065 E-.01428
G1 X88.484 Y86.066 E-.36161
G1 X89.737 Y85.203 E-.36134
G1 X89.968 Y85.075 E-.06277
;WIPE_END
G1 X88.928 Y92.181 F9000
G1 E.8 F1800
;TYPE:Perimeter
;WIDTH:0.419999
G1 F1200
G1 X89.168 Y92.699 E.0179
G1 X89.513 Y93.126 E.01721
G1 X89.753 Y93.337 E.01002
G1 X90.219 Y93.623 E.01714
G1 X90.513 Y93.741 E.00993
G1 X91.199 Y93.877 E.02193
G1 X91.807 Y93.814 E.01917
G1 X92.219 Y93.707 E.01335
G1 X92.753 Y93.423 E.01896
;WIDTH:0.410463
G1 X92.658 Y93.555 E.00497
;WIDTH:0.419999
G1 X92.165 Y94.299 E.02798
G1 X91.812 Y95.111 E.02776
G1 X91.676 Y95.632 E.01688
G1 X91.584 Y96.155 E.01665
G1 X91.536 Y96.875 E.02263
G1 X91.584 Y97.436 E.01765
G1 X91.663 Y97.907 E.01497
G1 X91.864 Y98.623 E.02332
G1 X92.086 Y99.116 E.01695
G1 X92.314 Y99.536 E.01498
G1 X92.754 Y100.163 E.02402
G1 X93.382 Y100.798 E.028
G1 X93.854 Y101.147 E.01841
G1 X94.264 Y101.396 E.01504
G1 X94.916 Y101.71 E.02269
G1 X95.617 Y101.923 E.02297
G1 X95.99 Y101.984 E.01185
G1 X96.263 Y102.006 E.00859
;WIDTH:0.39287
G1 X96.536 Y102.028 E.00797
;WIDTH:0.371676
G1 X96.5 Y102.035 E.001
;WIDTH:0.419999
G1 X95.996 Y102.118 E.01602
G1 X95.699 Y102.237 E.01003
G1 X95.232 Y102.525 E.0172
G1 X94.996 Y102.731 E.00982
G1 X94.646 Y103.166 E.01751
G1 X94.49 Y103.446 E.01005
G1 X94.308 Y103.964 E.01721
G1 X94.255 Y104.278 E.00998
G1 X94.256 Y104.821 E.01703
G1 X94.31 Y105.134 E.00996
G1 X94.482 Y105.619 E.01613
G1 X93.781 Y105.417 E.02287
G1 X92.834 Y105.025 E.03214
G1 X91.938 Y104.529 E.03211
G1 X91.102 Y103.937 E.03212
G1 X90.339 Y103.254 E.03211
G1 X89.656 Y102.49 E.03213
G1 X89.063 Y101.655 E.03211
G1 X88.568 Y100.758 E.03212
G1 X88.176 Y99.812 E.03211
G1 X87.892 Y98.828 E.03211
G1 X87.721 Y97.818 E.03212
G1 X87.663 Y96.795 E.03213
G1 X87.721 Y95.773 E.0321
G1 X87.892 Y94.763 E.03212
G1 X88.176 Y93.778 E.03214
G1 X88.568 Y92.832 E.03211
G1 X88.899 Y92.233 E.02146
;WIPE_START
G1 F7200
G1 X88.928 Y92.181 E-.01414
G1 X89.168 Y92.699 E-.13559
G1 X89.513 Y93.126 E-.13038
G1 X89.753 Y93.337 E-.0759
G1 X90.219 Y93.623 E-.12986
G1 X90.513 Y93.741 E-.07524
G1 X91.199 Y93.877 E-.1661
G1 X91.504 Y93.846 E-.07279
;WIPE_END
G1 X101.399 Y88.919 F9000
G1 E.8 F1800
G1 F1200
G1 X101.179 Y89.007 E.00743
G1 X100.795 Y89.243 E.01413
G1 X100.474 Y89.505 E.01299
G1 X100.128 Y89.932 E.01723
G1 X99.973 Y90.21 E.00998
G1 X99.791 Y90.727 E.01719
G1 X99.737 Y91.04 E.00996
G1 X99.736 Y91.588 E.01718
G1 X99.79 Y91.903 E.01002
;WIDTH:0.424081
G1 X99.971 Y92.421 E.01739
;WIDTH:0.447334
G1 X100.118 Y92.707 E.01081
G1 X99.858 Y92.513 E.01091
;WIDTH:0.424081
G1 X99.089 Y92.058 E.02832
;WIDTH:0.419999
G1 X98.55 Y91.842 E.01821
G1 X98.057 Y91.697 E.01611
G1 X97.386 Y91.566 E.02144
G1 X96.494 Y91.542 E.02798
G1 X95.768 Y91.635 E.02295
G1 X95.325 Y91.756 E.0144
G1 X94.762 Y91.943 E.0186
G1 X93.971 Y92.357 E.02799
G1 X93.389 Y92.803 E.02299
;WIDTH:0.40961
G1 X93.512 Y92.615 E.00685
;WIDTH:0.419999
G1 X93.788 Y92.002 E.02108
G1 X93.865 Y91.339 E.02093
G1 X93.845 Y90.932 E.01278
G1 X93.706 Y90.404 E.01712
G1 X93.574 Y90.114 E.00999
G1 X93.283 Y89.685 E.01625
G1 X93.049 Y89.435 E.01074
G1 X92.608 Y89.109 E.0172
G1 X92.187 Y88.924 E.01442
G1 X92.834 Y88.566 E.02318
G1 X93.781 Y88.174 E.03214
G1 X94.765 Y87.89 E.03211
G1 X95.775 Y87.719 E.03212
G1 X96.798 Y87.661 E.03213
G1 X97.82 Y87.719 E.0321
G1 X98.83 Y87.89 E.03212
G1 X99.814 Y88.174 E.03211
G1 X100.761 Y88.566 E.03214
G1 X101.347 Y88.89 E.02099
;WIPE_START
G1 F7200
G1 X101.399 Y88.919 E-.01414
G1 X101.179 Y89.007 E-.05627
G1 X100.795 Y89.243 E-.10705
G1 X100.474 Y89.505 E-.09841
G1 X100.128 Y89.932 E-.13053
G1 X99.973 Y90.21 E-.07559
G1 X99.791 Y90.727 E-.13017
G1 X99.737 Y91.04 E-.07544
G1 X99.736 Y91.513 E-.1124
;WIPE_END
G1 X104.672 Y92.189 F9000
G1 E.8 F1800
G1 F1200
G1 X105.027 Y92.832 E.02303
G1 X105.419 Y93.778 E.03211
G1 X105.703 Y94.763 E.03214
G1 X105.874 Y95.773 E.03212
G1 X105.926 Y96.904 E.0355
G1 X105.874 Y97.818 E.0287
G1 X105.703 Y98.828 E.03212
G1 X105.419 Y99.812 E.03211
G1 X105.027 Y100.758 E.03211
G1 X104.532 Y101.655 E.03212
G1 X103.939 Y102.49 E.03211
G1 X103.256 Y103.254 E.03213
G1 X102.493 Y103.937 E.03211
G1 X101.657 Y104.529 E.03212
G1 X100.761 Y105.025 E.03211
G1 X99.814 Y105.417 E.03214
G1 X99.099 Y105.623 E.02333
G1 X99.226 Y105.342 E.00967
G1 X99.306 Y105.034 E.00998
G1 X99.353 Y104.488 E.01718
G1 X99.326 Y104.17 E.01001
G1 X99.186 Y103.636 E.01731
G1 X99.055 Y103.346 E.00998
G1 X98.75 Y102.896 E.01704
G1 X98.53 Y102.666 E.00998
G1 X98.088 Y102.339 E.01724
G1 X97.539 Y102.114 E.0186
G1 X97.056 Y102.017 E.01545
;WIDTH:0.403022
G1 X97.291 Y102.02 E.00704
;WIDTH:0.419999
G1 X97.815 Y101.946 E.01659
G1 X98.412 Y101.804 E.01924
G1 X99.094 Y101.529 E.02306
G1 X99.496 Y101.298 E.01454
G1 X100.004 Y100.966 E.01903
G1 X100.651 Y100.378 E.02741
G1 X101.201 Y99.675 E.02799
G1 X101.57 Y99.015 E.02371
G1 X101.909 Y98.044 E.03225
G1 X102.035 Y97.307 E.02344
G1 X102.033 Y96.267 E.03261
G1 X101.869 Y95.392 E.02791
G1 X101.53 Y94.504 E.0298
G1 X101.076 Y93.739 E.02789
G1 X100.851 Y93.486 E.01062
;WIDTH:0.387106
G1 X100.626 Y93.233 E.00969
;WIDTH:0.376103
G1 X100.723 Y93.316 E.00354
;WIDTH:0.419999
G1 X101.178 Y93.623 E.01721
G1 X101.474 Y93.742 E.01
G1 X102.009 Y93.857 E.01716
G1 X102.328 Y93.871 E.01001
G1 X102.847 Y93.804 E.01641
G1 X103.183 Y93.706 E.01097
G1 X103.672 Y93.458 E.01719
G1 X103.927 Y93.268 E.00997
G1 X104.386 Y92.776 E.0211
G1 X104.645 Y92.243 E.01858
;WIPE_START
G1 F7200
G1 X104.672 Y92.189 E-.01434
G1 X105.027 Y92.832 E-.17444
G1 X105.419 Y93.778 E-.2432
G1 X105.703 Y94.763 E-.24347
G1 X105.791 Y95.28 E-.12455
;WIPE_END
G1 X104.451 Y91.169 F9000
G1 E.8 F1800
G1 F1200
G1 X104.851 Y91.734 E.02171
G1 X105.367 Y92.668 E.03346
G1 X105.776 Y93.654 E.03347
G1 X106.071 Y94.679 E.03344
G1 X106.25 Y95.73 E.03343
G1 X106.302 Y96.925 E.0375
G1 X106.25 Y97.86 E.02936
G1 X106.071 Y98.912 E.03346
G1 X105.776 Y99.937 E.03344
G1 X105.367 Y100.922 E.03344
G1 X104.851 Y101.856 E.03346
G1 X104.234 Y102.726 E.03344
G1 X103.523 Y103.521 E.03344
G1 X102.728 Y104.232 E.03344
G1 X101.858 Y104.849 E.03344
G1 X100.925 Y105.365 E.03343
G1 X99.939 Y105.773 E.03346
G1 X98.914 Y106.069 E.03345
G1 X98.219 Y106.188 E.02211
G1 X98.657 Y105.687 E.02087
G1 X98.931 Y105.002 E.02313
G1 X98.977 Y104.456 E.01718
G1 X98.961 Y104.265 E.00601
G1 X98.821 Y103.731 E.01731
G1 X98.742 Y103.557 E.00599
G1 X98.306 Y102.969 E.02295
G1 X97.693 Y102.556 E.02318
G1 X97.04 Y102.373 E.02126
G1 X96.61 Y102.372 E.01348
G1 X96.075 Y102.487 E.01716
G1 X95.858 Y102.582 E.00743
G1 X95.288 Y102.97 E.02162
G1 X94.939 Y103.402 E.01741
G1 X94.77 Y103.787 E.01318
G1 X94.632 Y104.277 E.01596
G1 X94.633 Y104.821 E.01706
G1 X94.666 Y105.008 E.00595
G1 X94.942 Y105.692 E.02313
G1 X95.365 Y106.186 E.02039
G1 X94.681 Y106.069 E.02176
G1 X93.656 Y105.773 E.03345
G1 X92.671 Y105.365 E.03343
G1 X91.737 Y104.849 E.03346
G1 X90.867 Y104.232 E.03344
G1 X90.072 Y103.521 E.03344
G1 X89.361 Y102.726 E.03344
G1 X88.744 Y101.856 E.03344
G1 X88.228 Y100.922 E.03346
G1 X87.819 Y99.937 E.03344
G1 X87.524 Y98.912 E.03344
G1 X87.346 Y97.86 E.03345
G1 X87.286 Y96.795 E.03345
G1 X87.346 Y95.73 E.03345
G1 X87.524 Y94.679 E.03342
G1 X87.819 Y93.654 E.03344
G1 X88.228 Y92.668 E.03347
G1 X88.744 Y91.734 E.03346
G1 X89.155 Y91.154 E.02229
G1 X89.186 Y91.778 E.01959
G1 X89.368 Y92.294 E.01716
G1 X89.509 Y92.52 E.00835
G1 X89.951 Y93.015 E.02081
G1 X90.417 Y93.302 E.01716
G1 X90.593 Y93.373 E.00595
G1 X91.218 Y93.501 E.02
G1 X91.759 Y93.44 E.01707
G1 X92.048 Y93.371 E.00932
G1 X92.616 Y93.075 E.02008
G1 X93.02 Y92.667 E.018
G1 X93.173 Y92.462 E.00802
G1 X93.381 Y92.002 E.01583
G1 X93.452 Y91.765 E.00776
G1 X93.497 Y91.217 E.01724
G1 X93.404 Y90.738 E.0153
G1 X93.262 Y90.326 E.01366
G1 X92.825 Y89.738 E.02297
G1 X92.213 Y89.326 E.02313
G1 X91.689 Y89.166 E.01718
G1 X91.174 Y89.14 E.01617
G1 X91.737 Y88.742 E.02162
G1 X92.671 Y88.225 E.03347
G1 X93.656 Y87.817 E.03343
G1 X94.681 Y87.522 E.03344
G1 X95.733 Y87.343 E.03346
G1 X96.798 Y87.283 E.03345
G1 X97.863 Y87.343 E.03345
G1 X98.914 Y87.522 E.03343
G1 X99.939 Y87.817 E.03344
G1 X100.925 Y88.225 E.03346
G1 X101.858 Y88.742 E.03344
G1 X102.42 Y89.139 E.02157
G1 X102.072 Y89.145 E.01091
G1 X101.376 Y89.329 E.02257
G1 X100.767 Y89.742 E.02307
G1 X100.422 Y90.169 E.01721
G1 X100.272 Y90.496 E.01128
G1 X100.114 Y91.04 E.01776
G1 X100.113 Y91.588 E.01718
G1 X100.146 Y91.777 E.00602
G1 X100.329 Y92.295 E.01723
G1 X100.422 Y92.461 E.00597
G1 X100.766 Y92.888 E.01719
G1 X100.909 Y93.014 E.00598
G1 X101.376 Y93.302 E.0172
G1 X101.554 Y93.373 E.00601
G1 X102.089 Y93.488 E.01716
G1 X102.28 Y93.497 E.006
G1 X102.799 Y93.43 E.01641
G1 X103.138 Y93.306 E.01132
G1 X103.654 Y93.008 E.01868
G1 X104.03 Y92.614 E.01708
G1 X104.137 Y92.456 E.00598
G1 X104.363 Y91.957 E.01718
G1 X104.411 Y91.771 E.00602
G1 X104.447 Y91.229 E.01703
;WIPE_START
G1 F7200
G1 X104.451 Y91.169 E-.01428
G1 X104.851 Y91.734 E-.16441
G1 X105.367 Y92.668 E-.25343
G1 X105.776 Y93.654 E-.25352
G1 X105.909 Y94.117 E-.11436
;WIPE_END
G1 X103.877 Y89.867 F9000
G1 E.8 F1800
;TYPE:External perimeter
G1 F1200
G1 X104.529 Y90.626 E.03137
G1 X105.171 Y91.534 E.03487
G1 X105.708 Y92.504 E.03476
G1 X106.132 Y93.529 E.03478
G1 X106.439 Y94.595 E.03478
G1 X106.625 Y95.688 E.03476
G1 X106.679 Y96.946 E.03948
G1 X106.625 Y97.903 E.03005
G1 X106.439 Y98.996 E.03476
G1 X106.132 Y100.062 E.03478
G1 X105.708 Y101.086 E.03475
G1 X105.171 Y102.057 E.03479
G1 X104.529 Y102.961 E.03476
G1 X103.79 Y103.788 E.03477
G1 X102.964 Y104.527 E.03475
G1 X102.059 Y105.169 E.03479
G1 X101.088 Y105.705 E.03478
G1 X100.123 Y106.105 E.03275
G1 X99.604 Y106.262 E.017
G1 X98.75 Y106.479 E.02763
G1 X97.888 Y106.625 E.02741
;WIDTH:0.428717
G1 X96.649 Y106.696 E.03981
;WIDTH:0.419999
G1 X95.693 Y106.624 E.03006
G1 X94.597 Y106.437 E.03486
G1 X93.531 Y106.13 E.03478
G1 X92.507 Y105.705 E.03476
G1 X91.536 Y105.169 E.03478
G1 X90.632 Y104.527 E.03476
G1 X89.805 Y103.788 E.03477
G1 X89.066 Y102.961 E.03477
G1 X88.424 Y102.057 E.03476
G1 X87.887 Y101.086 E.03479
G1 X87.463 Y100.062 E.03475
G1 X87.156 Y98.996 E.03478
G1 X86.97 Y97.903 E.03476
G1 X86.908 Y96.795 E.03479
G1 X86.97 Y95.688 E.03476
G1 X87.156 Y94.595 E.03476
G1 X87.463 Y93.529 E.03478
G1 X87.887 Y92.504 E.03478
G1 X88.145 Y92.038 E.0167
G1 X88.597 Y91.29 E.0274
G1 X89.075 Y90.616 E.02591
;WIDTH:0.428437
G1 X89.783 Y89.801 E.03461
;WIDTH:0.426482
G1 X90.168 Y89.465 E.0163
;WIDTH:0.425216
G1 X90.629 Y89.064 E.01942
;WIDTH:0.419999
G1 X91.536 Y88.422 E.03484
G1 X92.507 Y87.885 E.03479
G1 X93.531 Y87.461 E.03475
G1 X94.597 Y87.154 E.03478
G1 X95.69 Y86.968 E.03476
G1 X96.798 Y86.906 E.03479
G1 X97.905 Y86.968 E.03476
G1 X98.998 Y87.154 E.03476
G1 X100.064 Y87.461 E.03478
G1 X101.088 Y87.885 E.03475
G1 X102.059 Y88.422 E.03479
G1 X102.977 Y89.073 E.03529
;WIDTH:0.432279
G1 X103.832 Y89.828 E.03693
;WIPE_START
G1 F7200
G1 X103.877 Y89.867 E-.01414
G1 X104.529 Y90.626 E-.23764
G1 X105.171 Y91.534 E-.26411
G1 X105.708 Y92.504 E-.26332
G1 X105.741 Y92.585 E-.02079
;WIPE_END
G1 X102.152 Y89.513 F9000
G1 E.8 F1800
;WIDTH:0.419999
G1 F1200
G1 X102.541 Y89.528 E.01221
;WIDTH:0.427915
G1 X103.064 Y89.691 E.01754
G1 X103.547 Y90.062 E.0195
;WIDTH:0.441465
G1 X103.91 Y90.533 E.01971
G1 X104.075 Y91.128 E.02046
;WIDTH:0.419999
G1 X104.035 Y91.74 E.01923
G1 X103.793 Y92.301 E.01916
G1 X103.382 Y92.747 E.01902
G1 X102.841 Y93.033 E.01919
G1 X102.232 Y93.123 E.0193
G1 X101.633 Y93.004 E.01915
G1 X101.107 Y92.693 E.01916
G1 X100.715 Y92.225 E.01914
G1 X100.501 Y91.651 E.01921
G1 X100.497 Y90.994 E.0206
G1 X100.684 Y90.462 E.01768
G1 X101.06 Y89.979 E.01919
G1 X101.574 Y89.65 E.01913
G1 X102.093 Y89.527 E.01672
;WIPE_START
G1 F7200
G1 X102.152 Y89.513 E-.0144
G1 X102.541 Y89.528 E-.09246
;WIPE_END
G1 E-.69314 F1800
G1 X93.115 Y91.124 F9000
G1 E.8 F1800
G1 F1200
G1 X93.076 Y91.735 E.0192
G1 X92.829 Y92.306 E.01951
G1 X92.418 Y92.75 E.01897
G1 X91.878 Y93.034 E.01913
G1 X91.272 Y93.123 E.0192
G1 X90.673 Y93.004 E.01915
G1 X90.148 Y92.694 E.01912
G1 X89.724 Y92.169 E.02116
G1 X89.541 Y91.652 E.0172
G1 X89.532 Y91.041 E.01916
;WIDTH:0.426932
G1 X89.732 Y90.462 E.01956
G1 X90.058 Y90.067 E.01635
;WIDTH:0.426482
