; generated by PrusaSlicer 2.7.1+win64 on 2024-07-29 at 08:31:15 UTC

; 

; external perimeters extrusion width = 0.42mm
; perimeters extrusion width = 0.44mm
; infill extrusion width = 0.44mm
; solid infill extrusion width = 0.44mm
; top infill extrusion width = 0.40mm
; first layer extrusion width = 0.42mm

M201 X500 Y500 Z100 E5000 ; sets maximum accelerations, mm/sec^2
M203 X500 Y500 Z10 E60 ; sets maximum feedrates, mm / sec
M204 S500 T1000 ; sets acceleration (S) and retract acceleration (R), mm/sec^2
M205 X8.00 Y8.00 Z0.40 E5.00 ; sets the jerk limits, mm/sec
M205 S0 T0 ; sets the minimum extruding and travel feed rate, mm/sec

; printing object Hinge.STL id:0 copy 0
; stop printing object Hinge.STL id:0 copy 0

;TYPE:Custom
G90 ; use absolute coordinates
M83 ; extruder relative mode
M104 S130 ; set temporary nozzle temp to prevent oozing during homing
M140 S60 ; set final bed temp
G4 S30 ; allow partial nozzle warmup
G28 ; home all axis and restore leveling
G1 Z50 F240
G1 X2.0 Y10 F3000
M104 S220 ; set final nozzle temp
M190 S60 ; wait for bed temp to stabilize
M109 S220 ; wait for nozzle temp to stabilize
G1 Z0.28 F240
G92 E0
G1 X2.0 Y140 E10 F1500 ; prime the nozzle
G1 X2.3 Y140 F5000
G92 E0
G1 X2.3 Y10 E10 F1200 ; prime the nozzle
G92 E0
G21 ; set units to millimeters
G90 ; use absolute coordinates
M83 ; use relative distances for extrusion
; Filament gcode
M107
;LAYER_CHANGE
;Z:0.2
;HEIGHT:0.2
;BEFORE_LAYER_CHANGE
G92 E0
;0.2


G1 E-.8 F1800
G1 Z.2 F9000
;AFTER_LAYER_CHANGE
;0.2
G1 X98.882 Y97.481
G1 Z.2
G1 E.8 F1800
M204 S500
;TYPE:Skirt/Brim
;WIDTH:0.42
G1 F1200
G1 X99.836 Y96.694 E.03878
G1 X100.965 Y96.118 E.03974
G1 X102.179 Y95.805 E.03931
G1 X102.972 Y95.746 E.02493
G1 X117.031 Y95.746 E.44081
G1 X118.029 Y95.839 E.03143
G1 X118.995 Y96.103 E.0314
G1 X119.889 Y96.524 E.03098
G1 X120.674 Y97.071 E.03
G1 X121.364 Y97.75 E.03035
G1 X121.941 Y98.551 E.03095
G1 X122.376 Y99.448 E.03126
G1 X122.652 Y100.419 E.03165
G1 X122.754 Y101.467 E.03301
G1 X122.749 Y118.733 E.54136
G1 X122.512 Y120.151 E.04508
G1 X121.897 Y121.521 E.04708
G1 X121.059 Y122.579 E.04232
G1 X120.021 Y123.397 E.04144
G1 X118.809 Y123.962 E.04193
G1 X117.469 Y124.235 E.04288
G1 X102.719 Y124.247 E.46248
G1 X101.287 Y123.993 E.0456
G1 X99.966 Y123.389 E.04554
G1 X98.909 Y122.546 E.04239
G1 X98.077 Y121.479 E.04242
G1 X97.525 Y120.271 E.04164
G1 X97.263 Y118.937 E.04263
G1 X97.251 Y101.247 E.55466
G1 X97.5 Y99.81 E.04573
G1 X98.109 Y98.469 E.04618
G1 X98.845 Y97.528 E.03746
G1 X99.142 Y97.763 F9000
G1 F1200
G1 X99.175 Y97.721 E.00167
G1 X100.098 Y96.973 E.03725
G1 X101.147 Y96.452 E.03672
G1 X102.283 Y96.171 E.03669
G1 X117.014 Y96.123 E.46188
G1 X117.919 Y96.202 E.02848
G1 X118.825 Y96.442 E.02939
G1 X119.675 Y96.836 E.02938
G1 X120.445 Y97.371 E.0294
G1 X121.109 Y98.032 E.02938
G1 X121.649 Y98.798 E.02939
G1 X122.048 Y99.647 E.02941
G1 X122.293 Y100.552 E.0294
G1 X122.377 Y101.468 E.02884
G1 X122.373 Y118.703 E.54039
G1 X122.138 Y120.086 E.04398
G1 X121.552 Y121.362 E.04403
G1 X120.779 Y122.325 E.03872
G1 X119.797 Y123.092 E.03907
G1 X118.648 Y123.618 E.03962
G1 X117.437 Y123.859 E.03871
G1 X102.751 Y123.871 E.46047
G1 X101.397 Y123.633 E.0431
G1 X100.138 Y123.052 E.04348
G1 X99.155 Y122.258 E.03962
G1 X98.383 Y121.257 E.03964
G1 X97.867 Y120.103 E.03964
G1 X97.635 Y118.86 E.03965
G1 X97.627 Y101.28 E.55121
G1 X97.862 Y99.914 E.04346
G1 X98.448 Y98.638 E.04403
G1 X99.104 Y97.81 E.03312
; printing object Hinge.STL id:0 copy 0
;WIPE_START
G1 F7200
G1 X99.142 Y97.763 E-.01435
G1 X99.175 Y97.721 E-.01269
G1 X100.098 Y96.973 E-.28216
G1 X101.147 Y96.452 E-.27817
G1 X102.016 Y96.237 E-.21263
;WIPE_END
G1 X102.123 Y101.203 F9000
G1 E.8 F1800
;TYPE:Perimeter
;WIDTH:0.419999
G1 F1200
G1 X102.308 Y100.878 E.01173
G1 X102.623 Y100.649 E.01221
G1 X102.966 Y100.567 E.01106
G1 X117.021 Y100.567 E.44068
G1 X117.442 Y100.682 E.01368
G1 X117.676 Y100.87 E.00941
G1 X117.877 Y101.206 E.01228
G1 X117.935 Y101.627 E.01332
G1 X117.936 Y118.398 E.52584
G1 X117.868 Y118.813 E.01319
G1 X117.685 Y119.1 E.01067
G1 X117.426 Y119.322 E.0107
G1 X117.001 Y119.435 E.01379
G1 X103.044 Y119.435 E.43761
G1 X102.566 Y119.313 E.01547
G1 X102.249 Y119.038 E.01316
G1 X102.123 Y118.794 E.00861
G1 X102.064 Y118.452 E.01088
G1 X102.073 Y101.524 E.53076
G1 X102.107 Y101.26 E.00835
G1 X101.826 Y100.957 F9000
G1 F1200
G1 X101.866 Y100.846 E.0037
G1 X102.126 Y100.534 E.01273
G1 X102.469 Y100.303 E.01297
G1 X102.94 Y100.19 E.01519
G1 X116.875 Y100.19 E.43692
G1 X117.349 Y100.238 E.01494
G1 X117.74 Y100.431 E.01367
G1 X118.058 Y100.731 E.01371
G1 X118.239 Y101.085 E.01247
G1 X118.312 Y101.627 E.01715
G1 X118.313 Y118.398 E.52584
G1 X118.285 Y118.697 E.00942
G1 X118.161 Y119.1 E.01322
G1 X117.875 Y119.47 E.01466
G1 X117.731 Y119.57 E.0055
G1 X117.442 Y119.715 E.01014
G1 X117.02 Y119.812 E.01358
G1 X103.151 Y119.812 E.43485
G1 X102.519 Y119.715 E.02005
G1 X102.26 Y119.578 E.00919
G1 X101.941 Y119.264 E.01403
G1 X101.761 Y118.915 E.01231
G1 X101.687 Y118.484 E.01371
G1 X101.696 Y101.524 E.53177
G1 X101.722 Y101.247 E.00872
G1 X101.806 Y101.013 E.0078
G1 X101.462 Y100.827 F9000
;TYPE:External perimeter
G1 F1200
G1 X101.641 Y100.513 E.01133
G1 X102.007 Y100.134 E.01652
G1 X102.479 Y99.903 E.01648
G1 X102.915 Y99.813 E.01396
G1 X116.942 Y99.813 E.43981
G1 X117.451 Y99.873 E.01607
G1 X117.804 Y100.015 E.01193
G1 X118.119 Y100.235 E.01205
G1 X118.372 Y100.516 E.01186
G1 X118.601 Y100.964 E.01578
G1 X118.689 Y101.627 E.02097
G1 X118.69 Y118.398 E.52584
G1 X118.635 Y118.923 E.01655
G1 X118.493 Y119.288 E.01228
G1 X118.138 Y119.747 E.01819
G1 X117.768 Y120.003 E.01411
G1 X117.449 Y120.11 E.01055
G1 X117.039 Y120.189 E.01309
G1 X102.97 Y120.189 E.44112
G1 X102.391 Y120.074 E.01851
G1 X102.035 Y119.885 E.01264
G1 X101.634 Y119.491 E.01763
G1 X101.4 Y119.036 E.01604
G1 X101.31 Y118.516 E.01655
G1 X101.319 Y101.524 E.53277
G1 X101.353 Y101.172 E.01109
G1 X101.444 Y100.884 E.00947
;WIPE_START
G1 F7200
G1 X101.462 Y100.827 E-.0142
G1 X101.641 Y100.513 E-.08584
G1 X102.007 Y100.134 E-.12513
G1 X102.479 Y99.903 E-.12481
G1 X102.915 Y99.813 E-.10573
G1 X104.365 Y99.813 E-.34429
;WIPE_END
G1 X117.787 Y101.388 F9000
G1 E.8 F1800
;TYPE:Solid infill
;WIDTH:0.422844
G1 F1200
G1 X117.42 Y101.021 E.0164
G1 X117.303 Y100.939 E.00451
G1 X117.168 Y100.885 E.00459
G1 X117.061 Y100.867 E.00343
G1 X116.729 Y100.867 E.01049
G1 X117.645 Y101.783 E.04092
G1 X117.645 Y102.321 E.017
G1 X116.191 Y100.867 E.06496
G1 X115.653 Y100.866 E.017
G1 X117.645 Y102.858 E.08899
G1 X117.645 Y103.395 E.01696
G1 X115.116 Y100.866 E.11299
G1 X114.578 Y100.866 E.017
G1 X117.645 Y103.932 E.137
G1 X117.645 Y104.47 E.017
G1 X114.04 Y100.865 E.16106
G1 X113.503 Y100.865 E.01696
G1 X117.645 Y105.007 E.18505
G1 X117.645 Y105.544 E.01696
G1 X112.965 Y100.864 E.20908
G1 X112.427 Y100.864 E.017
G1 X117.645 Y106.082 E.23312
G1 X117.645 Y106.619 E.01696
G1 X111.89 Y100.864 E.25711
G1 X111.352 Y100.863 E.017
G1 X117.645 Y107.156 E.28115
G1 X117.645 Y107.694 E.017
G1 X110.814 Y100.863 E.30518
G1 X110.276 Y100.862 E.017
G1 X117.645 Y108.231 E.32922
G1 X117.645 Y108.768 E.01696
G1 X109.739 Y100.862 E.35321
G1 X109.201 Y100.862 E.017
G1 X117.645 Y109.306 E.37725
G1 X117.645 Y109.843 E.01696
G1 X108.663 Y100.861 E.40128
G1 X108.126 Y100.861 E.01696
G1 X117.645 Y110.38 E.42527
G1 X117.645 Y110.917 E.01696
G1 X107.588 Y100.86 E.44931
G1 X107.05 Y100.86 E.017
G1 X117.645 Y111.455 E.47334
G1 X117.645 Y111.992 E.01696
G1 X106.513 Y100.86 E.49733
G1 X105.975 Y100.859 E.017
G1 X117.645 Y112.529 E.52137
G1 X117.645 Y113.067 E.017
G1 X105.437 Y100.859 E.54541
G1 X104.9 Y100.859 E.01696
G1 X117.645 Y113.604 E.5694
G1 X117.645 Y114.141 E.01696
G1 X104.362 Y100.858 E.59343
G1 X103.824 Y100.858 E.017
G1 X117.645 Y114.679 E.61747
G1 X117.645 Y115.216 E.01696
G1 X103.287 Y100.857 E.64148
G1 X102.985 Y100.857 E.00954
G1 X102.791 Y100.899 E.00627
G1 X117.645 Y115.753 E.66362
G1 X117.645 Y116.29 E.01696
G1 X102.484 Y101.13 E.67731
G1 X102.391 Y101.31 E.0064
G1 X102.363 Y101.546 E.00751
G1 X117.645 Y116.828 E.68274
G1 X117.645 Y117.365 E.01696
G1 X102.363 Y102.083 E.68274
G1 X102.363 Y102.62 E.01696
G1 X117.645 Y117.902 E.68274
G1 X117.645 Y118.44 E.017
G1 X102.362 Y103.157 E.68279
G1 X102.362 Y103.694 E.01696
G1 X117.514 Y118.846 E.67693
G1 X117.41 Y118.98 E.00536
G1 X117.295 Y119.06 E.00443
G1 X117.217 Y119.086 E.0026
G1 X102.362 Y104.231 E.66366
G1 X102.362 Y104.768 E.01696
G1 X116.738 Y119.145 E.64229
G1 X116.201 Y119.145 E.01696
G1 X102.361 Y105.305 E.61832
G1 X102.361 Y105.842 E.01696
G1 X115.664 Y119.145 E.59433
G1 X115.127 Y119.145 E.01696
G1 X102.361 Y106.379 E.57034
G1 X102.361 Y106.916 E.01696
G1 X114.589 Y119.145 E.54632
G1 X114.052 Y119.145 E.01696
G1 X102.36 Y107.453 E.52235
G1 X102.36 Y107.99 E.01696
G1 X113.515 Y119.145 E.49836
G1 X112.977 Y119.145 E.017
G1 X102.36 Y108.527 E.47435
G1 X102.359 Y109.064 E.01696
G1 X112.44 Y119.145 E.45038
G1 X111.903 Y119.145 E.01696
G1 X102.359 Y109.601 E.42639
G1 X102.359 Y110.138 E.01696
G1 X111.366 Y119.145 E.4024
G1 X110.828 Y119.145 E.017
G1 X102.359 Y110.675 E.37838
G1 X102.358 Y111.212 E.01696
G1 X110.291 Y119.145 E.35442
G1 X109.754 Y119.145 E.01696
G1 X102.358 Y111.749 E.33042
G1 X102.358 Y112.286 E.01696
G1 X109.216 Y119.145 E.30641
G1 X108.679 Y119.145 E.01696
G1 X102.358 Y112.823 E.28242
G1 X102.357 Y113.36 E.01696
G1 X108.142 Y119.145 E.25845
G1 X107.604 Y119.145 E.017
G1 X102.357 Y113.897 E.23444
G1 X102.357 Y114.435 E.017
G1 X107.067 Y119.145 E.21042
G1 X106.53 Y119.145 E.01696
G1 X102.357 Y114.972 E.18643
G1 X102.356 Y115.509 E.01696
G1 X105.993 Y119.145 E.16246
G1 X105.455 Y119.145 E.017
G1 X102.356 Y116.046 E.13845
G1 X102.356 Y116.583 E.01696
G1 X104.918 Y119.145 E.11446
G1 X104.381 Y119.145 E.01696
G1 X102.355 Y117.12 E.09049
G1 X102.355 Y117.657 E.01696
G1 X103.843 Y119.145 E.06648
G1 X103.306 Y119.145 E.01696
G1 X102.355 Y118.194 E.04249
G1 X102.355 Y118.427 E.00736
G1 X102.402 Y118.7 E.00875
G1 X102.484 Y118.86 E.00568
G1 X102.909 Y119.285 E.01899
; stop printing object Hinge.STL id:0 copy 0
;LAYER_CHANGE
;Z:0.36
;HEIGHT:0.16
;BEFORE_LAYER_CHANGE
G92 E0
;0.36


;WIPE_START
G1 F7200
G1 X102.484 Y118.86 E-.14275
G1 X102.402 Y118.7 E-.0427
G1 X102.355 Y118.427 E-.06579
G1 X102.355 Y118.194 E-.05534
G1 X103.306 Y119.145 E-.31942
G1 X103.843 Y119.145 E-.12754
G1 X103.705 Y119.007 E-.04646
;WIPE_END
G1 Z.36 F9000
;AFTER_LAYER_CHANGE
;0.36
M140 S50 ; set bed temperature
G1 X103.709 Y124.246
G1 E.8 F1800
;TYPE:Skirt/Brim
;WIDTH:0.42
G1 F2400
G1 X102.719 Y124.247 E.0254
G1 X101.287 Y123.993 E.03731
G1 X99.966 Y123.389 E.03726
G1 X98.909 Y122.546 E.03468
G1 X98.077 Y121.479 E.03471
G1 X97.525 Y120.271 E.03407
G1 X97.263 Y118.937 E.03488
G1 X97.251 Y101.247 E.45383
G1 X97.5 Y99.81 E.03741
G1 X98.109 Y98.469 E.03778
G1 X98.882 Y97.481 E.03218
G1 X99.836 Y96.694 E.03173
G1 X100.965 Y96.118 E.03252
G1 X102.179 Y95.805 E.03216
G1 X102.972 Y95.746 E.0204
G1 X117.031 Y95.746 E.36068
G1 X118.029 Y95.839 E.02571
G1 X118.995 Y96.103 E.02569
G1 X119.889 Y96.524 E.02535
G1 X120.674 Y97.071 E.02455
G1 X121.364 Y97.75 E.02484
G1 X121.941 Y98.551 E.02533
G1 X122.376 Y99.448 E.02558
G1 X122.652 Y100.419 E.0259
G1 X122.754 Y101.467 E.02701
G1 X122.749 Y118.733 E.44295
G1 X122.512 Y120.151 E.03688
G1 X121.897 Y121.521 E.03853
G1 X121.059 Y122.579 E.03463
G1 X120.021 Y123.397 E.0339
G1 X118.809 Y123.962 E.03431
G1 X117.469 Y124.235 E.03508
G1 X103.769 Y124.246 E.35147
G1 X103.769 Y123.87 F9000
G1 F2400
G1 X102.751 Y123.871 E.02612
G1 X101.397 Y123.633 E.03527
G1 X100.138 Y123.052 E.03557
G1 X99.155 Y122.258 E.03242
G1 X98.383 Y121.257 E.03243
G1 X97.867 Y120.103 E.03243
G1 X97.635 Y118.86 E.03244
G1 X97.627 Y101.28 E.45101
G1 X97.862 Y99.914 E.03556
G1 X98.448 Y98.638 E.03602
G1 X99.175 Y97.721 E.03002
G1 X100.098 Y96.973 E.03048
G1 X101.147 Y96.452 E.03005
G1 X102.283 Y96.171 E.03002
G1 X117.014 Y96.123 E.37792
G1 X117.919 Y96.202 E.02331
G1 X118.825 Y96.442 E.02404
G1 X119.675 Y96.836 E.02404
G1 X120.445 Y97.371 E.02405
G1 X121.109 Y98.032 E.02404
G1 X121.649 Y98.798 E.02404
G1 X122.048 Y99.647 E.02407
G1 X122.293 Y100.552 E.02405
G1 X122.377 Y101.468 E.0236
G1 X122.373 Y118.703 E.44215
G1 X122.138 Y120.086 E.03599
G1 X121.552 Y121.362 E.03602
G1 X120.779 Y122.325 E.03168
G1 X119.797 Y123.092 E.03197
G1 X118.648 Y123.618 E.03242
G1 X117.437 Y123.859 E.03168
G1 X103.829 Y123.87 E.34911
; printing object Hinge.STL id:0 copy 0
;WIPE_START
G1 F7200
G1 X103.769 Y123.87 E-.01425
G1 X102.751 Y123.871 E-.24178
G1 X101.397 Y123.633 E-.32651
G1 X100.566 Y123.249 E-.21746
;WIPE_END
G1 X102.689 Y119.402 F9000
G1 E.8 F1800
;TYPE:Perimeter
;WIDTH:0.439999
G1 F2400
G1 X102.548 Y119.353 E.00403
G1 X102.254 Y119.139 E.00981
G1 X102.088 Y118.847 E.00906
G1 X102.012 Y118.469 E.0104
G1 X102.012 Y101.651 E.45383
G1 X102.076 Y101.184 E.01272
G1 X102.212 Y100.924 E.00792
G1 X102.448 Y100.697 E.00884
G1 X102.63 Y100.612 E.00542
G1 X102.977 Y100.514 E.00973
G1 X116.908 Y100.511 E.37593
G1 X117.189 Y100.534 E.00761
G1 X117.52 Y100.664 E.0096
G1 X117.79 Y100.913 E.00991
G1 X117.919 Y101.161 E.00754
G1 X117.983 Y101.514 E.00968
G1 X117.988 Y118.347 E.45424
G1 X117.949 Y118.67 E.00878
G1 X117.852 Y118.955 E.00812
G1 X117.638 Y119.247 E.00977
G1 X117.356 Y119.409 E.00878
G1 X116.982 Y119.488 E.01032
G1 X103.139 Y119.488 E.37355
G1 X102.831 Y119.451 E.00837
G1 X102.746 Y119.421 E.00243
G1 X102.548 Y119.812 F9000
G1 F2400
G1 X102.164 Y119.61 E.01171
G1 X101.866 Y119.288 E.01184
G1 X101.705 Y118.981 E.00935
G1 X101.606 Y118.496 E.01336
G1 X101.606 Y101.651 E.45456
G1 X101.687 Y101.052 E.01631
G1 X101.883 Y100.678 E.01139
G1 X102.215 Y100.358 E.01244
G1 X102.645 Y100.157 E.01281
G1 X102.944 Y100.108 E.00818
G1 X116.908 Y100.106 E.37682
G1 X117.266 Y100.134 E.00969
G1 X117.736 Y100.319 E.01363
G1 X118.118 Y100.671 E.01402
G1 X118.344 Y101.14 E.01405
G1 X118.388 Y101.514 E.01016
G1 X118.394 Y118.347 E.45424
G1 X118.311 Y118.953 E.01651
G1 X118.11 Y119.336 E.01167
G1 X117.903 Y119.557 E.00817
G1 X117.492 Y119.791 E.01276
G1 X117.01 Y119.894 E.0133
G1 X103.139 Y119.894 E.37431
G1 X102.608 Y119.82 E.01447
G1 X102.418 Y120.19 F9000
;TYPE:External perimeter
;WIDTH:0.419999
G1 F1500
G1 X101.933 Y119.935 E.01406
G1 X101.64 Y119.662 E.01027
G1 X101.409 Y119.317 E.01065
G1 X101.264 Y118.933 E.01053
G1 X101.21 Y118.522 E.01063
G1 X101.21 Y101.483 E.43713
G1 X101.308 Y100.923 E.01458
G1 X101.562 Y100.438 E.01405
G1 X101.988 Y100.027 E.01519
G1 X102.527 Y99.775 E.01526
G1 X102.912 Y99.713 E.01
G1 X116.908 Y99.71 E.35906
G1 X117.341 Y99.744 E.01114
G1 X117.8 Y99.908 E.0125
G1 X118.221 Y100.192 E.01303
G1 X118.522 Y100.575 E.0125
G1 X118.728 Y101.037 E.01298
G1 X118.784 Y101.514 E.01232
G1 X118.79 Y118.517 E.4362
G1 X118.69 Y119.082 E.01472
G1 X118.435 Y119.567 E.01406
G1 X118.162 Y119.86 E.01027
G1 X117.826 Y120.087 E.0104
G1 X117.448 Y120.232 E.01039
G1 X117.038 Y120.289 E.01062
G1 X102.966 Y120.289 E.36101
G1 X102.477 Y120.201 E.01275
;WIPE_START
G1 F7200
G1 X102.418 Y120.19 E-.01425
G1 X101.933 Y119.935 E-.13014
G1 X101.64 Y119.662 E-.09511
G1 X101.409 Y119.317 E-.09861
G1 X101.264 Y118.933 E-.09749
G1 X101.21 Y118.522 E-.09845
G1 X101.21 Y117.402 E-.26595
;WIPE_END
G1 X103.039 Y100.826 F9000
G1 E.8 F1800
;TYPE:Solid infill
;WIDTH:0.439999
G1 F2400
G1 X102.332 Y101.534 E.027
G1 X102.324 Y102.115 E.01568
G1 X103.613 Y100.826 E.04919
G1 X104.186 Y100.827 E.01546
G1 X102.324 Y102.689 E.07106
G1 X102.324 Y103.263 E.01549
G1 X104.76 Y100.827 E.09296
G1 X105.334 Y100.827 E.01549
G1 X102.324 Y103.836 E.11485
G1 X102.324 Y104.41 E.01549
G1 X105.907 Y100.827 E.13674
G1 X106.481 Y100.827 E.01549
G1 X102.324 Y104.984 E.15864
G1 X102.324 Y105.557 E.01546
G1 X107.054 Y100.827 E.18051
G1 X107.628 Y100.827 E.01549
G1 X102.324 Y106.131 E.20241
G1 X102.324 Y106.705 E.01549
G1 X108.202 Y100.827 E.22432
G1 X108.775 Y100.827 E.01546
G1 X102.324 Y107.278 E.24618
G1 X102.324 Y107.852 E.01549
G1 X109.349 Y100.827 E.26809
G1 X109.923 Y100.827 E.01549
G1 X102.324 Y108.426 E.29
G1 X102.324 Y109 E.01549
G1 X110.496 Y100.827 E.31188
G1 X111.07 Y100.827 E.01549
