; generated by PrusaSlicer 2.7.1+win64 on 2024-07-10 at 09:06:57 UTC

; 

; external perimeters extrusion width = 0.63mm
; perimeters extrusion width = 0.66mm
; infill extrusion width = 0.66mm
; solid infill extrusion width = 0.66mm
; top infill extrusion width = 0.60mm
; first layer extrusion width = 0.63mm

M201 X500 Y500 Z100 E5000 ; sets maximum accelerations, mm/sec^2
M203 X500 Y500 Z10 E60 ; sets maximum feedrates, mm / sec
M204 S500 T1000 ; sets acceleration (S) and retract acceleration (R), mm/sec^2
M205 X8.00 Y8.00 Z0.40 E5.00 ; sets the jerk limits, mm/sec
M205 S0 T0 ; sets the minimum extruding and travel feed rate, mm/sec

; printing object ConnectorLongPart2.STL id:0 copy 0
; stop printing object ConnectorLongPart2.STL id:0 copy 0
; printing object ConnectorLongPart2.STL id:0 copy 1
; stop printing object ConnectorLongPart2.STL id:0 copy 1

;TYPE:Custom
G90 ; use absolute coordinates
M83 ; extruder relative mode
M104 S160 ; set temporary nozzle temp to prevent oozing during homing
M140 S70 ; set final bed temp
G4 S30 ; allow partial nozzle warmup
G28 ; home all axis and restore leveling
G1 Z50 F240
G1 X2.0 Y10 F3000
M104 S240 ; set final nozzle temp
M190 S70 ; wait for bed temp to stabilize
M109 S240 ; wait for nozzle temp to stabilize
G1 Z0.28 F240
G92 E0
G1 X2.0 Y140 E10 F1500 ; prime the nozzle
G1 X2.3 Y140 F5000
G92 E0
G1 X2.3 Y10 E10 F1200 ; prime the nozzle
G92 E0
G21 ; set units to millimeters
G90 ; use absolute coordinates
M83 ; use relative distances for extrusion
; Filament gcode
M107
;LAYER_CHANGE
;Z:0.3
;HEIGHT:0.3
;BEFORE_LAYER_CHANGE
G92 E0
;0.3


G1 E-.8 F1800
G1 Z.3 F9000
;AFTER_LAYER_CHANGE
;0.3
G1 X93.163 Y80.111
G1 Z.3
G1 E.8 F1800
M204 S500
;TYPE:Skirt/Brim
;WIDTH:0.63
G1 F1200
G1 X93.988 Y79.329 E.08019
G1 X94.93 Y78.692 E.08022
G1 X95.965 Y78.22 E.08025
G1 X97.063 Y77.924 E.08023
G1 X109.1 Y77.273 E.85042
G1 X120.337 Y77.812 E.79365
G1 X121.489 Y77.924 E.08165
G1 X122.587 Y78.22 E.08023
G1 X123.621 Y78.692 E.08019
G1 X124.564 Y79.329 E.08028
G1 X125.388 Y80.111 E.08014
G1 X126.073 Y81.019 E.08024
G1 X126.599 Y82.027 E.08021
G1 X126.952 Y83.108 E.08022
G1 X127.12 Y84.17 E.07585
G1 X128.568 Y116.317 E2.27018
G1 X128.477 Y118.06 E.12313
G1 X127.963 Y119.705 E.12158
G1 X122.73 Y129.909 E.80901
G1 X116.333 Y139.848 E.83385
G1 X115.166 Y141.116 E.12157
G1 X113.757 Y142.037 E.11875
G1 X112.698 Y142.451 E.08022
G1 X111.586 Y142.686 E.08018
G1 X109.863 Y142.686 E.12155
G1 X108.231 Y142.273 E.11876
G1 X107.209 Y141.775 E.0802
G1 X106.282 Y141.116 E.08024
G1 X105.115 Y139.848 E.12157
G1 X98.718 Y129.909 E.83385
G1 X93.485 Y119.705 E.80901
G1 X93.1 Y118.635 E.08022
G1 X92.865 Y117.187 E.10349
G1 X91.417 Y85.04 E2.27018
G1 X91.495 Y83.647 E.09843
G1 X91.953 Y82.027 E.11877
G1 X92.479 Y81.019 E.08021
G1 X93.109 Y80.183 E.07385
; printing object ConnectorLongPart2.STL id:0 copy 0
;WIPE_START
G1 F7200
G1 X93.163 Y80.111 E-.02137
G1 X93.988 Y79.329 E-.26997
G1 X94.93 Y78.692 E-.27008
G1 X95.844 Y78.275 E-.23858
;WIPE_END
G1 X104.492 Y116.403 F9000
G1 E.8 F1800
;TYPE:Perimeter
;WIDTH:0.703717
G1 F1200
G1 X104.285 Y116.615 E.02363
;WIDTH:0.665674
G1 X103.76 Y117.23 E.06064
;WIDTH:0.63
G1 X103.343 Y117.744 E.04669
;WIDTH:0.67807
G1 X103.226 Y117.872 E.01327
;WIDTH:0.72614
G1 X103.108 Y118.001 E.01443
;WIDTH:0.77421
G1 X102.991 Y118.129 E.01535
;WIDTH:0.82228
G1 X102.874 Y118.258 E.01646
;WIDTH:0.870351
G1 X102.756 Y118.386 E.0175
G1 X102.696 Y118.498 E.01277
;WIDTH:0.860319
G1 X102.604 Y118.712 E.02312
;WIDTH:0.831068
G1 X102.512 Y118.926 E.02227
;WIDTH:0.801818
G1 X102.447 Y119.107 E.01769
;WIDTH:0.758863
G1 X102.382 Y119.288 E.01666
;WIDTH:0.715909
G1 X102.317 Y119.469 E.01563
;WIDTH:0.672954
G1 X102.251 Y119.65 E.01462
;WIDTH:0.63
G1 X101.886 Y120.701 E.07849
;WIDTH:0.662553
G1 X101.806 Y120.993 E.02259
;WIDTH:0.695107
G1 X101.727 Y121.285 E.0238
G1 X101.682 Y121.058 E.01821
;WIDTH:0.668097
G1 X101.638 Y120.831 E.01741
;WIDTH:0.641089
G1 X101.278 Y120.434 E.03855
;WIDTH:0.63
G1 X99.214 Y119.242 E.16815
G1 X99.786 Y119.316 E.04069
G1 X100.333 Y119.246 E.0389
G1 X100.607 Y119.162 E.02022
G1 X101.082 Y118.923 E.03751
G1 X101.331 Y118.743 E.02168
;WIDTH:0.677997
G1 X101.44 Y118.662 E.01039
;WIDTH:0.725995
G1 X101.549 Y118.581 E.01121
;WIDTH:0.773992
G1 X101.658 Y118.499 E.01207
;WIDTH:0.82199
G1 X101.767 Y118.418 E.01283
;WIDTH:0.869988
G1 X101.876 Y118.337 E.01365
;WIDTH:0.870351
G1 X102.057 Y117.992 E.03916
G1 X102.085 Y117.869 E.01268
;WIDTH:0.820549
G1 X102.114 Y117.746 E.01192
;WIDTH:0.770748
G1 X102.142 Y117.623 E.01111
;WIDTH:0.720947
G1 X102.174 Y117.281 E.02813
;WIDTH:0.675473
G1 X102.205 Y116.939 E.02617
;WIDTH:0.63
G1 X102.195 Y116.489 E.03175
G1 X102.056 Y115.957 E.03879
G1 X101.938 Y115.696 E.02021
G1 X101.599 Y115.205 E.04209
G1 X103.622 Y116.373 E.1648
;WIDTH:0.665674
G1 X104.213 Y116.489 E.04517
;WIDTH:0.703717
G1 X104.406 Y116.429 E.01612
;WIPE_START
G1 F7200
G1 X104.492 Y116.403 E-.02134
G1 X104.285 Y116.615 E-.07037
;WIPE_END
G1 E-.70829 F1800
G1 X101.168 Y115.386 F9000
G1 E.8 F1800
;TYPE:External perimeter
;WIDTH:0.879538
G1 F1200
G1 X101.167 Y115.42 E.00346
;WIDTH:0.82963
G1 X101.165 Y115.454 E.00325
;WIDTH:0.779722
G1 X101.164 Y115.487 E.00295
;WIDTH:0.729815
G1 X101.162 Y115.521 E.00283
;WIDTH:0.679907
G1 X101.16 Y115.555 E.00261
;WIDTH:0.63
G1 X101.469 Y116.012 E.03892
G1 X101.647 Y116.631 E.04544
G1 X101.609 Y117.278 E.04572
G1 X101.358 Y117.874 E.04562
G1 X100.922 Y118.352 E.04564
G1 X100.353 Y118.657 E.04554
G1 X99.714 Y118.755 E.04561
;WIDTH:0.676574
G1 X99.55 Y118.748 E.01253
;WIDTH:0.723148
G1 X99.387 Y118.74 E.01341
;WIDTH:0.769722
G1 X99.223 Y118.733 E.01444
;WIDTH:0.816296
G1 X99.059 Y118.726 E.01539
;WIDTH:0.852768
G1 X98.932 Y118.694 E.01288
G1 X98.464 Y118.401 E.05429
;WIDTH:0.845465
G1 X98.018 Y117.885 E.06644
;WIDTH:0.846277
G1 X97.769 Y117.249 E.06661
;WIDTH:0.847322
G1 X97.747 Y116.579 E.06546
;WIDTH:0.84846
G1 X97.941 Y115.947 E.06465
;WIDTH:0.851422
G1 X98.079 Y115.721 E.02599
G1 X98.414 Y115.326 E.05084
;WIDTH:0.850441
G1 X98.868 Y115.033 E.05298
G1 X99.114 Y114.932 E.02607
;WIDTH:0.84956
G1 X99.635 Y114.828 E.05203
;WIDTH:0.845688
G1 X100.069 Y114.85 E.04235
G1 X100.596 Y115.013 E.05376
;WIDTH:0.879538
G1 X101.093 Y115.337 E.06032
;WIPE_START
G1 F7200
G1 X101.168 Y115.386 E-.02128
G1 X101.167 Y115.42 E-.00808
;WIPE_END
G1 E-.77064 F1800
G1 X107.936 Y131.948 F9000
G1 E.8 F1800
;TYPE:Perimeter
;WIDTH:0.703973
G1 F1200
G1 X108.294 Y132.035 E.02939
;WIDTH:0.666986
G1 X108.651 Y132.123 E.02764
;WIDTH:0.63
G1 X109.862 Y132.319 E.08654
;WIDTH:0.678771
G1 X109.98 Y132.348 E.00931
;WIDTH:0.727542
G1 X110.099 Y132.376 E.01011
;WIDTH:0.776314
G1 X110.218 Y132.404 E.01086
;WIDTH:0.825085
G1 X110.336 Y132.433 E.01153
;WIDTH:0.873857
G1 X110.455 Y132.461 E.01234
G1 X110.97 Y132.473 E.05201
;WIDTH:0.863059
G1 X111.132 Y132.437 E.01653
;WIDTH:0.814472
G1 X111.294 Y132.4 E.01555
;WIDTH:0.765886
G1 X111.475 Y132.359 E.01624
;WIDTH:0.72059
G1 X111.656 Y132.318 E.01519
;WIDTH:0.675295
G1 X111.837 Y132.277 E.01414
;WIDTH:0.63
G1 X112.393 Y132.202 E.03958
;WIDTH:0.656349
G1 X112.894 Y132.096 E.03781
;WIDTH:0.682699
G1 X113.396 Y131.99 E.03957
;WIDTH:0.692447
G1 X113.485 Y131.969 E.00716
G1 X113.41 Y132.022 E.00719
;WIDTH:0.682699
G1 X113.239 Y132.379 E.03053
;WIDTH:0.656349
G1 X113.069 Y132.735 E.02913
;WIDTH:0.63
G1 X113.069 Y135.106 E.16727
G1 X112.915 Y134.708 E.03011
G1 X112.606 Y134.251 E.03892
G1 X112.407 Y134.044 E.02026
G1 X111.964 Y133.716 E.03889
G1 X111.708 Y133.587 E.02022
;WIDTH:0.673367
G1 X111.581 Y133.527 E.01067
;WIDTH:0.716735
G1 X111.455 Y133.468 E.01132
;WIDTH:0.760103
G1 X111.329 Y133.409 E.01207
;WIDTH:0.803471
G1 X111.203 Y133.35 E.01283
;WIDTH:0.846839
G1 X111.077 Y133.291 E.01358
;WIDTH:0.863518
G1 X110.663 Y133.263 E.04136
G1 X110.43 Y133.3 E.02351
;WIDTH:0.831287
G1 X110.278 Y133.364 E.01578
;WIDTH:0.791029
G1 X110.127 Y133.427 E.01483
;WIDTH:0.750772
G1 X109.975 Y133.491 E.01412
;WIDTH:0.710514
G1 X109.823 Y133.555 E.01329
;WIDTH:0.670257
G1 X109.671 Y133.618 E.01243
;WIDTH:0.63
G1 X109.201 Y133.908 E.03896
G1 X108.985 Y134.097 E.02025
;WIDTH:0.646675
G1 X108.475 Y134.769 E.06127
G1 X108.405 Y134.968 E.01532
G1 X108.38 Y134.435 E.03875
;WIDTH:0.63
G1 X108.38 Y132.735 E.11993
G1 X108.299 Y132.374 E.0261
;WIDTH:0.666986
G1 X108.118 Y132.161 E.02101
;WIDTH:0.703973
G1 X107.994 Y132.016 E.01522
;WIPE_START
G1 F7200
G1 X107.936 Y131.948 E-.02123
G1 X108.294 Y132.035 E-.0875
;WIPE_END
G1 E-.69127 F1800
G1 X108.731 Y135.444 F9000
G1 E.8 F1800
;TYPE:External perimeter
;WIDTH:0.879474
G1 F1200
G1 X108.789 Y135.348 E.0114
;WIDTH:0.832914
G1 X108.848 Y135.251 E.01088
;WIDTH:0.786354
G1 X108.907 Y135.155 E.01015
;WIDTH:0.739794
G1 X108.966 Y135.059 E.00949
;WIDTH:0.693234
G1 X109.024 Y134.963 E.0088
;WIDTH:0.646675
G1 X109.425 Y134.453 E.04712
;WIDTH:0.63
G1 X109.874 Y134.157 E.03794
G1 X110.091 Y134.057 E.01686
G1 X110.594 Y133.947 E.03632
G1 X111.014 Y133.966 E.02966
G1 X111.542 Y134.128 E.03896
G1 X112.071 Y134.499 E.04558
G1 X112.446 Y135.025 E.04557
;WIDTH:0.67609
G1 X112.504 Y135.143 E.01003
;WIDTH:0.72218
G1 X112.562 Y135.261 E.01079
;WIDTH:0.76827
G1 X112.62 Y135.379 E.01154
;WIDTH:0.81436
G1 X112.678 Y135.497 E.0123
;WIDTH:0.86045
G1 X112.736 Y135.615 E.01306
G1 X112.703 Y136.218 E.05996
;WIDTH:0.850775
G1 X112.641 Y136.475 E.02593
;WIDTH:0.849331
G1 X112.432 Y136.93 E.04902
;WIDTH:0.852266
G1 X112.066 Y137.35 E.05475
G1 X111.878 Y137.513 E.02445
;WIDTH:0.844889
G1 X111.377 Y137.764 E.05455
;WIDTH:0.842841
G1 X110.704 Y137.873 E.0662
;WIDTH:0.842576
G1 X110.033 Y137.751 E.0662
G1 X109.442 Y137.413 E.06608
;WIDTH:0.842698
G1 X108.996 Y136.897 E.06621
;WIDTH:0.842901
G1 X108.748 Y136.261 E.06629
;WIDTH:0.856194
G1 X108.719 Y135.58 E.06732
;WIDTH:0.879474
G1 X108.723 Y135.534 E.00469
;WIPE_START
G1 F7200
G1 X108.731 Y135.444 E-.02146
G1 X108.789 Y135.348 E-.02664
;WIPE_END
G1 E-.7519 F1800
G1 X119.878 Y115.188 F9000
G1 E.8 F1800
;TYPE:Perimeter
;WIDTH:0.63
G1 F1200
G1 X119.616 Y115.514 E.02951
G1 X119.476 Y115.764 E.02021
G1 X119.292 Y116.285 E.03898
G1 X119.243 Y116.567 E.02019
G1 X119.243 Y116.918 E.02476
;WIDTH:0.648441
G1 X119.283 Y117.405 E.0356
;WIDTH:0.693936
G1 X119.299 Y117.517 E.00888
;WIDTH:0.739432
G1 X119.314 Y117.628 E.00943
;WIDTH:0.784927
G1 X119.329 Y117.74 E.01016
;WIDTH:0.830423
G1 X119.344 Y117.851 E.0107
;WIDTH:0.875919
G1 X119.36 Y117.963 E.01145
;WIDTH:0.888761
G1 X119.678 Y118.455 E.06023
G1 X119.753 Y118.52 E.0102
;WIDTH:0.852849
G1 X119.828 Y118.585 E.00976
;WIDTH:0.816937
G1 X119.904 Y118.649 E.00933
;WIDTH:0.781026
G1 X120.035 Y118.724 E.01349
;WIDTH:0.743269
G1 X120.166 Y118.798 E.01274
;WIDTH:0.705513
G1 X120.298 Y118.872 E.0121
;WIDTH:0.667756
G1 X120.429 Y118.946 E.01132
;WIDTH:0.63
G1 X120.914 Y119.188 E.03824
G1 X121.453 Y119.304 E.0389
G1 X121.74 Y119.316 E.02026
G1 X122.212 Y119.256 E.03357
G1 X120.108 Y120.474 E.17151
;WIDTH:0.678913
G1 X119.73 Y121.283 E.06844
G1 X119.414 Y120.223 E.08478
;WIDTH:0.63
G1 X119.179 Y119.65 E.04369
;WIDTH:0.673126
G1 X119.149 Y119.529 E.00947
;WIDTH:0.716253
G1 X119.12 Y119.408 E.01012
;WIDTH:0.75938
G1 X119.091 Y119.287 E.01079
;WIDTH:0.802507
G1 X119.061 Y119.166 E.01148
;WIDTH:0.845634
G1 X119.032 Y119.045 E.01212
;WIDTH:0.888761
G1 X119.002 Y118.924 E.01282
G1 X118.628 Y118.305 E.07436
;WIDTH:0.875919
G1 X118.555 Y118.232 E.01045
;WIDTH:0.828066
G1 X118.482 Y118.158 E.0099
;WIDTH:0.780213
G1 X118.409 Y118.084 E.00928
;WIDTH:0.732361
G1 X118.335 Y118.011 E.00866
;WIDTH:0.684508
G1 X118.262 Y117.937 E.00804
;WIDTH:0.636656
G1 X117.839 Y117.406 E.04846
;WIDTH:0.63
G1 X117.494 Y116.982 E.03856
;WIDTH:0.663273
G1 X117.201 Y116.675 E.0317
;WIDTH:0.696547
G1 X116.908 Y116.369 E.0334
G1 X117.268 Y116.413 E.0286
;WIDTH:0.663273
G1 X117.628 Y116.456 E.02708
;WIDTH:0.63
G1 X117.826 Y116.373 E.01515
G1 X119.8 Y115.233 E.16081
G1 X120.414 Y115.279 F9000
;TYPE:External perimeter
;WIDTH:0.860581
G1 F1200
G1 X120.888 Y114.997 E.05477
;WIDTH:0.842993
G1 X121.527 Y114.835 E.06402
;WIDTH:0.843454
G1 X122.022 Y114.851 E.04812
G1 X122.55 Y115.013 E.05367
;WIDTH:0.84299
G1 X122.582 Y115.025 E.00332
;WIDTH:0.843321
G1 X123.111 Y115.4 E.063
;WIDTH:0.843751
G1 X123.512 Y115.953 E.0664
;WIDTH:0.844257
G1 X123.705 Y116.604 E.06605
;WIDTH:0.844914
G1 X123.67 Y117.287 E.06658
;WIDTH:0.84561
G1 X123.41 Y117.918 E.0665
;WIDTH:0.846418
G1 X122.954 Y118.426 E.06658
;WIDTH:0.86593
G1 X122.36 Y118.762 E.06823
G1 X122.221 Y118.761 E.0139
;WIDTH:0.818744
G1 X122.083 Y118.759 E.01299
;WIDTH:0.771558
G1 X121.944 Y118.758 E.01226
;WIDTH:0.724372
G1 X121.806 Y118.756 E.01136
;WIDTH:0.677186
G1 X121.668 Y118.755 E.01055
;WIDTH:0.63
G1 X121.033 Y118.635 E.04559
G1 X120.474 Y118.31 E.04562
G1 X120.056 Y117.817 E.0456
G1 X119.825 Y117.213 E.04562
G1 X119.809 Y116.567 E.04559
G1 X120.009 Y115.953 E.04556
;WIDTH:0.673436
G1 X120.09 Y115.811 E.01242
;WIDTH:0.716873
G1 X120.172 Y115.669 E.01334
;WIDTH:0.760309
G1 X120.253 Y115.527 E.01419
;WIDTH:0.803746
G1 X120.335 Y115.385 E.01512
;WIDTH:0.832163
G1 X120.36 Y115.351 E.00404
;WIPE_START
G1 F7200
G1 X120.414 Y115.279 E-.02138
G1 X120.888 Y114.997 E-.13099
;WIPE_END
G1 E-.64763 F1800
G1 X117.23 Y115.863 F9000
G1 E.8 F1800
;WIDTH:0.63
G1 F1200
G1 X117.477 Y115.911 E.01775
G1 X119.233 Y114.908 E.14266
;WIDTH:0.673436
G1 X119.364 Y114.858 E.01065
;WIDTH:0.716873
G1 X119.494 Y114.808 E.01134
;WIDTH:0.760309
G1 X119.624 Y114.757 E.01212
;WIDTH:0.803746
G1 X119.755 Y114.707 E.01293
;WIDTH:0.83
G1 X120.027 Y114.566 E.02926
;WIDTH:0.856255
G1 X120.819 Y114.192 E.08651
;WIDTH:0.8441
G1 X121.401 Y114.067 E.05789
;WIDTH:0.842993
G1 X121.972 Y114.061 E.05545
;WIDTH:0.854608
G1 X122.504 Y114.168 E.05348
G1 X122.936 Y114.331 E.04551
G1 X123.382 Y114.612 E.05196
G1 X123.825 Y115.03 E.06003
;WIDTH:0.843751
G1 X124.172 Y115.54 E.05996
;WIDTH:0.854314
G1 X124.38 Y116.052 E.05445
G1 X124.486 Y116.567 E.0518
;WIDTH:0.843707
G1 X124.492 Y116.757 E.01848
;WIDTH:0.844914
G1 X124.445 Y117.374 E.06024
G1 X124.362 Y117.691 E.0319
;WIDTH:0.84561
G1 X124.114 Y118.256 E.06012
G1 X123.929 Y118.527 E.03197
;WIDTH:0.846418
G1 X123.509 Y118.977 E.06004
G1 X123.244 Y119.171 E.03203
;WIDTH:0.86593
G1 X122.74 Y119.467 E.05843
G1 X122.67 Y119.529 E.00935
;WIDTH:0.829488
G1 X122.599 Y119.591 E.009
;WIDTH:0.793046
G1 X122.528 Y119.653 E.00857
;WIDTH:0.756605
G1 X122.38 Y119.763 E.01592
;WIDTH:0.714403
G1 X122.231 Y119.873 E.01502
;WIDTH:0.672201
G1 X122.082 Y119.983 E.01404
;WIDTH:0.63
G1 X120.454 Y120.924 E.13266
G1 X120.315 Y121.206 E.02218
G1 X120.483 Y122.473 E.09017
G1 X120.498 Y123.639 E.08226
G1 X120.374 Y124.798 E.08223
G1 X120.113 Y125.934 E.08223
G1 X119.719 Y127.031 E.08223
G1 X119.198 Y128.073 E.08219
G1 X118.556 Y129.046 E.08224
G1 X117.803 Y129.935 E.08219
G1 X116.949 Y130.729 E.08226
G1 X116.008 Y131.416 E.08219
G1 X114.991 Y131.986 E.08225
G1 X113.785 Y132.485 E.09208
G1 X113.634 Y132.735 E.0206
G1 X113.634 Y134.965 E.15732
;WIDTH:0.67609
G1 X113.611 Y135.075 E.00857
;WIDTH:0.72218
G1 X113.588 Y135.185 E.00922
;WIDTH:0.76827
G1 X113.565 Y135.294 E.00978
;WIDTH:0.81436
G1 X113.542 Y135.404 E.01051
;WIDTH:0.86045
G1 X113.519 Y135.514 E.01116
G1 X113.525 Y135.781 E.02652
;WIDTH:0.850775
G1 X113.487 Y136.284 E.04948
G1 X113.358 Y136.794 E.0516
;WIDTH:0.849331
G1 X113.049 Y137.405 E.06703
;WIDTH:0.852266
G1 X112.641 Y137.89 E.06228
G1 X112.287 Y138.175 E.04466
;WIDTH:0.852891
G1 X111.848 Y138.417 E.0493
G1 X111.366 Y138.578 E.04998
;WIDTH:0.846138
G1 X110.662 Y138.649 E.06899
;WIDTH:0.853846
G1 X110.07 Y138.572 E.05878
G1 X109.63 Y138.431 E.0455
;WIDTH:0.854168
G1 X109.169 Y138.176 E.0519
G1 X108.752 Y137.835 E.05306
;WIDTH:0.84409
G1 X108.324 Y137.289 E.06747
;WIDTH:0.854566
G1 X108.093 Y136.794 E.05384
G1 X107.961 Y136.317 E.04878
;WIDTH:0.856194
G1 X107.927 Y135.818 E.0494
;WIDTH:0.879474
G1 X107.939 Y135.308 E.05186
G1 X107.916 Y135.198 E.01142
;WIDTH:0.832914
G1 X107.892 Y135.088 E.01079
;WIDTH:0.786354
G1 X107.869 Y134.977 E.01021
;WIDTH:0.739794
G1 X107.846 Y134.867 E.00947
;WIDTH:0.693234
G1 X107.822 Y134.756 E.00891
;WIDTH:0.646675
G1 X107.814 Y134.435 E.02332
;WIDTH:0.63
