; generated by PrusaSlicer 2.7.1+win64 on 2024-07-09 at 23:42:12 UTC

; 

; external perimeters extrusion width = 0.63mm
; perimeters extrusion width = 0.66mm
; infill extrusion width = 0.66mm
; solid infill extrusion width = 0.66mm
; top infill extrusion width = 0.60mm
; support material extrusion width = 0.54mm
; first layer extrusion width = 0.63mm

M201 X500 Y500 Z100 E5000 ; sets maximum accelerations, mm/sec^2
M203 X500 Y500 Z10 E60 ; sets maximum feedrates, mm / sec
M204 S500 T1000 ; sets acceleration (S) and retract acceleration (R), mm/sec^2
M205 X8.00 Y8.00 Z0.40 E5.00 ; sets the jerk limits, mm/sec
M205 S0 T0 ; sets the minimum extruding and travel feed rate, mm/sec

; printing object Connector50mm.STL id:0 copy 0
; stop printing object Connector50mm.STL id:0 copy 0

;TYPE:Custom
G90 ; use absolute coordinates
M83 ; extruder relative mode
M104 S160 ; set temporary nozzle temp to prevent oozing during homing
M140 S70 ; set final bed temp
G4 S30 ; allow partial nozzle warmup
G28 ; home all axis and restore leveling
G1 Z50 F240
G1 X2.0 Y10 F3000
M104 S240 ; set final nozzle temp
M190 S70 ; wait for bed temp to stabilize
M109 S240 ; wait for nozzle temp to stabilize
G1 Z0.28 F240
G92 E0
G1 X2.0 Y140 E10 F1500 ; prime the nozzle
G1 X2.3 Y140 F5000
G92 E0
G1 X2.3 Y10 E10 F1200 ; prime the nozzle
G92 E0
G21 ; set units to millimeters
G90 ; use absolute coordinates
M83 ; use relative distances for extrusion
; Filament gcode
M107
;LAYER_CHANGE
;Z:0.3
;HEIGHT:0.3
;BEFORE_LAYER_CHANGE
G92 E0
;0.3


G1 E-.8 F1800
G1 Z.3 F9000
;AFTER_LAYER_CHANGE
;0.3
G1 X95.51 Y76.034
G1 Z.3
G1 E.8 F1800
M204 S500
;TYPE:Skirt/Brim
;WIDTH:0.63
G1 F1200
G1 X96.939 Y74.734 E.13629
G1 X100.351 Y73.029 E.26909
G1 X101.945 Y72.652 E.11555
G1 X119.76 Y72.652 E1.2568
G1 X121.39 Y73.047 E.11832
G1 X122.282 Y73.697 E.07786
G1 X123.987 Y75.402 E.17011
G1 X124.49 Y76.034 E.05698
G1 X141.546 Y103.324 E2.27032
G1 X142.088 Y105.214 E.13871
G1 X142.088 Y124.735 E1.37715
G1 X141.694 Y126.365 E.1183
G1 X140.598 Y127.634 E.11829
G1 X138.523 Y128.301 E.15376
G1 X81.477 Y128.301 E4.02443
G1 X79.847 Y127.906 E.11832
G1 X78.578 Y126.81 E.11829
G1 X77.912 Y124.735 E.15374
G1 X77.912 Y105.214 E1.37715
G1 X78.454 Y103.324 E.13871
G1 X95.463 Y76.11 E2.26401
; printing object Connector50mm.STL id:0 copy 0
;WIPE_START
G1 F7200
G1 X95.51 Y76.034 E-.02122
G1 X96.939 Y74.734 E-.45881
G1 X98.144 Y74.132 E-.31997
;WIPE_END
G1 X84.772 Y118.557 F9000
G1 E.8 F1800
;TYPE:Support material interface
;WIDTH:0.54
G1 F1200
G1 X84.415 Y118.234 E.02856
G1 X84.415 Y120.092 E.11022
G1 X85.024 Y120.092 E.03613
G1 X85.024 Y118.557 E.09106
G1 X85.83 Y118.557 E.04781
G1 X85.83 Y120.092 E.09106
G1 X86.636 Y120.092 E.04781
G1 X86.636 Y118.557 E.09106
G1 X87.441 Y118.557 E.04775
G1 X87.441 Y120.092 E.09106
G1 X88.247 Y120.092 E.04781
G1 X88.247 Y118.557 E.09106
G1 X89.053 Y118.557 E.04781
G1 X89.053 Y120.092 E.09106
G1 X89.858 Y120.092 E.04775
G1 X89.858 Y118.557 E.09106
G1 X90.664 Y118.557 E.04781
G1 X90.664 Y120.092 E.09106
G1 X91.47 Y120.092 E.04781
G1 X91.47 Y118.557 E.09106
G1 X92.275 Y118.557 E.04775
G1 X92.275 Y120.092 E.09106
G1 X93.081 Y120.092 E.04781
G1 X93.081 Y118.557 E.09106
G1 X93.887 Y118.557 E.04781
G1 X93.887 Y120.092 E.09106
G1 X94.692 Y120.092 E.04775
G1 X94.692 Y118.557 E.09106
G1 X95.498 Y118.557 E.04781
G1 X95.498 Y120.092 E.09106
G1 X96.304 Y120.092 E.04781
G1 X96.304 Y118.557 E.09106
G1 X97.109 Y118.557 E.04775
G1 X97.109 Y120.092 E.09106
G1 X97.915 Y120.092 E.04781
G1 X97.915 Y118.557 E.09106
G1 X98.721 Y118.557 E.04781
G1 X98.721 Y120.092 E.09106
G1 X99.526 Y120.092 E.04775
G1 X99.526 Y118.557 E.09106
G1 X100.332 Y118.557 E.04781
G1 X100.332 Y120.092 E.09106
G1 X101.138 Y120.092 E.04781
G1 X101.138 Y118.557 E.09106
G1 X101.943 Y118.557 E.04775
G1 X101.943 Y120.092 E.09106
G1 X102.749 Y120.092 E.04781
G1 X102.749 Y118.557 E.09106
G1 X103.555 Y118.557 E.04781
G1 X103.555 Y120.092 E.09106
G1 X104.36 Y120.092 E.04775
G1 X104.36 Y118.557 E.09106
G1 X105.166 Y118.557 E.04781
G1 X105.166 Y120.092 E.09106
G1 X105.972 Y120.092 E.04781
G1 X105.972 Y118.557 E.09106
G1 X106.777 Y118.557 E.04775
G1 X106.777 Y120.092 E.09106
G1 X107.583 Y120.092 E.04781
G1 X107.583 Y118.557 E.09106
G1 X108.389 Y118.557 E.04781
G1 X108.389 Y120.092 E.09106
G1 X109.194 Y120.092 E.04775
G1 X109.194 Y118.557 E.09106
G1 X110 Y118.557 E.04781
G1 X110 Y120.092 E.09106
G1 X110.806 Y120.092 E.04781
G1 X110.806 Y118.557 E.09106
G1 X111.611 Y118.557 E.04775
G1 X111.611 Y120.092 E.09106
G1 X112.417 Y120.092 E.04781
G1 X112.417 Y118.557 E.09106
G1 X113.223 Y118.557 E.04781
G1 X113.223 Y120.092 E.09106
G1 X114.028 Y120.092 E.04775
G1 X114.028 Y118.557 E.09106
G1 X114.834 Y118.557 E.04781
G1 X114.834 Y120.092 E.09106
G1 X115.64 Y120.092 E.04781
G1 X115.64 Y118.557 E.09106
G1 X116.445 Y118.557 E.04775
G1 X116.445 Y120.092 E.09106
G1 X117.251 Y120.092 E.04781
G1 X117.251 Y118.557 E.09106
G1 X118.057 Y118.557 E.04781
G1 X118.057 Y120.092 E.09106
G1 X118.862 Y120.092 E.04775
G1 X118.862 Y118.557 E.09106
G1 X119.668 Y118.557 E.04781
G1 X119.668 Y120.092 E.09106
G1 X120.474 Y120.092 E.04781
G1 X120.474 Y118.557 E.09106
G1 X121.279 Y118.557 E.04775
G1 X121.279 Y120.092 E.09106
G1 X122.085 Y120.092 E.04781
G1 X122.085 Y118.557 E.09106
G1 X122.891 Y118.557 E.04781
G1 X122.891 Y120.092 E.09106
G1 X123.696 Y120.092 E.04775
G1 X123.696 Y118.557 E.09106
G1 X124.502 Y118.557 E.04781
G1 X124.502 Y120.092 E.09106
G1 X125.308 Y120.092 E.04781
G1 X125.308 Y118.557 E.09106
G1 X126.113 Y118.557 E.04775
G1 X126.113 Y120.092 E.09106
G1 X126.919 Y120.092 E.04781
G1 X126.919 Y118.557 E.09106
G1 X127.725 Y118.557 E.04781
G1 X127.725 Y120.092 E.09106
G1 X128.53 Y120.092 E.04775
G1 X128.53 Y118.557 E.09106
G1 X129.336 Y118.557 E.04781
G1 X129.336 Y120.092 E.09106
G1 X130.142 Y120.092 E.04781
G1 X130.142 Y118.557 E.09106
G1 X130.947 Y118.557 E.04775
G1 X130.947 Y120.092 E.09106
G1 X131.753 Y120.092 E.04781
G1 X131.753 Y118.557 E.09106
G1 X132.559 Y118.557 E.04781
G1 X132.559 Y120.092 E.09106
G1 X133.364 Y120.092 E.04775
G1 X133.364 Y118.557 E.09106
G1 X134.17 Y118.557 E.04781
G1 X134.17 Y120.092 E.09106
G1 X134.976 Y120.092 E.04781
G1 X134.976 Y118.557 E.09106
G1 X135.261 Y118.557 E.01691
G1 X135.585 Y118.234 E.02714
G1 X135.585 Y120.092 E.11022
G1 X135.228 Y120.092 E.02118
;WIPE_START
G1 F7200
G1 X135.585 Y120.092 E-.08479
G1 X135.585 Y118.234 E-.44127
G1 X135.261 Y118.557 E-.10866
G1 X134.976 Y118.557 E-.06769
G1 X134.976 Y118.968 E-.09759
;WIPE_END
G1 X135.063 Y117.953 F9000
G1 E.8 F1800
;TYPE:Support material
;WIDTH:0.63
G1 F1200
G1 X84.974 Y117.989 E3.53364
G1 X84.937 Y117.707 E.02006
G1 X135.063 Y117.707 E3.53625
G1 X135.063 Y117.868 E.01136
;WIPE_START
G1 F7200
G1 X135.063 Y117.707 E-.03824
G1 X131.856 Y117.707 E-.76176
;WIPE_END
G1 X135.063 Y112.631 F9000
G1 E.8 F1800
G1 F1200
G1 X135.063 Y112.887 E.01806
G1 X84.937 Y112.887 E3.53625
G1 X84.974 Y112.595 E.02076
G1 X134.993 Y112.595 E3.5287
G1 X135.228 Y112.027 F9000
;TYPE:Support material interface
;WIDTH:0.54
G1 F1200
G1 X135.585 Y112.35 E.02856
G1 X135.585 Y111.563 E.04669
G1 X134.976 Y111.563 E.03613
G1 X134.976 Y112.027 E.02753
G1 X134.17 Y112.027 E.04781
G1 X134.17 Y111.563 E.02753
G1 X133.364 Y111.563 E.04781
G1 X133.364 Y112.027 E.02753
G1 X132.559 Y112.027 E.04775
G1 X132.559 Y111.563 E.02753
G1 X131.753 Y111.563 E.04781
G1 X131.753 Y112.027 E.02753
G1 X130.947 Y112.027 E.04781
G1 X130.947 Y111.563 E.02753
G1 X130.142 Y111.563 E.04775
G1 X130.142 Y112.027 E.02753
G1 X129.336 Y112.027 E.04781
G1 X129.336 Y111.563 E.02753
G1 X128.53 Y111.563 E.04781
G1 X128.53 Y112.027 E.02753
G1 X127.725 Y112.027 E.04775
G1 X127.725 Y111.563 E.02753
G1 X126.919 Y111.563 E.04781
G1 X126.919 Y112.027 E.02753
G1 X126.113 Y112.027 E.04781
G1 X126.113 Y111.563 E.02753
G1 X125.308 Y111.563 E.04775
G1 X125.308 Y112.027 E.02753
G1 X124.502 Y112.027 E.04781
G1 X124.502 Y111.563 E.02753
G1 X123.696 Y111.563 E.04781
G1 X123.696 Y112.027 E.02753
G1 X122.891 Y112.027 E.04775
G1 X122.891 Y111.563 E.02753
G1 X122.085 Y111.563 E.04781
G1 X122.085 Y112.027 E.02753
G1 X121.279 Y112.027 E.04781
G1 X121.279 Y111.563 E.02753
G1 X120.474 Y111.563 E.04775
G1 X120.474 Y112.027 E.02753
G1 X119.668 Y112.027 E.04781
G1 X119.668 Y111.563 E.02753
G1 X118.862 Y111.563 E.04781
G1 X118.862 Y112.027 E.02753
G1 X118.057 Y112.027 E.04775
G1 X118.057 Y111.563 E.02753
G1 X117.251 Y111.563 E.04781
G1 X117.251 Y112.027 E.02753
G1 X116.445 Y112.027 E.04781
G1 X116.445 Y111.563 E.02753
G1 X115.64 Y111.563 E.04775
G1 X115.64 Y112.027 E.02753
G1 X114.834 Y112.027 E.04781
G1 X114.834 Y111.563 E.02753
G1 X114.028 Y111.563 E.04781
G1 X114.028 Y112.027 E.02753
G1 X113.223 Y112.027 E.04775
G1 X113.223 Y111.563 E.02753
G1 X112.417 Y111.563 E.04781
G1 X112.417 Y112.027 E.02753
G1 X111.611 Y112.027 E.04781
G1 X111.611 Y111.563 E.02753
G1 X110.806 Y111.563 E.04775
G1 X110.806 Y112.027 E.02753
G1 X110 Y112.027 E.04781
G1 X110 Y111.563 E.02753
G1 X109.194 Y111.563 E.04781
G1 X109.194 Y112.027 E.02753
G1 X108.389 Y112.027 E.04775
G1 X108.389 Y111.563 E.02753
G1 X107.583 Y111.563 E.04781
G1 X107.583 Y112.027 E.02753
G1 X106.777 Y112.027 E.04781
G1 X106.777 Y111.563 E.02753
G1 X105.972 Y111.563 E.04775
G1 X105.972 Y112.027 E.02753
G1 X105.166 Y112.027 E.04781
G1 X105.166 Y111.563 E.02753
G1 X104.36 Y111.563 E.04781
G1 X104.36 Y112.027 E.02753
G1 X103.555 Y112.027 E.04775
G1 X103.555 Y111.563 E.02753
G1 X102.749 Y111.563 E.04781
G1 X102.749 Y112.027 E.02753
G1 X101.943 Y112.027 E.04781
G1 X101.943 Y111.563 E.02753
G1 X101.138 Y111.563 E.04775
G1 X101.138 Y112.027 E.02753
G1 X100.332 Y112.027 E.04781
G1 X100.332 Y111.563 E.02753
G1 X99.526 Y111.563 E.04781
G1 X99.526 Y112.027 E.02753
G1 X98.721 Y112.027 E.04775
G1 X98.721 Y111.563 E.02753
G1 X97.915 Y111.563 E.04781
G1 X97.915 Y112.027 E.02753
G1 X97.109 Y112.027 E.04781
G1 X97.109 Y111.563 E.02753
G1 X96.304 Y111.563 E.04775
G1 X96.304 Y112.027 E.02753
G1 X95.498 Y112.027 E.04781
G1 X95.498 Y111.563 E.02753
G1 X94.692 Y111.563 E.04781
G1 X94.692 Y112.027 E.02753
G1 X93.887 Y112.027 E.04775
G1 X93.887 Y111.563 E.02753
G1 X93.081 Y111.563 E.04781
G1 X93.081 Y112.027 E.02753
G1 X92.275 Y112.027 E.04781
G1 X92.275 Y111.563 E.02753
G1 X91.47 Y111.563 E.04775
G1 X91.47 Y112.027 E.02753
G1 X90.664 Y112.027 E.04781
G1 X90.664 Y111.563 E.02753
G1 X89.858 Y111.563 E.04781
G1 X89.858 Y112.027 E.02753
G1 X89.053 Y112.027 E.04775
G1 X89.053 Y111.563 E.02753
G1 X88.247 Y111.563 E.04781
G1 X88.247 Y112.027 E.02753
G1 X87.441 Y112.027 E.04781
G1 X87.441 Y111.563 E.02753
G1 X86.636 Y111.563 E.04775
G1 X86.636 Y112.027 E.02753
G1 X85.83 Y112.027 E.04781
G1 X85.83 Y111.563 E.02753
G1 X85.024 Y111.563 E.04781
G1 X85.024 Y112.027 E.02753
G1 X84.739 Y112.027 E.01691
G1 X84.415 Y112.35 E.02714
G1 X84.415 Y111.563 E.04669
G1 X84.772 Y111.563 E.02118
;WIPE_START
G1 F7200
G1 X84.415 Y111.563 E-.08479
G1 X84.415 Y112.35 E-.18691
G1 X84.739 Y112.027 E-.10866
G1 X85.024 Y112.027 E-.06769
G1 X85.024 Y111.563 E-.1102
G1 X85.83 Y111.563 E-.19142
G1 X85.83 Y111.775 E-.05033
;WIPE_END
G1 X83.847 Y120.66 F9000
G1 E.8 F1800
;TYPE:Support material
;WIDTH:0.63
G1 F1200
G1 X136.153 Y120.66 E3.69004
G1 X136.153 Y117.66 E.21164
G1 X138.523 Y117.66 E.1672
G1 X138.523 Y124.735 E.49912
G1 X81.477 Y124.735 E4.02443
G1 X81.477 Y117.66 E.49912
G1 X83.847 Y117.66 E.1672
G1 X83.847 Y120.575 E.20565
G1 X137.653 Y124.48 F9000
G1 F1200
G1 X137.653 Y118.169 E.44522
G1 X137.024 Y118.169 E.04437
G1 X137.024 Y124.226 E.4273
G1 X136.396 Y124.226 E.0443
G1 X136.396 Y121.169 E.21566
G1 X135.767 Y121.169 E.04437
G1 X135.767 Y124.226 E.21566
G1 X135.139 Y124.226 E.0443
G1 X135.139 Y121.169 E.21566
G1 X134.51 Y121.169 E.04437
G1 X134.51 Y124.226 E.21566
G1 X133.882 Y124.226 E.0443
G1 X133.882 Y121.169 E.21566
G1 X133.253 Y121.169 E.04437
G1 X133.253 Y124.226 E.21566
G1 X132.625 Y124.226 E.0443
G1 X132.625 Y121.169 E.21566
G1 X131.996 Y121.169 E.04437
G1 X131.996 Y124.226 E.21566
G1 X131.368 Y124.226 E.0443
G1 X131.368 Y121.169 E.21566
G1 X130.739 Y121.169 E.04437
G1 X130.739 Y124.226 E.21566
G1 X130.111 Y124.226 E.0443
G1 X130.111 Y121.169 E.21566
G1 X129.482 Y121.169 E.04437
G1 X129.482 Y124.226 E.21566
G1 X128.854 Y124.226 E.0443
G1 X128.854 Y121.169 E.21566
G1 X128.226 Y121.169 E.0443
G1 X128.226 Y124.226 E.21566
G1 X127.597 Y124.226 E.04437
G1 X127.597 Y121.169 E.21566
G1 X126.969 Y121.169 E.0443
G1 X126.969 Y124.226 E.21566
G1 X126.34 Y124.226 E.04437
G1 X126.34 Y121.169 E.21566
G1 X125.712 Y121.169 E.0443
G1 X125.712 Y124.226 E.21566
G1 X125.083 Y124.226 E.04437
G1 X125.083 Y121.169 E.21566
G1 X124.455 Y121.169 E.0443
G1 X124.455 Y124.226 E.21566
G1 X123.826 Y124.226 E.04437
G1 X123.826 Y121.169 E.21566
G1 X123.198 Y121.169 E.0443
G1 X123.198 Y124.226 E.21566
G1 X122.569 Y124.226 E.04437
G1 X122.569 Y121.169 E.21566
G1 X121.941 Y121.169 E.0443
G1 X121.941 Y124.226 E.21566
G1 X121.312 Y124.226 E.04437
G1 X121.312 Y121.169 E.21566
G1 X120.684 Y121.169 E.0443
G1 X120.684 Y124.226 E.21566
G1 X120.055 Y124.226 E.04437
G1 X120.055 Y121.169 E.21566
G1 X119.427 Y121.169 E.0443
G1 X119.427 Y124.226 E.21566
G1 X118.799 Y124.226 E.0443
G1 X118.799 Y121.169 E.21566
G1 X118.17 Y121.169 E.04437
G1 X118.17 Y124.226 E.21566
G1 X117.542 Y124.226 E.0443
G1 X117.542 Y121.169 E.21566
G1 X116.913 Y121.169 E.04437
G1 X116.913 Y124.226 E.21566
G1 X116.285 Y124.226 E.0443
G1 X116.285 Y121.169 E.21566
G1 X115.656 Y121.169 E.04437
G1 X115.656 Y124.226 E.21566
G1 X115.028 Y124.226 E.0443
G1 X115.028 Y121.169 E.21566
G1 X114.399 Y121.169 E.04437
G1 X114.399 Y124.226 E.21566
G1 X113.771 Y124.226 E.0443
G1 X113.771 Y121.169 E.21566
G1 X113.142 Y121.169 E.04437
G1 X113.142 Y124.226 E.21566
G1 X112.514 Y124.226 E.0443
G1 X112.514 Y121.169 E.21566
G1 X111.885 Y121.169 E.04437
G1 X111.885 Y124.226 E.21566
G1 X111.257 Y124.226 E.0443
G1 X111.257 Y121.169 E.21566
G1 X110.628 Y121.169 E.04437
G1 X110.628 Y124.226 E.21566
G1 X110 Y124.226 E.0443
G1 X110 Y121.169 E.21566
G1 X109.372 Y121.169 E.0443
G1 X109.372 Y124.226 E.21566
G1 X108.743 Y124.226 E.04437
G1 X108.743 Y121.169 E.21566
G1 X108.115 Y121.169 E.0443
G1 X108.115 Y124.226 E.21566
G1 X107.486 Y124.226 E.04437
G1 X107.486 Y121.169 E.21566
G1 X106.858 Y121.169 E.0443
G1 X106.858 Y124.226 E.21566
G1 X106.229 Y124.226 E.04437
G1 X106.229 Y121.169 E.21566
G1 X105.601 Y121.169 E.0443
G1 X105.601 Y124.226 E.21566
G1 X104.972 Y124.226 E.04437
G1 X104.972 Y121.169 E.21566
G1 X104.344 Y121.169 E.0443
G1 X104.344 Y124.226 E.21566
G1 X103.715 Y124.226 E.04437
G1 X103.715 Y121.169 E.21566
G1 X103.087 Y121.169 E.0443
G1 X103.087 Y124.226 E.21566
G1 X102.458 Y124.226 E.04437
G1 X102.458 Y121.169 E.21566
G1 X101.83 Y121.169 E.0443
G1 X101.83 Y124.226 E.21566
G1 X101.201 Y124.226 E.04437
G1 X101.201 Y121.169 E.21566
G1 X100.573 Y121.169 E.0443
G1 X100.573 Y124.226 E.21566
G1 X99.945 Y124.226 E.0443
G1 X99.945 Y121.169 E.21566
G1 X99.316 Y121.169 E.04437
G1 X99.316 Y124.226 E.21566
G1 X98.688 Y124.226 E.0443
G1 X98.688 Y121.169 E.21566
G1 X98.059 Y121.169 E.04437
G1 X98.059 Y124.226 E.21566
G1 X97.431 Y124.226 E.0443
G1 X97.431 Y121.169 E.21566
G1 X96.802 Y121.169 E.04437
G1 X96.802 Y124.226 E.21566
G1 X96.174 Y124.226 E.0443
G1 X96.174 Y121.169 E.21566
G1 X95.545 Y121.169 E.04437
G1 X95.545 Y124.226 E.21566
G1 X94.917 Y124.226 E.0443
G1 X94.917 Y121.169 E.21566
G1 X94.288 Y121.169 E.04437
G1 X94.288 Y124.226 E.21566
G1 X93.66 Y124.226 E.0443
G1 X93.66 Y121.169 E.21566
G1 X93.031 Y121.169 E.04437
G1 X93.031 Y124.226 E.21566
G1 X92.403 Y124.226 E.0443
G1 X92.403 Y121.169 E.21566
G1 X91.774 Y121.169 E.04437
G1 X91.774 Y124.226 E.21566
G1 X91.146 Y124.226 E.0443
G1 X91.146 Y121.169 E.21566
G1 X90.518 Y121.169 E.0443
G1 X90.518 Y124.226 E.21566
G1 X89.889 Y124.226 E.04437
G1 X89.889 Y121.169 E.21566
G1 X89.261 Y121.169 E.0443
G1 X89.261 Y124.226 E.21566
G1 X88.632 Y124.226 E.04437
G1 X88.632 Y121.169 E.21566
G1 X88.004 Y121.169 E.0443
G1 X88.004 Y124.226 E.21566
G1 X87.375 Y124.226 E.04437
G1 X87.375 Y121.169 E.21566
G1 X86.747 Y121.169 E.0443
G1 X86.747 Y124.226 E.21566
G1 X86.118 Y124.226 E.04437
