; generated by PrusaSlicer 2.7.1+win64 on 2024-07-10 at 08:53:03 UTC

; 

; external perimeters extrusion width = 0.42mm
; perimeters extrusion width = 0.44mm
; infill extrusion width = 0.44mm
; solid infill extrusion width = 0.44mm
; top infill extrusion width = 0.40mm
; first layer extrusion width = 0.42mm

; external perimeters extrusion width = 0.42mm
; perimeters extrusion width = 0.44mm
; infill extrusion width = 0.44mm
; solid infill extrusion width = 0.44mm
; top infill extrusion width = 0.40mm
; first layer extrusion width = 0.42mm

M201 X500 Y500 Z100 E5000 ; sets maximum accelerations, mm/sec^2
M203 X500 Y500 Z10 E60 ; sets maximum feedrates, mm / sec
M204 S500 T1000 ; sets acceleration (S) and retract acceleration (R), mm/sec^2
M205 X8.00 Y8.00 Z0.40 E5.00 ; sets the jerk limits, mm/sec
M205 S0 T0 ; sets the minimum extruding and travel feed rate, mm/sec

; printing object AileronConnector2.STL id:1 copy 0
; stop printing object AileronConnector2.STL id:1 copy 0
; printing object AileronConnector2.STL id:1 copy 1
; stop printing object AileronConnector2.STL id:1 copy 1
; printing object AileronConnector2.STL id:1 copy 2
; stop printing object AileronConnector2.STL id:1 copy 2
; printing object AileronConnector2.STL id:1 copy 3
; stop printing object AileronConnector2.STL id:1 copy 3
; printing object AileronConnector2.STL id:1 copy 4
; stop printing object AileronConnector2.STL id:1 copy 4
; printing object AileronConnector2.STL id:1 copy 5
; stop printing object AileronConnector2.STL id:1 copy 5
; printing object AileronConnector2.STL id:1 copy 6
; stop printing object AileronConnector2.STL id:1 copy 6
; printing object AileronConnector2.STL id:1 copy 7
; stop printing object AileronConnector2.STL id:1 copy 7
; printing object AileronConnector2.STL id:1 copy 8
; stop printing object AileronConnector2.STL id:1 copy 8
; printing object AileronConnector2.STL id:1 copy 9
; stop printing object AileronConnector2.STL id:1 copy 9
; printing object AileronConnector.STL id:0 copy 0
; stop printing object AileronConnector.STL id:0 copy 0
; printing object AileronConnector.STL id:0 copy 1
; stop printing object AileronConnector.STL id:0 copy 1
; printing object AileronConnector.STL id:0 copy 2
; stop printing object AileronConnector.STL id:0 copy 2
; printing object AileronConnector.STL id:0 copy 3
; stop printing object AileronConnector.STL id:0 copy 3
; printing object AileronConnector.STL id:0 copy 4
; stop printing object AileronConnector.STL id:0 copy 4
; printing object AileronConnector.STL id:0 copy 5
; stop printing object AileronConnector.STL id:0 copy 5
; printing object AileronConnector.STL id:0 copy 6
; stop printing object AileronConnector.STL id:0 copy 6
; printing object AileronConnector.STL id:0 copy 7
; stop printing object AileronConnector.STL id:0 copy 7
; printing object AileronConnector.STL id:0 copy 8
; stop printing object AileronConnector.STL id:0 copy 8
; printing object AileronConnector.STL id:0 copy 9
; stop printing object AileronConnector.STL id:0 copy 9

;TYPE:Custom
G90 ; use absolute coordinates
M83 ; extruder relative mode
M104 S160 ; set temporary nozzle temp to prevent oozing during homing
M140 S70 ; set final bed temp
G4 S30 ; allow partial nozzle warmup
G28 ; home all axis and restore leveling
G1 Z50 F240
G1 X2.0 Y10 F3000
M104 S240 ; set final nozzle temp
M190 S70 ; wait for bed temp to stabilize
M109 S240 ; wait for nozzle temp to stabilize
G1 Z0.28 F240
G92 E0
G1 X2.0 Y140 E10 F1500 ; prime the nozzle
G1 X2.3 Y140 F5000
G92 E0
G1 X2.3 Y10 E10 F1200 ; prime the nozzle
G92 E0
G21 ; set units to millimeters
G90 ; use absolute coordinates
M83 ; use relative distances for extrusion
; Filament gcode
M107
;LAYER_CHANGE
;Z:0.2
;HEIGHT:0.2
;BEFORE_LAYER_CHANGE
G92 E0
;0.2


G1 E-.8 F1800
G1 Z.2 F9000
;AFTER_LAYER_CHANGE
;0.2
G1 X85.654 Y85.654
G1 Z.2
G1 E.8 F1800
M204 S500
;TYPE:Skirt/Brim
;WIDTH:0.42
G1 F1200
G1 X93.805 Y77.504 E.36141
G1 X94.638 Y76.829 E.03362
G1 X95.251 Y76.453 E.02255
G1 X96.226 Y76.018 E.03348
G1 X96.933 Y75.808 E.02312
G1 X98.358 Y75.621 E.04506
G1 X111.72 Y75.621 E.41896
G1 X125.755 Y76.737 E.44145
G1 X127.132 Y77.146 E.04504
G1 X128.088 Y77.633 E.03364
G1 X128.966 Y78.271 E.03403
G1 X129.724 Y79.029 E.03361
G1 X130.362 Y79.907 E.03403
G1 X143.857 Y106.879 E.94563
G1 X144.266 Y108.257 E.04507
G1 X144.379 Y109.689 E.04504
G1 X144.192 Y111.114 E.04506
G1 X143.746 Y112.404 E.0428
G1 X130.539 Y139.759 E.95243
G1 X129.955 Y140.659 E.03364
G1 X129.228 Y141.465 E.03403
G1 X128.395 Y142.14 E.03362
G1 X127.455 Y142.683 E.03404
G1 X126.454 Y143.067 E.03362
G1 X125.121 Y143.324 E.04256
G1 X111.017 Y144.382 E.44346
G1 X82.995 Y144.382 E.87861
G1 X81.429 Y144.211 E.04939
G1 X80.572 Y143.97 E.02791
G1 X79.75 Y143.627 E.02793
G1 X78.975 Y143.187 E.02794
G1 X78.259 Y142.658 E.02791
G1 X77.613 Y142.046 E.0279
G1 X76.813 Y141.025 E.04067
G1 X76.373 Y140.25 E.02794
G1 X75.887 Y138.967 E.04302
G1 X75.702 Y138.096 E.02792
G1 X75.618 Y137.005 E.03431
G1 X75.653 Y108.297 E.90012
G1 X75.817 Y107.283 E.03221
G1 X78.809 Y94.03 E.426
G1 X79.32 Y92.545 E.04924
G1 X79.863 Y91.605 E.03404
G1 X80.537 Y90.772 E.0336
G1 X85.612 Y85.697 E.22503
; printing object AileronConnector.STL id:0 copy 0
;WIPE_START
G1 F7200
G1 X85.654 Y85.654 E-.01428
G1 X87.993 Y83.315 E-.78572
;WIPE_END
G1 X85.927 Y137.032 F9000
G1 E.8 F1800
;TYPE:Perimeter
;WIDTH:0.419999
G1 F1200
G1 X85.885 Y137.482 E.01417
G1 X85.727 Y138.07 E.01909
G1 X85.471 Y138.569 E.01758
G1 X85.172 Y138.97 E.01568
G1 X84.776 Y139.33 E.01678
G1 X84.334 Y139.614 E.01647
G1 X83.861 Y139.803 E.01597
G1 X83.322 Y139.92 E.01729
G1 X82.667 Y139.92 E.02054
G1 X82.156 Y139.811 E.01638
G1 X81.673 Y139.622 E.01626
G1 X81.26 Y139.367 E.01522
G1 X80.782 Y138.93 E.02031
G1 X80.469 Y138.488 E.01698
G1 X80.243 Y138.02 E.0163
G1 X80.112 Y137.521 E.01618
G1 X80.061 Y137.005 E.01626
G1 X80.112 Y136.49 E.01623
G1 X80.243 Y135.991 E.01618
G1 X80.469 Y135.523 E.0163
G1 X80.782 Y135.081 E.01698
G1 X81.138 Y134.74 E.01546
G1 X81.673 Y134.389 E.02006
G1 X82.156 Y134.199 E.01627
G1 X82.667 Y134.091 E.01638
G1 X83.222 Y134.085 E.0174
G1 X83.725 Y134.166 E.01597
G1 X84.242 Y134.355 E.01726
G1 X84.682 Y134.607 E.0159
G1 X85.082 Y134.951 E.01654
G1 X85.423 Y135.362 E.01674
G1 X85.746 Y135.99 E.02214
G1 X85.876 Y136.481 E.01593
G1 X85.921 Y136.972 E.01546
G1 X86.303 Y137.055 F9000
G1 F1200
G1 X86.256 Y137.55 E.01559
G1 X86.106 Y138.133 E.01887
G1 X85.879 Y138.624 E.01696
G1 X85.561 Y139.09 E.01769
G1 X85.152 Y139.515 E.01849
G1 X84.704 Y139.835 E.01726
G1 X84.169 Y140.102 E.01875
G1 X83.645 Y140.247 E.01705
G1 X83.044 Y140.314 E.01896
G1 X82.509 Y140.277 E.01681
G1 X81.926 Y140.135 E.01881
G1 X81.456 Y139.938 E.01598
G1 X81.028 Y139.664 E.01593
G1 X80.551 Y139.236 E.02009
G1 X80.242 Y138.842 E.0157
G1 X79.973 Y138.346 E.01769
G1 X79.77 Y137.75 E.01974
G1 X79.697 Y137.244 E.01603
G1 X79.707 Y136.606 E.02001
G1 X79.81 Y136.114 E.01576
G1 X80.02 Y135.56 E.01858
G1 X80.269 Y135.124 E.01574
G1 X80.604 Y134.721 E.01643
G1 X81.074 Y134.31 E.01958
G1 X81.518 Y134.045 E.01621
G1 X82.044 Y133.839 E.01771
G1 X82.547 Y133.727 E.01616
G1 X83.055 Y133.697 E.01596
G1 X83.738 Y133.781 E.02158
G1 X84.239 Y133.94 E.01648
G1 X84.741 Y134.198 E.0177
G1 X85.226 Y134.561 E.01899
G1 X85.588 Y134.955 E.01678
G1 X85.927 Y135.466 E.01923
G1 X86.129 Y135.953 E.01653
G1 X86.265 Y136.514 E.0181
G1 X86.299 Y136.995 E.01512
G1 X86.68 Y137.077 F9000
;TYPE:External perimeter
G1 F1200
G1 X86.662 Y137.378 E.00945
G1 X86.577 Y137.888 E.01621
G1 X86.415 Y138.38 E.01624
G1 X86.068 Y139.04 E.02338
G1 X85.756 Y139.452 E.0162
G1 X85.384 Y139.811 E.01621
G1 X84.899 Y140.158 E.0187
G1 X84.369 Y140.426 E.01862
G1 X83.878 Y140.588 E.01621
G1 X83.367 Y140.672 E.01624
G1 X82.792 Y140.683 E.01803
G1 X82.183 Y140.601 E.01927
G1 X81.686 Y140.455 E.01624
G1 X81.218 Y140.235 E.01621
G1 X80.605 Y139.811 E.02337
G1 X80.233 Y139.452 E.01621
G1 X79.92 Y139.037 E.0163
G1 X79.629 Y138.501 E.01912
G1 X79.434 Y137.957 E.01812
G1 X79.332 Y137.45 E.01622
G1 X79.31 Y136.933 E.01622
G1 X79.37 Y136.354 E.01825
G1 X79.523 Y135.766 E.01905
G1 X79.728 Y135.291 E.01622
G1 X80.003 Y134.853 E.01622
G1 X80.338 Y134.454 E.01634
G1 X80.795 Y134.05 E.01913
G1 X81.218 Y133.776 E.0158
G1 X81.686 Y133.556 E.01621
G1 X82.183 Y133.41 E.01624
G1 X82.792 Y133.328 E.01927
G1 X83.353 Y133.338 E.01759
G1 X83.878 Y133.423 E.01668
G1 X84.393 Y133.596 E.01703
G1 X84.936 Y133.876 E.01916
G1 X85.384 Y134.199 E.01732
G1 X85.756 Y134.559 E.01623
G1 X86.068 Y134.972 E.01623
G1 X86.352 Y135.492 E.01858
G1 X86.555 Y136.053 E.01871
G1 X86.657 Y136.561 E.01625
G1 X86.677 Y137.017 E.01431
;WIPE_START
G1 F7200
G1 X86.68 Y137.077 E-.01427
G1 X86.662 Y137.378 E-.07162
G1 X86.577 Y137.888 E-.1228
G1 X86.415 Y138.38 E-.12302
G1 X86.068 Y139.04 E-.17709
G1 X85.756 Y139.452 E-.12274
G1 X85.384 Y139.811 E-.12278
G1 X85.227 Y139.923 E-.04568
;WIPE_END
G1 X83.434 Y135.009 F9000
G1 E.8 F1800
;TYPE:Perimeter
G1 F1200
G1 X83.75 Y135.094 E.01026
G1 X84.06 Y135.246 E.01083
G1 X84.471 Y135.563 E.01627
G1 X84.798 Y136.015 E.01749
G1 X84.929 Y136.305 E.00998
G1 X85.053 Y136.851 E.01756
G1 X85.02 Y137.367 E.01621
G1 X84.925 Y137.708 E.0111
G1 X84.696 Y138.175 E.01631
G1 X84.342 Y138.56 E.0164
G1 X84.086 Y138.749 E.00998
G1 X83.604 Y138.978 E.01673
G1 X83.067 Y139.061 E.01704
G1 X82.748 Y139.048 E.01001
G1 X82.256 Y138.933 E.01584
G1 X81.81 Y138.681 E.01606
G1 X81.52 Y138.44 E.01182
G1 X81.208 Y138.04 E.01591
G1 X81 Y137.509 E.01788
G1 X80.946 Y137.195 E.00999
G1 X80.962 Y136.646 E.01722
G1 X81.156 Y136.071 E.01903
G1 X81.472 Y135.63 E.01701
G1 X81.759 Y135.36 E.01235
G1 X82.189 Y135.105 E.01567
G1 X82.748 Y134.963 E.01808
G1 X83.236 Y134.955 E.0153
G1 X83.376 Y134.993 E.00455
G1 X83.296 Y135.36 F9000
G1 F1200
G1 X83.355 Y135.368 E.00187
G1 X83.836 Y135.549 E.01611
G1 X84.24 Y135.868 E.01614
G1 X84.533 Y136.311 E.01665
G1 X84.669 Y136.806 E.0161
G1 X84.644 Y137.335 E.0166
G1 X84.457 Y137.827 E.0165
G1 X84.269 Y138.091 E.01016
G1 X83.916 Y138.412 E.01496
G1 X83.434 Y138.633 E.01663
G1 X82.913 Y138.691 E.01644
G1 X82.408 Y138.586 E.01617
G1 X81.957 Y138.329 E.01628
G1 X81.577 Y137.91 E.01774
G1 X81.438 Y137.616 E.0102
G1 X81.323 Y137.195 E.01368
G1 X81.349 Y136.649 E.01714
G1 X81.499 Y136.226 E.01407
G1 X81.813 Y135.808 E.01639
G1 X82.264 Y135.493 E.01725
G1 X82.571 Y135.387 E.01018
G1 X82.971 Y135.319 E.01272
G1 X83.237 Y135.353 E.00841
G1 X83.244 Y135.728 F9000
;TYPE:External perimeter
G1 F1200
G1 X83.612 Y135.852 E.01218
G1 X83.961 Y136.124 E.01387
G1 X84.199 Y136.496 E.01385
G1 X84.3 Y136.924 E.01379
G1 X84.238 Y137.398 E.01499
G1 X84.06 Y137.764 E.01276
G1 X83.747 Y138.076 E.01386
G1 X83.347 Y138.265 E.01387
G1 X82.907 Y138.311 E.01387
G1 X82.462 Y138.197 E.0144
G1 X82.107 Y137.966 E.01328
G1 X81.837 Y137.615 E.01388
G1 X81.7 Y137.195 E.01385
G1 X81.711 Y136.753 E.01386
G1 X81.843 Y136.381 E.01238
G1 X82.155 Y136.003 E.01537
G1 X82.537 Y135.78 E.01387
G1 X82.955 Y135.696 E.01337
G1 X83.185 Y135.722 E.00726
;WIPE_START
G1 F7200
G1 X83.244 Y135.728 E-.01408
G1 X83.612 Y135.852 E-.09223
G1 X83.961 Y136.124 E-.10509
G1 X84.199 Y136.496 E-.10488
G1 X84.3 Y136.924 E-.10444
G1 X84.238 Y137.398 E-.11353
G1 X84.06 Y137.764 E-.09666
G1 X83.747 Y138.076 E-.10496
G1 X83.503 Y138.191 E-.06413
;WIPE_END
G1 X84.146 Y134.444 F9000
G1 E.8 F1800
;TYPE:Solid infill
;WIDTH:0.446744
G1 F1200
G1 X85.038 Y135.336 E.04236
G1 X85.178 Y135.517 E.00768
G1 X85.335 Y135.777 E.0102
G1 X85.466 Y136.068 E.01072
G1 X85.574 Y136.444 E.01314
G1 X83.347 Y134.217 E.10575
G1 X83.442 Y134.882 F9000
G1 F1200
G1 X82.927 Y134.368 E.02443
G1 X82.676 Y134.382 E.00844
G1 X82.417 Y134.429 E.00884
G1 X82.678 Y134.69 E.01239
G1 X82.21 Y134.793 E.01609
G1 X81.984 Y134.567 E.01073
G1 X81.607 Y134.761 E.01424
G1 X81.831 Y134.985 E.01064
G1 X81.48 Y135.205 E.01391
G1 X81.276 Y135.001 E.00969
G1 X81.242 Y135.027 E.00144
G1 X80.99 Y135.286 E.01213
G1 X81.206 Y135.502 E.01026
G1 X80.957 Y135.825 E.01369
G1 X80.753 Y135.62 E.00971
G1 X80.556 Y135.995 E.01422
G1 X80.793 Y136.231 E.01123
G1 X80.675 Y136.594 E.01282
G1 X80.672 Y136.682 E.00296
G1 X80.418 Y136.428 E.01206
G1 X80.371 Y136.687 E.00884
G1 X80.356 Y136.936 E.00838
G1 X80.864 Y137.445 E.02415
;WIPE_START
G1 F7200
G1 X80.356 Y136.936 E-.17079
G1 X80.371 Y136.687 E-.05924
G1 X80.418 Y136.428 E-.06252
G1 X80.672 Y136.682 E-.08531
G1 X80.675 Y136.594 E-.02091
G1 X80.793 Y136.231 E-.09065
G1 X80.556 Y135.995 E-.07943
G1 X80.753 Y135.62 E-.1006
G1 X80.957 Y135.825 E-.06869
G1 X81.116 Y135.619 E-.06186
;WIPE_END
G1 X85.117 Y136.558 F9000
G1 E.8 F1800
G1 F1200
G1 X85.634 Y137.074 E.02453
G1 X85.618 Y137.324 E.00841
G1 X85.571 Y137.583 E.00884
G1 X85.313 Y137.325 E.01225
G1 X85.258 Y137.656 E.01127
G1 X85.2 Y137.783 E.00469
G1 X85.433 Y138.016 E.01106
G1 X85.335 Y138.234 E.00803
G1 X85.239 Y138.393 E.00624
G1 X85.023 Y138.177 E.01026
G1 X84.98 Y138.271 E.00347
G1 X84.788 Y138.513 E.01037
G1 X84.999 Y138.724 E.01002
G1 X84.767 Y138.964 E.01121
G1 X84.712 Y139.008 E.00237
G1 X84.503 Y138.799 E.00992
G1 X84.423 Y138.878 E.00378
G1 X84.166 Y139.034 E.01009
G1 X84.382 Y139.249 E.01023
G1 X84.223 Y139.346 E.00625
G1 X84.005 Y139.444 E.00803
G1 X83.777 Y139.215 E.01085
G1 X83.567 Y139.287 E.00745
G1 X83.31 Y139.319 E.0087
G1 X83.572 Y139.582 E.01247
G1 X83.313 Y139.629 E.00884
G1 X83.064 Y139.644 E.00838
G1 X82.542 Y139.122 E.02479
G1 X82.644 Y139.796 F9000
G1 F1200
G1 X80.416 Y137.567 E.10582
G1 X80.523 Y137.943 E.01313
G1 X80.654 Y138.234 E.01072
G1 X80.819 Y138.507 E.01071
G1 X80.948 Y138.671 E.00701
G1 X81.844 Y139.567 E.04255
; stop printing object AileronConnector.STL id:0 copy 0
; printing object AileronConnector.STL id:0 copy 1
;WIPE_START
G1 F7200
G1 X80.948 Y138.671 E-.30094
G1 X80.819 Y138.507 E-.04956
G1 X80.654 Y138.234 E-.07576
G1 X80.523 Y137.943 E-.07579
G1 X80.416 Y137.567 E-.09285
G1 X81.027 Y138.178 E-.2051
;WIPE_END
G1 X94.108 Y137.374 F9000
G1 E.8 F1800
;TYPE:Perimeter
;WIDTH:0.419999
G1 F1200
G1 X94.072 Y137.005 E.01162
G1 X94.123 Y136.49 E.01623
G1 X94.254 Y135.991 E.01618
G1 X94.48 Y135.523 E.0163
G1 X94.793 Y135.081 E.01698
G1 X95.149 Y134.74 E.01546
G1 X95.683 Y134.389 E.02004
G1 X96.167 Y134.199 E.0163
G1 X96.678 Y134.091 E.01638
G1 X97.233 Y134.085 E.0174
G1 X97.736 Y134.166 E.01597
G1 X98.253 Y134.355 E.01726
G1 X98.693 Y134.607 E.0159
G1 X99.093 Y134.951 E.01654
G1 X99.434 Y135.362 E.01674
G1 X99.757 Y135.99 E.02214
G1 X99.887 Y136.481 E.01593
G1 X99.938 Y137.032 E.01735
G1 X99.896 Y137.482 E.01417
G1 X99.738 Y138.07 E.01909
G1 X99.482 Y138.569 E.01758
G1 X99.183 Y138.97 E.01568
G1 X98.787 Y139.33 E.01678
G1 X98.345 Y139.614 E.01647
G1 X97.872 Y139.803 E.01597
G1 X97.333 Y139.92 E.01729
G1 X96.678 Y139.92 E.02054
G1 X96.167 Y139.811 E.01638
G1 X95.683 Y139.622 E.01629
G1 X95.271 Y139.367 E.01519
G1 X94.793 Y138.93 E.02031
G1 X94.48 Y138.488 E.01698
G1 X94.254 Y138.02 E.0163
G1 X94.123 Y137.521 E.01618
G1 X94.114 Y137.434 E.00274
G1 X93.73 Y137.394 F9000
G1 F1200
G1 X93.708 Y137.244 E.00475
G1 X93.718 Y136.606 E.02001
G1 X93.821 Y136.114 E.01576
G1 X94.031 Y135.56 E.01858
G1 X94.28 Y135.124 E.01574
G1 X94.615 Y134.721 E.01643
G1 X95.085 Y134.31 E.01958
G1 X95.529 Y134.045 E.01621
G1 X96.055 Y133.839 E.01771
G1 X96.558 Y133.727 E.01616
G1 X97.066 Y133.697 E.01596
G1 X97.749 Y133.781 E.02158
G1 X98.25 Y133.94 E.01648
G1 X98.752 Y134.198 E.0177
G1 X99.237 Y134.561 E.01899
G1 X99.599 Y134.955 E.01678
G1 X99.938 Y135.466 E.01923
G1 X100.14 Y135.953 E.01653
G1 X100.276 Y136.514 E.0181
G1 X100.314 Y137.055 E.017
G1 X100.267 Y137.55 E.01559
G1 X100.117 Y138.133 E.01887
G1 X99.89 Y138.624 E.01696
G1 X99.572 Y139.09 E.01769
G1 X99.163 Y139.515 E.01849
G1 X98.715 Y139.835 E.01726
G1 X98.18 Y140.102 E.01875
G1 X97.656 Y140.247 E.01705
G1 X97.055 Y140.314 E.01896
G1 X96.52 Y140.277 E.01681
G1 X95.937 Y140.135 E.01881
G1 X95.467 Y139.938 E.01598
G1 X95.039 Y139.664 E.01593
G1 X94.562 Y139.236 E.02009
G1 X94.253 Y138.842 E.0157
G1 X93.984 Y138.346 E.01769
G1 X93.781 Y137.75 E.01974
G1 X93.739 Y137.454 E.00937
G1 X93.343 Y137.45 F9000
