; generated by PrusaSlicer 2.7.1+win64 on 2024-07-09 at 15:31:14 UTC

; 

; external perimeters extrusion width = 0.63mm
; perimeters extrusion width = 0.66mm
; infill extrusion width = 0.66mm
; solid infill extrusion width = 0.66mm
; top infill extrusion width = 0.60mm
; first layer extrusion width = 0.63mm

M201 X500 Y500 Z100 E5000 ; sets maximum accelerations, mm/sec^2
M203 X500 Y500 Z10 E60 ; sets maximum feedrates, mm / sec
M204 S500 T1000 ; sets acceleration (S) and retract acceleration (R), mm/sec^2
M205 X8.00 Y8.00 Z0.40 E5.00 ; sets the jerk limits, mm/sec
M205 S0 T0 ; sets the minimum extruding and travel feed rate, mm/sec

; printing object WingHolder8mmPart2.STL id:0 copy 0
; stop printing object WingHolder8mmPart2.STL id:0 copy 0

;TYPE:Custom
G90 ; use absolute coordinates
M83 ; extruder relative mode
M104 S150 ; set temporary nozzle temp to prevent oozing during homing
M140 S60 ; set final bed temp
G4 S30 ; allow partial nozzle warmup
G28 ; home all axis and restore leveling
G1 Z50 F240
G1 X2.0 Y10 F3000
M104 S210 ; set final nozzle temp
M190 S60 ; wait for bed temp to stabilize
M109 S210 ; wait for nozzle temp to stabilize
G1 Z0.28 F240
G92 E0
G1 X2.0 Y140 E10 F1500 ; prime the nozzle
G1 X2.3 Y140 F5000
G92 E0
G1 X2.3 Y10 E10 F1200 ; prime the nozzle
G92 E0
G21 ; set units to millimeters
G90 ; use absolute coordinates
M83 ; use relative distances for extrusion
; Filament gcode
M107
;LAYER_CHANGE
;Z:0.3
;HEIGHT:0.3
;BEFORE_LAYER_CHANGE
G92 E0
;0.3


G1 E-.8 F1800
G1 Z.3 F9000
;AFTER_LAYER_CHANGE
;0.3
G1 X100.518 Y100.026
G1 Z.3
G1 E.8 F1800
M204 S500
;TYPE:Skirt/Brim
;WIDTH:0.63
G1 F1200
G1 X101.594 Y99.104 E.09996
G1 X102.759 Y98.297 E.09998
G1 X104 Y97.615 E.0999
G1 X105.306 Y97.063 E.10003
G1 X106.661 Y96.649 E.09995
G1 X108.051 Y96.377 E.09992
G1 X109.462 Y96.248 E.09996
G1 X110.68 Y96.261 E.08593
G1 X112.648 Y96.495 E.13981
G1 X114.022 Y96.839 E.09992
G1 X115.354 Y97.322 E.09996
G1 X116.629 Y97.94 E.09996
G1 X117.834 Y98.685 E.09994
G1 X118.956 Y99.551 E.09999
G1 X119.983 Y100.527 E.09995
G1 X120.904 Y101.604 E.09997
G1 X121.71 Y102.769 E.09994
G1 X122.391 Y104.012 E.09999
G1 X122.941 Y105.318 E.09997
G1 X123.354 Y106.673 E.09993
G1 X123.625 Y108.064 E.09998
G1 X123.751 Y109.383 E.09348
G1 X123.751 Y110.617 E.08706
G1 X123.625 Y111.936 E.09348
G1 X123.354 Y113.327 E.09998
G1 X122.941 Y114.682 E.09993
G1 X122.391 Y115.988 E.09997
G1 X121.71 Y117.231 E.09999
G1 X120.904 Y118.396 E.09994
G1 X119.983 Y119.473 E.09997
G1 X118.956 Y120.449 E.09995
G1 X117.834 Y121.315 E.09999
G1 X116.629 Y122.06 E.09994
G1 X115.354 Y122.678 E.09996
G1 X114.097 Y123.135 E.09436
G1 X112.286 Y123.571 E.13141
G1 X110.879 Y123.734 E.09992
G1 X109.462 Y123.752 E.09997
G1 X108.051 Y123.623 E.09996
G1 X106.661 Y123.351 E.09992
G1 X105.306 Y122.937 E.09995
G1 X104 Y122.385 E.10003
G1 X103.073 Y121.892 E.07407
G1 X101.887 Y121.117 E.09995
G1 X100.787 Y120.224 E.09995
G1 X99.785 Y119.222 E.09997
G1 X98.678 Y117.824 E.1258
G1 X97.934 Y116.618 E.09997
G1 X97.317 Y115.342 E.09999
G1 X96.835 Y114.01 E.09993
G1 X96.493 Y112.635 E.09996
G1 X96.293 Y111.232 E.09998
G1 X96.239 Y109.816 E.09997
G1 X96.293 Y108.768 E.07403
G1 X96.493 Y107.365 E.09998
G1 X96.835 Y105.99 E.09996
G1 X97.317 Y104.658 E.09993
G1 X97.934 Y103.382 E.09999
G1 X98.678 Y102.176 E.09997
G1 X99.543 Y101.054 E.09995
G1 X100.456 Y100.091 E.09362
; printing object WingHolder8mmPart2.STL id:0 copy 0
;WIPE_START
G1 F7200
G1 X100.518 Y100.026 E-.02133
G1 X101.594 Y99.104 E-.33654
G1 X102.759 Y98.297 E-.33659
G1 X103.149 Y98.083 E-.10554
;WIPE_END
G1 X114.943 Y108.491 F9000
G1 E.8 F1800
;TYPE:Perimeter
;WIDTH:0.63
G1 F1200
G1 X115.126 Y108.603 E.01514
G1 X115.448 Y108.744 E.0248
G1 X116.054 Y108.872 E.04369
G1 X116.492 Y108.845 E.03096
G1 X116.987 Y108.764 E.03539
G1 X117.456 Y108.537 E.03676
G1 X117.819 Y108.3 E.03058
G1 X118.201 Y107.901 E.03897
G1 X118.361 Y107.664 E.02017
G1 X118.588 Y107.161 E.03893
G1 X118.665 Y106.883 E.02035
G1 X118.914 Y107.652 E.05702
G1 X119.108 Y108.581 E.06695
G1 X119.202 Y109.492 E.06461
G1 X119.218 Y110.037 E.03846
G1 X119.207 Y110.462 E.02999
G1 X119.108 Y111.419 E.06787
G1 X118.914 Y112.348 E.06695
G1 X118.626 Y113.252 E.06693
G1 X118.245 Y114.121 E.06694
G1 X117.778 Y114.947 E.06694
G1 X117.228 Y115.721 E.06699
G1 X116.602 Y116.434 E.06694
G1 X115.905 Y117.078 E.06695
G1 X115.146 Y117.648 E.06696
G1 X114.332 Y118.137 E.06699
G1 X113.509 Y118.522 E.0641
G1 X113.024 Y118.695 E.03633
G1 X112.113 Y118.96 E.06693
G1 X111.607 Y119.075 E.03661
G1 X111.965 Y118.701 E.03652
G1 X112.126 Y118.464 E.02021
G1 X112.353 Y117.961 E.03893
G1 X112.425 Y117.683 E.02026
G1 X112.472 Y117.131 E.03908
G1 X112.447 Y116.845 E.02025
G1 X112.309 Y116.313 E.03877
G1 X112.191 Y116.052 E.02021
G1 X111.882 Y115.595 E.03892
G1 X111.679 Y115.385 E.02061
G1 X111.195 Y115.033 E.04222
G1 X111.772 Y114.866 E.04238
G1 X112.648 Y114.45 E.06841
G1 X113.328 Y113.968 E.0588
G1 X113.751 Y113.562 E.04136
G1 X114.022 Y113.248 E.02926
G1 X114.413 Y112.71 E.04692
G1 X114.814 Y111.897 E.06395
G1 X115.044 Y111.173 E.05359
G1 X115.167 Y110.351 E.05864
G1 X115.167 Y109.649 E.04952
G1 X115.087 Y109.088 E.03998
G1 X114.964 Y108.578 E.03701
;WIPE_START
G1 F7200
G1 X114.943 Y108.491 E-.02126
G1 X115.126 Y108.603 E-.05096
G1 X115.448 Y108.744 E-.08349
G1 X116.054 Y108.872 E-.1471
G1 X116.492 Y108.845 E-.10422
G1 X116.987 Y108.764 E-.11913
G1 X117.456 Y108.537 E-.12375
G1 X117.819 Y108.3 E-.10296
G1 X117.956 Y108.157 E-.04713
;WIPE_END
G1 X113.778 Y106.464 F9000
G1 E.8 F1800
G1 F1200
G1 X113.222 Y105.946 E.05361
G1 X112.53 Y105.481 E.05882
G1 X112.024 Y105.241 E.03951
G1 X111.447 Y105.04 E.0431
G1 X110.958 Y104.911 E.03568
G1 X110.336 Y104.844 E.04413
G1 X109.896 Y104.833 E.03105
G1 X109.308 Y104.868 E.04156
G1 X108.752 Y104.981 E.04003
G1 X108.354 Y105.098 E.02927
G1 X107.718 Y105.351 E.04829
G1 X107.002 Y105.777 E.05878
G1 X106.542 Y106.153 E.04191
G1 X106.225 Y106.469 E.03158
G1 X106.236 Y106.331 E.00977
G1 X106.212 Y106.045 E.02025
G1 X106.073 Y105.513 E.03879
G1 X105.955 Y105.252 E.02021
G1 X105.549 Y104.676 E.04972
G1 X105.147 Y104.365 E.03586
G1 X104.73 Y104.125 E.03394
G1 X103.995 Y103.932 E.05361
G1 X103.485 Y103.944 E.03599
G1 X102.972 Y104.052 E.03698
G1 X103.076 Y103.915 E.01213
G1 X103.738 Y103.235 E.06695
G1 X104.467 Y102.627 E.06697
G1 X105.255 Y102.097 E.067
G1 X106.092 Y101.651 E.06691
G1 X106.971 Y101.294 E.06693
G1 X107.883 Y101.028 E.06702
G1 X108.816 Y100.858 E.0669
G1 X109.763 Y100.785 E.06701
G1 X110.711 Y100.809 E.0669
G1 X111.653 Y100.931 E.06701
G1 X112.576 Y101.149 E.06691
G1 X113.473 Y101.461 E.067
G1 X114.332 Y101.863 E.06691
G1 X115.146 Y102.352 E.06699
G1 X115.905 Y102.922 E.06696
G1 X116.602 Y103.566 E.06695
G1 X117.053 Y104.08 E.04824
G1 X116.691 Y103.969 E.02671
G1 X116.161 Y103.924 E.03752
G1 X115.638 Y104.014 E.03744
G1 X115.182 Y104.163 E.03384
G1 X114.712 Y104.452 E.03892
G1 X114.497 Y104.641 E.02019
G1 X114.15 Y105.071 E.03898
G1 X114.01 Y105.321 E.02021
G1 X113.808 Y105.9 E.04326
G1 X113.783 Y106.374 E.03349
;WIPE_START
G1 F7200
G1 X113.778 Y106.464 E-.02141
G1 X113.222 Y105.946 E-.18048
G1 X112.53 Y105.481 E-.19801
G1 X112.024 Y105.241 E-.13301
G1 X111.447 Y105.04 E-.14511
G1 X110.958 Y104.911 E-.12011
G1 X110.95 Y104.91 E-.00187
;WIPE_END
G1 X114.535 Y107.341 F9000
G1 E.8 F1800
;TYPE:External perimeter
;WIDTH:0.686121
G1 F1200
G1 X114.446 Y107.056 E.02315
;WIDTH:0.660781
G1 X114.357 Y106.771 E.02221
;WIDTH:0.635442
G1 X114.343 Y106.124 E.04609
;WIDTH:0.63
G1 X114.543 Y105.51 E.04556
G1 X114.901 Y105.041 E.04162
G1 X115.008 Y104.934 E.01068
G1 X115.478 Y104.644 E.03896
G1 X116.078 Y104.496 E.0436
G1 X116.525 Y104.51 E.03155
G1 X117.053 Y104.672 E.03896
;WIDTH:0.673029
G1 X117.331 Y104.84 E.02466
;WIDTH:0.716058
G1 X117.608 Y105.008 E.02633
G1 X117.978 Y105.555 E.05368
;WIDTH:0.712209
G1 X118.084 Y105.864 E.0264
;WIDTH:0.744789
G1 X118.191 Y106.174 E.02783
G1 X118.164 Y106.347 E.01486
;WIDTH:0.706526
G1 X118.136 Y106.521 E.01412
;WIDTH:0.668263
G1 X118.109 Y106.694 E.01319
;WIDTH:0.63
G1 X118.073 Y106.928 E.0167
G1 X117.846 Y107.431 E.03893
G1 X117.501 Y107.813 E.03631
G1 X117.334 Y107.965 E.01593
G1 X116.841 Y108.214 E.03896
G1 X116.202 Y108.312 E.04561
G1 X115.567 Y108.191 E.0456
G1 X115.008 Y107.866 E.04562
;WIDTH:0.641152
G1 X114.883 Y107.746 E.01247
;WIDTH:0.686121
G1 X114.593 Y107.409 E.03448
;WIPE_START
G1 F7200
G1 X114.535 Y107.341 E-.02123
G1 X114.446 Y107.056 E-.07091
;WIPE_END
G1 E-.70786 F1800
G1 X105.047 Y108.506 F9000
G1 E.8 F1800
;TYPE:Perimeter
;WIDTH:0.63
G1 F1200
G1 X104.878 Y109.237 E.05293
G1 X104.828 Y109.851 E.04346
G1 X104.847 Y110.379 E.03727
G1 X104.922 Y110.988 E.04329
G1 X105.11 Y111.705 E.05229
G1 X105.446 Y112.466 E.05869
G1 X105.819 Y113.056 E.04924
G1 X106.114 Y113.405 E.03224
G1 X106.462 Y113.782 E.0362
G1 X107.124 Y114.306 E.05956
G1 X107.897 Y114.729 E.06216
G1 X108.447 Y114.937 E.04148
G1 X108.829 Y115.035 E.02782
G1 X108.652 Y115.144 E.01466
G1 X108.261 Y115.441 E.03464
G1 X107.994 Y115.772 E.03
G1 X107.775 Y116.121 E.02907
G1 X107.591 Y116.641 E.03891
G1 X107.542 Y116.924 E.02026
G1 X107.542 Y117.483 E.03944
G1 X107.676 Y117.998 E.03754
G1 X107.915 Y118.529 E.04108
G1 X108.379 Y119.062 E.04985
G1 X107.883 Y118.972 E.03556
G1 X106.971 Y118.706 E.06702
G1 X106.158 Y118.375 E.06193
G1 X105.252 Y117.901 E.07213
G1 X104.467 Y117.373 E.06674
G1 X103.738 Y116.765 E.06697
G1 X103.076 Y116.085 E.06695
G1 X102.487 Y115.341 E.06694
G1 X101.978 Y114.54 E.06695
G1 X101.553 Y113.691 E.06698
G1 X101.219 Y112.803 E.06693
G1 X100.977 Y111.886 E.06691
G1 X100.831 Y110.948 E.06697
G1 X100.782 Y110 E.06697
G1 X100.831 Y109.052 E.06697
G1 X100.977 Y108.114 E.06697
G1 X101.14 Y107.495 E.04516
G1 X101.341 Y106.873 E.04611
G1 X101.438 Y107.193 E.02359
G1 X101.679 Y107.729 E.04146
G1 X102.026 Y108.159 E.03898
G1 X102.241 Y108.348 E.02019
G1 X102.711 Y108.637 E.03892
G1 X102.977 Y108.744 E.02023
G1 X103.517 Y108.861 E.03898
G1 X103.803 Y108.873 E.02019
G1 X104.524 Y108.761 E.05147
G1 X104.966 Y108.545 E.03471
;WIPE_START
G1 F7200
G1 X105.047 Y108.506 E-.02135
G1 X104.878 Y109.237 E-.17819
G1 X104.828 Y109.851 E-.14631
G1 X104.847 Y110.379 E-.12548
G1 X104.922 Y110.988 E-.14573
G1 X105.11 Y111.705 E-.17604
G1 X105.122 Y111.732 E-.0069
;WIPE_END
G1 X105.647 Y106.948 F9000
G1 E.8 F1800
;TYPE:External perimeter
;WIDTH:0.727758
G1 F1200
G1 X105.402 Y107.443 E.0457
;WIDTH:0.689249
G1 X105.171 Y107.676 E.02557
;WIDTH:0.659624
G1 X104.94 Y107.908 E.02431
;WIDTH:0.63
G1 X104.37 Y108.214 E.04564
G1 X103.731 Y108.312 E.04561
G1 X103.096 Y108.191 E.0456
G1 X102.546 Y107.872 E.04485
G1 X102.119 Y107.374 E.04628
G1 X101.889 Y106.77 E.0456
;WIDTH:0.670682
G1 X101.852 Y106.257 E.03889
;WIDTH:0.71915
G1 X101.847 Y106.015 E.01977
G1 X102.047 Y105.5 E.04512
;WIDTH:0.712936
G1 X102.434 Y104.971 E.05302
G1 X102.721 Y104.807 E.02674
;WIDTH:0.671468
G1 X103.008 Y104.644 E.02499
;WIDTH:0.63
G1 X103.26 Y104.573 E.01847
G1 X103.675 Y104.49 E.02986
G1 X104.055 Y104.51 E.02685
G1 X104.582 Y104.672 E.0389
G1 X105.111 Y105.043 E.04558
G1 X105.487 Y105.569 E.04561
G1 X105.665 Y106.188 E.04544
;WIDTH:0.659525
G1 X105.66 Y106.513 E.02413
;WIDTH:0.68905
G1 X105.656 Y106.838 E.02532
;WIDTH:0.727758
G1 X105.654 Y106.858 E.00166
G1 X106.229 Y107.262 F9000
G1 F1200
G1 X106.485 Y107.001 E.03025
;WIDTH:0.678879
G1 X106.741 Y106.74 E.02802
;WIDTH:0.63
G1 X107.325 Y106.244 E.05405
G1 X108.001 Y105.841 E.05552
G1 X108.555 Y105.627 E.0419
G1 X109.421 Y105.422 E.06278
G1 X110.104 Y105.391 E.04823
G1 X110.897 Y105.474 E.05625
G1 X111.615 Y105.677 E.05264
G1 X112.229 Y105.965 E.04784
G1 X112.901 Y106.411 E.0569
G1 X113.439 Y106.923 E.05239
;WIDTH:0.679933
G1 X113.908 Y107.499 E.05703
G1 X114.241 Y108.168 E.05737
;WIDTH:0.641152
G1 X114.475 Y108.874 E.05351
;WIDTH:0.63
G1 X114.597 Y109.603 E.05214
G1 X114.601 Y110.131 E.03725
G1 X114.549 Y110.691 E.03968
G1 X114.475 Y111.126 E.03113
G1 X114.254 Y111.788 E.04924
G1 X113.912 Y112.447 E.05238
G1 X113.57 Y112.909 E.04055
G1 X112.936 Y113.56 E.06411
G1 X112.327 Y113.985 E.05239
G1 X111.658 Y114.307 E.05238
G1 X111.09 Y114.475 E.04179
;WIDTH:0.677584
G1 X110.356 Y114.616 E.05716
;WIDTH:0.695706
G1 X109.832 Y114.631 E.04128
G1 X109.578 Y114.595 E.0202
;WIDTH:0.663744
G1 X109.324 Y114.559 E.01918
;WIDTH:0.631783
G1 X108.738 Y114.439 E.04233
;WIDTH:0.63
G1 X108.097 Y114.2 E.04826
G1 X107.401 Y113.812 E.05622
G1 X106.82 Y113.344 E.05263
G1 X106.325 Y112.79 E.05241
G1 X105.925 Y112.165 E.05235
G1 X105.63 Y111.483 E.05242
G1 X105.471 Y110.852 E.04591
G1 X105.411 Y110.333 E.03686
G1 X105.392 Y109.896 E.03086
G1 X105.442 Y109.282 E.04346
G1 X105.615 Y108.564 E.0521
;WIDTH:0.656025
G1 X105.744 Y108.222 E.02697
;WIDTH:0.68205
G1 X105.873 Y107.88 E.02816
;WIDTH:0.727758
G1 X106.185 Y107.34 E.0516
;WIPE_START
G1 F7200
G1 X106.229 Y107.262 E-.02127
G1 X106.485 Y107.001 E-.08683
;WIPE_END
G1 E-.6919 F1800
G1 X110.297 Y115.287 F9000
G1 E.8 F1800
;WIDTH:0.677584
G1 F1200
G1 X110.817 Y115.472 E.04221
;WIDTH:0.63
G1 X111.347 Y115.843 E.04564
G1 X111.665 Y116.285 E.03841
G1 X111.761 Y116.456 E.01383
G1 X111.9 Y116.988 E.03879
G1 X111.862 Y117.635 E.04572
G1 X111.65 Y118.144 E.0389
G1 X111.557 Y118.31 E.01342
G1 X111.175 Y118.708 E.03892
;WIDTH:0.65855
G1 X110.897 Y118.874 E.024
;WIDTH:0.687101
G1 X110.618 Y119.039 E.02518
;WIDTH:0.707931
G1 X110.519 Y119.08 E.0086
G1 X109.97 Y119.136 E.0443
;WIDTH:0.726576
G1 X109.321 Y119.039 E.0542
G1 X109.047 Y118.853 E.02735
;WIDTH:0.678288
G1 X108.773 Y118.666 E.0254
;WIDTH:0.63
G1 X108.355 Y118.174 E.04554
G1 X108.124 Y117.57 E.04562
G1 X108.108 Y116.924 E.04559
G1 X108.308 Y116.31 E.04556
G1 X108.701 Y115.797 E.04559
G1 X109.243 Y115.444 E.04563
;WIDTH:0.65994
G1 X109.539 Y115.356 E.02294
;WIDTH:0.689881
G1 X109.836 Y115.267 E.02419
G1 X110.207 Y115.283 E.02897
;WIPE_START
G1 F7200
G1 X110.297 Y115.287 E-.0214
G1 X110.817 Y115.472 E-.13108
;WIPE_END
G1 E-.64752 F1800
G1 X111.377 Y119.675 F9000
G1 E.8 F1800
;WIDTH:0.668965
G1 F1200
G1 X110.973 Y119.698 E.03051
;WIDTH:0.707931
G1 X109.733 Y119.749 E.09962
;WIDTH:0.692133
G1 X108.996 Y119.693 E.05787
;WIDTH:0.689154
G1 X108.698 Y119.667 E.02331
;WIDTH:0.659577
G1 X108.4 Y119.641 E.02221
;WIDTH:0.63
G1 X107.753 Y119.523 E.0464
G1 X106.785 Y119.241 E.07113
G1 X105.919 Y118.889 E.06595
G1 X104.962 Y118.388 E.07621
G1 X104.127 Y117.826 E.07101
G1 X103.354 Y117.181 E.07102
G1 X102.651 Y116.459 E.07109
G1 X102.025 Y115.669 E.07111
G1 X101.485 Y114.819 E.07104
G1 X101.034 Y113.918 E.07108
G1 X100.679 Y112.976 E.07102
G1 X100.422 Y112.001 E.07113
G1 X100.267 Y111.006 E.07104
G1 X100.216 Y110 E.07106
G1 X100.267 Y108.994 E.07106
G1 X100.422 Y107.999 E.07104
G1 X100.679 Y107.024 E.07113
G1 X100.879 Y106.495 E.0399
;WIDTH:0.674575
G1 X101.062 Y106.127 E.03128
;WIDTH:0.71915
G1 X101.598 Y105.05 E.09825
;WIDTH:0.681795
G1 X102.056 Y104.329 E.06578
;WIDTH:0.676064
G1 X102.651 Y103.541 E.07533
;WIDTH:0.63
G1 X103.354 Y102.819 E.07109
G1 X104.127 Y102.174 E.07102
G1 X104.963 Y101.612 E.07107
G1 X105.852 Y101.138 E.07107
G1 X106.785 Y100.759 E.07104
G1 X107.753 Y100.477 E.07113
G1 X108.744 Y100.297 E.07106
G1 X109.748 Y100.219 E.07104
G1 X110.755 Y100.245 E.07106
G1 X111.754 Y100.374 E.07106
G1 X112.735 Y100.605 E.0711
G1 X113.686 Y100.936 E.07104
G1 X114.598 Y101.363 E.07104
G1 X115.462 Y101.882 E.0711
G1 X116.268 Y102.487 E.0711
G1 X116.772 Y102.953 E.04842
G1 X117.228 Y103.422 E.04615
;WIDTH:0.635908
G1 X117.78 Y104.085 E.0615
;WIDTH:0.668136
G1 X118.007 Y104.433 E.03129
;WIDTH:0.700364
G1 X118.234 Y104.782 E.03302
G1 X118.6 Y105.416 E.05807
;WIDTH:0.717443
G1 X118.718 Y105.689 E.02423
;WIDTH:0.74573
G1 X118.943 Y106.158 E.04421
;WIDTH:0.707153
G1 X119.049 Y106.353 E.01779
;WIDTH:0.668576
G1 X119.155 Y106.549 E.01679
;WIDTH:0.63
G1 X119.462 Y107.508 E.07104
G1 X119.668 Y108.494 E.07106
G1 X119.772 Y109.502 E.07149
G1 X119.784 Y110.052 E.03881
G1 X119.772 Y110.498 E.03148
G1 X119.668 Y111.506 E.07149
G1 X119.462 Y112.492 E.07106
G1 X119.155 Y113.451 E.07104
G1 X118.752 Y114.375 E.07112
G1 X118.256 Y115.251 E.07102
G1 X117.672 Y116.072 E.07108
