; generated by PrusaSlicer 2.7.1+win64 on 2024-07-09 at 23:53:01 UTC

; 

; external perimeters extrusion width = 0.42mm
; perimeters extrusion width = 0.44mm
; infill extrusion width = 0.44mm
; solid infill extrusion width = 0.44mm
; top infill extrusion width = 0.40mm
; first layer extrusion width = 0.42mm

; external perimeters extrusion width = 0.42mm
; perimeters extrusion width = 0.44mm
; infill extrusion width = 0.44mm
; solid infill extrusion width = 0.44mm
; top infill extrusion width = 0.40mm
; first layer extrusion width = 0.42mm

M201 X500 Y500 Z100 E5000 ; sets maximum accelerations, mm/sec^2
M203 X500 Y500 Z10 E60 ; sets maximum feedrates, mm / sec
M204 S500 T1000 ; sets acceleration (S) and retract acceleration (R), mm/sec^2
M205 X8.00 Y8.00 Z0.40 E5.00 ; sets the jerk limits, mm/sec
M205 S0 T0 ; sets the minimum extruding and travel feed rate, mm/sec

; printing object 16_7.4mmTubeConnector.STL id:1 copy 0
; stop printing object 16_7.4mmTubeConnector.STL id:1 copy 0
; printing object 16_7.4mmTubeConnector.STL id:1 copy 1
; stop printing object 16_7.4mmTubeConnector.STL id:1 copy 1
; printing object 16_7.4mmTubeConnector.STL id:1 copy 2
; stop printing object 16_7.4mmTubeConnector.STL id:1 copy 2
; printing object 16_7.4mmTubeConnector.STL id:1 copy 3
; stop printing object 16_7.4mmTubeConnector.STL id:1 copy 3
; printing object 16_7.4mmRibConnector.STL id:0 copy 0
; stop printing object 16_7.4mmRibConnector.STL id:0 copy 0
; printing object 16_7.4mmRibConnector.STL id:0 copy 1
; stop printing object 16_7.4mmRibConnector.STL id:0 copy 1
; printing object 16_7.4mmRibConnector.STL id:0 copy 2
; stop printing object 16_7.4mmRibConnector.STL id:0 copy 2
; printing object 16_7.4mmRibConnector.STL id:0 copy 3
; stop printing object 16_7.4mmRibConnector.STL id:0 copy 3

;TYPE:Custom
G90 ; use absolute coordinates
M83 ; extruder relative mode
M104 S130 ; set temporary nozzle temp to prevent oozing during homing
M140 S30 ; set final bed temp
G4 S30 ; allow partial nozzle warmup
G28 ; home all axis and restore leveling
G1 Z50 F240
G1 X2.0 Y10 F3000
M104 S245 ; set final nozzle temp
M190 S30 ; wait for bed temp to stabilize
M109 S245 ; wait for nozzle temp to stabilize
G1 Z0.28 F240
G92 E0
G1 X2.0 Y140 E10 F1500 ; prime the nozzle
G1 X2.3 Y140 F5000
G92 E0
G1 X2.3 Y10 E10 F1200 ; prime the nozzle
G92 E0
G21 ; set units to millimeters
G90 ; use absolute coordinates
M83 ; use relative distances for extrusion
; Filament gcode
M107
;LAYER_CHANGE
;Z:0.2
;HEIGHT:0.2
;BEFORE_LAYER_CHANGE
G92 E0
;0.2


G1 Z.2 F9000
;AFTER_LAYER_CHANGE
;0.2
G1 X80.482 Y78.665
M204 S500
;TYPE:Skirt/Brim
;WIDTH:0.42
G1 F954.706
G1 X81.298 Y77.98 E.03875
G1 X82.181 Y77.385 E.03873
G1 X83.121 Y76.885 E.03872
G1 X84.445 Y76.377 E.05158
G1 X85.478 Y76.119 E.03873
G1 X86.533 Y75.971 E.03875
G1 X87.515 Y75.93 E.03575
G1 X126.674 Y77.03 E1.42481
G1 X128.521 Y77.219 E.06753
G1 X129.89 Y77.586 E.05155
G1 X131.512 Y78.308 E.06457
G1 X132.701 Y79.08 E.05156
G1 X134.02 Y80.268 E.06456
G1 X134.912 Y81.37 E.05157
G1 X135.8 Y82.907 E.06456
G1 X136.308 Y84.231 E.05158
G1 X136.551 Y85.179 E.03559
G1 X142.678 Y118.459 E1.23077
G1 X142.752 Y119.521 E.03872
G1 X142.718 Y120.532 E.03679
G1 X142.493 Y121.986 E.05351
G1 X142.2 Y123.009 E.0387
G1 X141.801 Y123.997 E.03875
G1 X140.913 Y125.534 E.06456
G1 X140.258 Y126.373 E.03871
G1 X139.261 Y127.371 E.05131
G1 X122.18 Y141.261 E.80073
G1 X121.352 Y141.878 E.03756
G1 X120 Y142.681 E.05719
G1 X118.084 Y143.464 E.07528
G1 X116.31 Y143.88 E.06627
G1 X114.557 Y144.03 E.06399
G1 X89.832 Y144.017 E.89927
G1 X88.023 Y143.801 E.06626
G1 X86.266 Y143.32 E.06626
G1 X84.821 Y142.696 E.05725
G1 X83.601 Y141.993 E.05121
G1 X82.346 Y141.045 E.0572
G1 X81.503 Y140.247 E.04222
G1 X80.488 Y139.047 E.05716
G1 X79.84 Y138.083 E.04225
G1 X79.114 Y136.689 E.05717
G1 X78.694 Y135.607 E.04221
G1 X78.292 Y134.086 E.05722
G1 X78.072 Y132.278 E.06624
G1 X77.248 Y85.929 E1.68603
G1 X77.433 Y84.164 E.06455
G1 X77.8 Y82.795 E.05155
G1 X78.514 Y81.189 E.06392
G1 X79.087 Y80.27 E.03939
G1 X79.742 Y79.431 E.03871
G1 X80.44 Y78.708 E.03655
; printing object 16_7.4mmRibConnector.STL id:0 copy 1
G1 X86.053 Y124.846 F9000
;TYPE:Perimeter
;WIDTH:0.419999
G1 F954.707
G1 X86.708 Y124.476 E.02736
G1 X87.186 Y124.25 E.01923
G1 X87.666 Y124.06 E.01878
G1 X88.238 Y123.879 E.02182
G1 X88.765 Y123.755 E.01969
G1 X89.42 Y123.647 E.02414
G1 X90.01 Y123.597 E.02154
G1 X90.609 Y123.591 E.02179
G1 X91.207 Y123.63 E.0218
G1 X91.812 Y123.714 E.02222
G1 X92.387 Y123.838 E.02139
G1 X93.062 Y124.044 E.02567
G1 X93.555 Y124.233 E.0192
G1 X94.067 Y124.47 E.02052
G1 X94.626 Y124.784 E.02332
G1 X95.091 Y125.09 E.02025
G1 X95.616 Y125.503 E.02429
G1 X96.018 Y125.86 E.01955
G1 X96.43 Y126.286 E.02155
G1 X96.813 Y126.747 E.0218
G1 X97.161 Y127.234 E.02177
G1 X97.472 Y127.747 E.02182
G1 X97.768 Y128.335 E.02394
G1 X97.977 Y128.833 E.01964
G1 X98.204 Y129.538 E.02694
G1 X98.329 Y130.051 E.0192
G1 X98.421 Y130.572 E.01924
G1 X98.485 Y131.229 E.02401
G1 X98.5 Y131.767 E.01958
G1 X98.472 Y132.365 E.02177
G1 X98.401 Y132.961 E.02183
G1 X98.286 Y133.549 E.02179
G1 X98.128 Y134.127 E.02179
G1 X97.923 Y134.702 E.0222
G1 X97.685 Y135.24 E.0214
G1 X97.354 Y135.849 E.02521
G1 X97.07 Y136.295 E.01923
G1 X96.728 Y136.758 E.02094
G1 X96.312 Y137.237 E.02307
G1 X95.913 Y137.636 E.02052
G1 X95.391 Y138.079 E.0249
G1 X94.978 Y138.385 E.01869
G1 X94.472 Y138.705 E.02178
G1 X93.943 Y138.988 E.02182
G1 X93.395 Y139.23 E.02179
G1 X92.831 Y139.431 E.02178
G1 X92.207 Y139.6 E.02351
G1 X91.665 Y139.706 E.02009
G1 X90.94 Y139.786 E.02653
G1 X90.412 Y139.806 E.01922
G1 X89.872 Y139.791 E.01965
G1 X89.22 Y139.721 E.02385
G1 X88.686 Y139.626 E.01973
G1 X88.027 Y139.45 E.02481
G1 X87.53 Y139.286 E.01904
G1 X86.984 Y139.057 E.02153
G1 X86.45 Y138.785 E.0218
G1 X85.937 Y138.475 E.0218
G1 X85.449 Y138.127 E.0218
G1 X84.927 Y137.688 E.02481
G1 X84.548 Y137.321 E.01919
G1 X84.053 Y136.753 E.0274
G1 X83.737 Y136.33 E.0192
G1 X83.46 Y135.908 E.01836
G1 X83.134 Y135.314 E.02464
G1 X82.915 Y134.841 E.01896
G1 X82.675 Y134.18 E.02558
G1 X82.532 Y133.699 E.01825
G1 X82.407 Y133.12 E.02154
G1 X82.324 Y132.527 E.02178
G1 X82.284 Y131.893 E.02311
G1 X82.29 Y131.329 E.02051
G1 X82.356 Y130.615 E.02608
G1 X82.443 Y130.094 E.01921
G1 X82.569 Y129.557 E.02006
G1 X82.766 Y128.938 E.02363
G1 X82.97 Y128.428 E.01998
G1 X83.231 Y127.889 E.02178
G1 X83.532 Y127.37 E.02182
G1 X83.871 Y126.876 E.02179
G1 X84.245 Y126.407 E.02182
G1 X84.652 Y125.968 E.02177
G1 X85.091 Y125.56 E.0218
G1 X85.617 Y125.145 E.02437
G1 X86.004 Y124.88 E.01706
G1 X85.86 Y124.522 F9000
;TYPE:External perimeter
G1 F954.707
G1 X86.54 Y124.138 E.0284
G1 X87.044 Y123.901 E.02026
G1 X87.55 Y123.701 E.01979
G1 X88.148 Y123.513 E.0228
G1 X88.7 Y123.383 E.02063
G1 X89.5 Y123.261 E.02943
G1 X90.003 Y123.22 E.01836
G1 X90.63 Y123.215 E.02281
G1 X91.256 Y123.256 E.02282
G1 X91.888 Y123.345 E.02321
G1 X92.49 Y123.475 E.0224
G1 X93.192 Y123.689 E.02669
G1 X93.711 Y123.889 E.02023
G1 X94.413 Y124.229 E.02837
G1 X94.894 Y124.508 E.02022
G1 X95.319 Y124.789 E.01853
G1 X95.863 Y125.218 E.0252
G1 X96.288 Y125.595 E.02066
G1 X96.717 Y126.042 E.02253
G1 X97.118 Y126.525 E.02283
G1 X97.482 Y127.036 E.02282
G1 X97.807 Y127.572 E.0228
G1 X98.114 Y128.185 E.02494
G1 X98.333 Y128.71 E.02069
G1 X98.569 Y129.442 E.02797
G1 X98.7 Y129.982 E.02021
G1 X98.796 Y130.53 E.02023
G1 X98.862 Y131.215 E.02503
G1 X98.876 Y131.781 E.02059
G1 X98.834 Y132.524 E.02707
G1 X98.772 Y133.03 E.01854
G1 X98.65 Y133.645 E.0228
G1 X98.484 Y134.25 E.02282
G1 X98.269 Y134.851 E.02322
G1 X98.02 Y135.414 E.02239
G1 X97.675 Y136.048 E.02625
G1 X97.375 Y136.517 E.02025
G1 X96.901 Y137.137 E.02839
G1 X96.531 Y137.552 E.02022
G1 X96.162 Y137.919 E.01893
G1 X95.618 Y138.38 E.02593
G1 X95.183 Y138.702 E.01968
G1 X94.653 Y139.036 E.02279
G1 X94.099 Y139.331 E.02283
G1 X93.525 Y139.584 E.02281
G1 X92.934 Y139.794 E.02281
G1 X92.283 Y139.969 E.02452
G1 X91.714 Y140.08 E.02109
G1 X90.961 Y140.162 E.02755
G1 X90.405 Y140.183 E.02024
G1 X89.838 Y140.166 E.02063
G1 X89.158 Y140.093 E.02487
G1 X88.596 Y139.992 E.02077
G1 X87.913 Y139.81 E.02571
G1 X87.387 Y139.635 E.02016
G1 X86.816 Y139.395 E.02253
G1 X86.257 Y139.109 E.02284
G1 X85.721 Y138.784 E.0228
G1 X85.211 Y138.42 E.02279
G1 X84.668 Y137.962 E.02584
G1 X84.269 Y137.575 E.02022
G1 X83.757 Y136.986 E.02838
G1 X83.424 Y136.54 E.02024
G1 X83.132 Y136.095 E.01936
G1 X82.793 Y135.475 E.0257
G1 X82.564 Y134.977 E.01994
G1 X82.315 Y134.292 E.02651
G1 X82.164 Y133.782 E.01935
G1 X82.034 Y133.176 E.02254
G1 X81.948 Y132.554 E.02284
G1 X81.907 Y131.893 E.02409
G1 X81.914 Y131.301 E.02153
G1 X81.983 Y130.56 E.02707
G1 X82.075 Y130.011 E.02025
G1 X82.208 Y129.447 E.02108
G1 X82.415 Y128.802 E.02464
G1 X82.629 Y128.266 E.02099
G1 X82.953 Y127.615 E.02645
G1 X83.219 Y127.16 E.01917
G1 X83.574 Y126.643 E.02281
G1 X83.966 Y126.153 E.02282
G1 X84.393 Y125.694 E.0228
G1 X84.853 Y125.267 E.02283
G1 X85.401 Y124.835 E.02538
G1 X85.811 Y124.556 E.01804
G1 X86.157 Y124.355 F9000
G1 X87.071 Y128.85
;TYPE:Perimeter
G1 F954.707
G1 X87.32 Y128.566 E.01374
G1 X87.807 Y128.159 E.02308
G1 X88.336 Y127.832 E.02262
G1 X88.906 Y127.582 E.02264
G1 X89.458 Y127.423 E.02089
G1 X89.907 Y127.339 E.01661
G1 X90.502 Y127.315 E.02166
G1 X91.209 Y127.39 E.02586
G1 X91.801 Y127.551 E.02231
G1 X92.373 Y127.796 E.02263
G1 X92.905 Y128.117 E.0226
G1 X93.199 Y128.329 E.01318
G1 X93.643 Y128.756 E.0224
G1 X94.073 Y129.315 E.02565
G1 X94.38 Y129.885 E.02355
G1 X94.593 Y130.47 E.02264
G1 X94.722 Y131.078 E.02261
G1 X94.765 Y131.698 E.0226
G1 X94.722 Y132.318 E.0226
G1 X94.593 Y132.926 E.02261
G1 X94.426 Y133.42 E.01897
G1 X94.166 Y133.92 E.0205
G1 X93.81 Y134.43 E.02262
G1 X93.387 Y134.886 E.02262
G1 X92.905 Y135.278 E.0226
G1 X92.373 Y135.6 E.02262
G1 X91.903 Y135.815 E.0188
G1 X91.312 Y135.986 E.02238
G1 X90.742 Y136.062 E.02091
G1 X90.12 Y136.066 E.02262
G1 X89.504 Y135.982 E.02261
G1 X88.899 Y135.811 E.02287
G1 X88.336 Y135.564 E.02236
G1 X87.896 Y135.307 E.01853
G1 X87.449 Y134.945 E.02092
G1 X87.022 Y134.493 E.02262
G1 X86.661 Y133.986 E.02264
G1 X86.375 Y133.434 E.02261
G1 X86.166 Y132.841 E.02287
G1 X86.045 Y132.239 E.02233
G1 X86.003 Y131.698 E.01974
G1 X86.045 Y131.157 E.01974
G1 X86.168 Y130.547 E.02263
G1 X86.375 Y129.961 E.0226
G1 X86.661 Y129.409 E.02261
G1 X86.869 Y129.081 E.01413
G1 X87.032 Y128.895 E.009
G1 X87.18 Y129.295 F9000
;TYPE:External perimeter
G1 F954.707
G1 X87.602 Y128.816 E.02322
G1 X88.045 Y128.451 E.02088
G1 X88.525 Y128.159 E.02043
G1 X89.039 Y127.934 E.02041
G1 X89.533 Y127.792 E.01869
G1 X90.135 Y127.707 E.02211
G1 X90.707 Y127.711 E.0208
G1 X91.207 Y127.772 E.01832
G1 X91.798 Y127.943 E.02238
G1 X92.382 Y128.218 E.02348
G1 X92.915 Y128.582 E.02348
G1 X93.382 Y129.028 E.02349
G1 X93.771 Y129.542 E.02344
G1 X94.046 Y130.06 E.02133
G1 X94.235 Y130.589 E.02043
G1 X94.35 Y131.138 E.0204
G1 X94.388 Y131.698 E.02041
G1 X94.35 Y132.257 E.02038
G1 X94.235 Y132.807 E.02044
G1 X94.074 Y133.283 E.01828
G1 X93.788 Y133.828 E.02239
G1 X93.402 Y134.345 E.02347
G1 X92.938 Y134.794 E.02348
G1 X92.409 Y135.163 E.02346
G1 X91.827 Y135.442 E.02347
G1 X91.253 Y135.61 E.02175
G1 X90.696 Y135.688 E.02046
G1 X90.135 Y135.689 E.0204
G1 X89.579 Y135.613 E.02041
G1 X89.033 Y135.459 E.02063
G1 X88.525 Y135.237 E.02016
G1 X88.045 Y134.944 E.02045
G1 X87.624 Y134.6 E.01977
G1 X87.194 Y134.119 E.02347
G1 X86.847 Y133.575 E.02347
G1 X86.592 Y132.982 E.02348
G1 X86.435 Y132.356 E.02347
G1 X86.384 Y131.748 E.02219
G1 X86.421 Y131.187 E.02045
G1 X86.534 Y130.638 E.02039
G1 X86.722 Y130.109 E.02042
G1 X86.98 Y129.611 E.0204
G1 X87.148 Y129.346 E.01141
G1 X87.406 Y129.04 F9000
G1 X97.082 Y127.336
;TYPE:Solid infill
;WIDTH:0.424254
G1 F944.054
G1 X95.745 Y125.998 E.06957
G1 X95.29 Y125.604 E.02214
G1 X94.87 Y125.287 E.01935
G1 X94.384 Y124.973 E.02128
G1 X93.936 Y124.729 E.01876
G1 X97.353 Y128.146 E.17774
G1 X97.684 Y128.873 E.02938
G1 X97.759 Y129.092 E.00851
G1 X92.996 Y124.329 E.24776
G1 X92.224 Y124.096 E.02966
G1 X97.989 Y129.861 E.29988
G1 X98.124 Y130.535 E.02528
G1 X91.557 Y123.968 E.34159
G1 X90.951 Y123.901 E.02243
G1 X98.191 Y131.141 E.3766
G1 X98.212 Y131.701 E.02061
G1 X90.394 Y123.884 E.40664
G1 X89.868 Y123.897 E.01935
G1 X98.192 Y132.221 E.43299
G1 X98.142 Y132.71 E.01808
G1 X89.375 Y123.943 E.45603
G1 X88.916 Y124.023 E.01714
G1 X92.37 Y127.477 E.17967
G1 X92.751 Y127.659 E.01553
G1 X93.395 Y128.115 E.02902
G1 X93.904 Y128.609 E.02609
G1 X94.31 Y129.147 E.02479
G1 X94.629 Y129.736 E.02464
G1 X98.066 Y133.173 E.17878
G1 X97.968 Y133.615 E.01665
G1 X94.932 Y130.578 E.15795
G1 X95.03 Y131.216 E.02374
G1 X97.843 Y134.029 E.14632
G1 X97.711 Y134.437 E.01577
G1 X95.05 Y131.776 E.13842
G1 X95.046 Y132.138 E.01332
G1 X95.021 Y132.286 E.00552
G1 X97.556 Y134.82 E.13184
G1 X97.385 Y135.189 E.01496
G1 X94.943 Y132.747 E.12702
G1 X94.819 Y133.163 E.01597
G1 X97.2 Y135.543 E.12383
G1 X96.995 Y135.878 E.01445
G1 X94.674 Y133.556 E.12076
G1 X94.491 Y133.913 E.01476
G1 X96.779 Y136.201 E.11901
G1 X96.553 Y136.514 E.0142
G1 X94.298 Y134.259 E.1173
G1 X94.066 Y134.566 E.01415
G1 X96.306 Y136.806 E.11652
G1 X96.05 Y137.09 E.01406
G1 X93.826 Y134.865 E.11571
G1 X93.547 Y135.126 E.01405
G1 X95.783 Y137.362 E.11631
G1 X95.497 Y137.615 E.01404
G1 X93.265 Y135.383 E.1161
G1 X92.944 Y135.601 E.01427
G1 X95.201 Y137.859 E.11743
G1 X94.893 Y138.089 E.01414
G1 X92.611 Y135.807 E.1187
G1 X92.245 Y135.981 E.01491
G1 X94.567 Y138.303 E.12078
G1 X94.231 Y138.506 E.01444
G1 X91.85 Y136.126 E.12383
G1 X91.435 Y136.249 E.01592
G1 X93.882 Y138.696 E.12728
G1 X93.511 Y138.865 E.01499
G1 X90.969 Y136.323 E.13223
G1 X90.476 Y136.37 E.01822
G1 X93.126 Y139.019 E.13782
G1 X92.807 Y139.136 E.0125
G1 X92.727 Y139.159 E.00306
G1 X89.907 Y136.339 E.14669
G1 X89.766 Y136.332 E.00519
G1 X89.252 Y136.224 E.01932
G1 X92.444 Y139.416 E.16604
G1 X91.773 Y127.42 F9000
G1 F944.054
G1 X88.474 Y124.121 E.1716
G1 X88.053 Y124.239 E.01608
G1 X90.878 Y127.064 E.14695
G1 X90.514 Y127.024 E.01347
G1 X90.308 Y127.033 E.00758
G1 X87.649 Y124.375 E.13829
G1 X87.267 Y124.531 E.01518
G1 X89.795 Y127.059 E.1315
G1 X89.346 Y127.15 E.01685
G1 X86.901 Y124.705 E.12718
G1 X86.547 Y124.89 E.01469
G1 X88.927 Y127.27 E.1238
G1 X88.532 Y127.414 E.01546
G1 X86.209 Y125.091 E.12083
G1 X85.888 Y125.309 E.01427
G1 X88.176 Y127.598 E.11904
G1 X87.831 Y127.792 E.01456
G1 X85.577 Y125.538 E.11725
G1 X85.28 Y125.78 E.01409
G1 X87.521 Y128.021 E.11657
G1 X87.224 Y128.263 E.01409
G1 X84.999 Y126.039 E.11571
G1 X84.809 Y126.219 E.00963
G1 X84.729 Y126.307 E.00437
G1 X86.96 Y128.539 E.11608
G1 X86.706 Y128.824 E.01404
G1 X84.471 Y126.59 E.11623
G1 X84.23 Y126.888 E.0141
G1 X86.49 Y129.148 E.11756
G1 X86.284 Y129.48 E.01437
G1 X83.999 Y127.196 E.11883
G1 X83.783 Y127.519 E.01429
G1 X86.11 Y129.846 E.12104
G1 X85.951 Y130.226 E.01515
G1 X83.586 Y127.862 E.12299
G1 X83.395 Y128.21 E.0146
G1 X85.842 Y130.657 E.12728
G1 X85.785 Y130.887 E.00872
G1 X85.764 Y131.118 E.00853
G1 X83.221 Y128.575 E.13228
G1 X83.069 Y128.962 E.01529
G1 X85.72 Y131.613 E.1379
G1 X85.712 Y131.698 E.00314
G1 X85.757 Y132.189 E.01814
G1 X82.931 Y129.364 E.14697
G1 X82.811 Y129.783 E.01603
G1 X86.1 Y133.072 E.17108
G1 X82.572 Y130.083 F9000
G1 F944.054
G1 X86.162 Y133.673 E.18674
G1 X86.222 Y133.816 E.0057
G1 X86.66 Y134.52 E.0305
G1 X87.154 Y135.076 E.02736
G1 X87.73 Y135.546 E.02734
G1 X88.432 Y135.943 E.02966
G1 X91.863 Y139.374 E.17847
G1 X91.398 Y139.448 E.01732
G1 X82.639 Y130.689 E.45561
G1 X82.592 Y131.181 E.01818
G1 X90.907 Y139.497 E.43254
G1 X90.386 Y139.515 E.01917
G1 X82.577 Y131.706 E.4062
G1 X82.595 Y132.264 E.02053
G1 X89.827 Y139.495 E.37616
G1 X89.219 Y139.426 E.02251
G1 X82.663 Y132.871 E.341
G1 X82.794 Y133.541 E.02511
G1 X88.546 Y139.293 E.2992
G1 X87.78 Y139.066 E.02939
G1 X83.024 Y134.31 E.24739
G1 X83.207 Y134.791 E.01893
G1 X83.426 Y135.251 E.01874
G1 X86.831 Y138.657 E.17714
G1 X86.151 Y138.27 E.02878
G1 X85.677 Y137.939 E.02126
G1 X85.229 Y137.574 E.02125
G1 X83.713 Y136.077 E.07836
; stop printing object 16_7.4mmRibConnector.STL id:0 copy 1
