; generated by PrusaSlicer 2.7.1+win64 on 2024-07-09 at 15:16:57 UTC

; 

; external perimeters extrusion width = 0.42mm
; perimeters extrusion width = 0.44mm
; infill extrusion width = 0.44mm
; solid infill extrusion width = 0.44mm
; top infill extrusion width = 0.40mm
; first layer extrusion width = 0.42mm

; external perimeters extrusion width = 0.42mm
; perimeters extrusion width = 0.44mm
; infill extrusion width = 0.44mm
; solid infill extrusion width = 0.44mm
; top infill extrusion width = 0.40mm
; first layer extrusion width = 0.42mm

M201 X500 Y500 Z100 E5000 ; sets maximum accelerations, mm/sec^2
M203 X500 Y500 Z10 E60 ; sets maximum feedrates, mm / sec
M204 S500 T1000 ; sets acceleration (S) and retract acceleration (R), mm/sec^2
M205 X8.00 Y8.00 Z0.40 E5.00 ; sets the jerk limits, mm/sec
M205 S0 T0 ; sets the minimum extruding and travel feed rate, mm/sec

; printing object 16_8mmConnector.STL id:0 copy 0
; stop printing object 16_8mmConnector.STL id:0 copy 0
; printing object 16_8mmConnector.STL id:0 copy 1
; stop printing object 16_8mmConnector.STL id:0 copy 1
; printing object 16_8.4mmConnector.STL id:1 copy 0
; stop printing object 16_8.4mmConnector.STL id:1 copy 0
; printing object 16_8.4mmConnector.STL id:1 copy 1
; stop printing object 16_8.4mmConnector.STL id:1 copy 1

;TYPE:Custom
G90 ; use absolute coordinates
M83 ; extruder relative mode
M104 S130 ; set temporary nozzle temp to prevent oozing during homing
M140 S30 ; set final bed temp
G4 S30 ; allow partial nozzle warmup
G28 ; home all axis and restore leveling
G1 Z50 F240
G1 X2.0 Y10 F3000
M104 S245 ; set final nozzle temp
M190 S30 ; wait for bed temp to stabilize
M109 S245 ; wait for nozzle temp to stabilize
G1 Z0.28 F240
G92 E0
G1 X2.0 Y140 E10 F1500 ; prime the nozzle
G1 X2.3 Y140 F5000
G92 E0
G1 X2.3 Y10 E10 F1200 ; prime the nozzle
G92 E0
G21 ; set units to millimeters
G90 ; use absolute coordinates
M83 ; use relative distances for extrusion
; Filament gcode
M107
;LAYER_CHANGE
;Z:0.2
;HEIGHT:0.2
;BEFORE_LAYER_CHANGE
G92 E0
;0.2


G1 Z.2 F9000
;AFTER_LAYER_CHANGE
;0.2
G1 X89.293 Y89.278
M204 S500
;TYPE:Skirt/Brim
;WIDTH:0.42
G1 F954.706
G1 X90.474 Y88.241 E.05716
G1 X91.215 Y87.712 E.03311
G1 X92.212 Y87.119 E.04219
G1 X93.644 Y86.471 E.05717
G1 X94.747 Y86.113 E.04218
G1 X96.286 Y85.796 E.05715
G1 X98.165 Y85.676 E.06848
G1 X122.353 Y85.681 E.87974
G1 X123.262 Y85.741 E.03313
G1 X124.749 Y85.988 E.05482
G1 X126.548 Y86.546 E.06851
G1 X128.186 Y87.341 E.06622
G1 X129.689 Y88.368 E.06621
G1 X131.192 Y89.79 E.07525
G1 X132.301 Y91.233 E.06619
G1 X132.772 Y92.013 E.03314
G1 X133.421 Y93.373 E.05481
G1 X133.994 Y95.168 E.06853
G1 X134.208 Y96.308 E.04219
G1 X134.326 Y98 E.06169
G1 X134.299 Y122.786 E.90149
G1 X134.171 Y123.939 E.04219
G1 X133.753 Y125.71 E.06618
G1 X133.078 Y127.401 E.06622
G1 X132.301 Y128.767 E.05716
G1 X131.619 Y129.705 E.04218
G1 X130.56 Y130.866 E.05715
G1 X129.688 Y131.632 E.04221
G1 X128.4 Y132.532 E.05715
G1 X126.779 Y133.36 E.0662
G1 X125.69 Y133.759 E.04218
G1 X124.164 Y134.133 E.05714
G1 X123.013 Y134.282 E.04221
G1 X97.192 Y134.297 E.93914
G1 X95.634 Y134.095 E.05714
G1 X93.878 Y133.614 E.06622
G1 X92.27 Y132.909 E.06386
G1 X91.215 Y132.288 E.04453
G1 X89.961 Y131.341 E.05715
G1 X89.118 Y130.544 E.04219
G1 X88.103 Y129.344 E.05716
G1 X87.456 Y128.381 E.0422
G1 X86.73 Y126.988 E.05713
G1 X86.311 Y125.906 E.0422
G1 X85.909 Y124.387 E.05715
G1 X85.738 Y123.24 E.04218
G1 X85.68 Y122.331 E.03313
G1 X85.689 Y97.42 E.90604
G1 X85.863 Y95.858 E.05716
G1 X86.311 Y94.094 E.0662
G1 X86.73 Y93.012 E.0422
G1 X87.588 Y91.406 E.06623
G1 X88.511 Y90.135 E.05713
G1 X89.253 Y89.322 E.04003
; printing object 16_8.4mmConnector.STL id:1 copy 0
G1 X113.523 Y97.613 F9000
;TYPE:External perimeter
;WIDTH:0.419999
G1 F954.707
G1 X113.591 Y96.88 E.02677
G1 X113.672 Y96.368 E.01885
G1 X113.816 Y95.758 E.0228
G1 X114.003 Y95.159 E.02282
G1 X114.235 Y94.576 E.02282
G1 X114.525 Y93.984 E.02398
G1 X114.824 Y93.47 E.02163
G1 X115.22 Y92.899 E.02527
G1 X115.57 Y92.462 E.02036
G1 X116.071 Y91.932 E.02653
G1 X116.456 Y91.575 E.0191
G1 X117.033 Y91.122 E.02668
G1 X117.462 Y90.829 E.0189
G1 X118.08 Y90.476 E.02589
G1 X118.568 Y90.238 E.01975
G1 X119.253 Y89.973 E.02671
G1 X119.749 Y89.817 E.01891
G1 X120.465 Y89.658 E.02668
G1 X120.985 Y89.574 E.01916
G1 X121.604 Y89.523 E.02259
G1 X122.231 Y89.516 E.02281
G1 X122.857 Y89.557 E.02282
G1 X123.478 Y89.643 E.0228
G1 X124.105 Y89.779 E.02333
G1 X124.693 Y89.952 E.02229
G1 X125.325 Y90.193 E.0246
G1 X125.849 Y90.436 E.02101
G1 X126.469 Y90.787 E.02591
G1 X126.921 Y91.086 E.01971
G1 X127.498 Y91.542 E.02675
G1 X127.89 Y91.89 E.01907
G1 X128.322 Y92.337 E.02261
G1 X128.728 Y92.826 E.02312
G1 X129.087 Y93.33 E.02251
G1 X129.432 Y93.905 E.02439
G1 X129.697 Y94.425 E.02123
G1 X129.966 Y95.077 E.02565
G1 X130.14 Y95.598 E.01998
G1 X130.316 Y96.317 E.02692
G1 X130.405 Y96.823 E.01869
G1 X130.471 Y97.513 E.02521
G1 X130.487 Y98.074 E.02041
G1 X130.448 Y98.794 E.02623
G1 X130.383 Y99.323 E.01938
G1 X130.233 Y100.05 E.027
G1 X130.097 Y100.543 E.0186
G1 X129.887 Y101.134 E.02281
G1 X129.634 Y101.708 E.02281
G1 X129.339 Y102.262 E.02283
G1 X129.005 Y102.792 E.02279
G1 X128.632 Y103.296 E.02281
G1 X128.222 Y103.771 E.02282
G1 X127.759 Y104.233 E.02379
G1 X127.304 Y104.625 E.02184
G1 X126.766 Y105.021 E.0243
G1 X126.271 Y105.334 E.0213
G1 X125.638 Y105.665 E.02598
G1 X125.144 Y105.883 E.01964
G1 X124.553 Y106.094 E.02282
G1 X123.948 Y106.26 E.02282
G1 X123.333 Y106.381 E.0228
G1 X122.69 Y106.458 E.02355
G1 X122.084 Y106.486 E.02206
G1 X121.402 Y106.464 E.02482
G1 X120.833 Y106.406 E.0208
G1 X120.157 Y106.282 E.025
G1 X119.369 Y106.063 E.02975
G1 X118.896 Y105.895 E.01826
G1 X118.434 Y105.701 E.01822
G1 X117.809 Y105.377 E.0256
G1 X117.339 Y105.091 E.02001
G1 X116.75 Y104.665 E.02644
G1 X116.345 Y104.327 E.01919
G1 X115.81 Y103.801 E.02729
G1 X115.475 Y103.425 E.01832
G1 X115.092 Y102.928 E.02282
G1 X114.747 Y102.405 E.02279
G1 X114.441 Y101.857 E.02283
G1 X114.177 Y101.288 E.02281
G1 X113.964 Y100.718 E.02213
G1 X113.776 Y100.094 E.0237
G1 X113.64 Y99.449 E.02398
G1 X113.558 Y98.866 E.02141
G1 X113.517 Y98.167 E.02547
G1 X113.522 Y97.673 E.01797
G1 X117.664 Y96.793 F9000
G1 F954.707
G1 X117.886 Y96.177 E.02382
G1 X118.304 Y95.417 E.03155
G1 X118.741 Y94.883 E.0251
G1 X119.24 Y94.436 E.02437
G1 X119.833 Y94.045 E.02583
G1 X120.463 Y93.76 E.02515
G1 X121.128 Y93.575 E.02511
G1 X121.793 Y93.496 E.02436
G1 X122.502 Y93.518 E.0258
G1 X123.167 Y93.645 E.02462
G1 X123.785 Y93.862 E.02382
G1 X124.365 Y94.166 E.02382
G1 X124.857 Y94.522 E.02209
G1 X125.363 Y95.008 E.02552
G1 X125.76 Y95.527 E.02377
G1 X126.078 Y96.099 E.0238
G1 X126.31 Y96.71 E.02377
G1 X126.451 Y97.348 E.02376
G1 X126.498 Y98 E.02378
G1 X126.451 Y98.652 E.02378
G1 X126.31 Y99.29 E.02376
G1 X126.078 Y99.901 E.02377
G1 X125.76 Y100.473 E.0238
G1 X125.471 Y100.88 E.01816
G1 X125.012 Y101.357 E.02408
G1 X124.513 Y101.74 E.02288
G1 X123.935 Y102.067 E.02415
G1 X123.334 Y102.3 E.02344
G1 X122.696 Y102.446 E.0238
G1 X122.044 Y102.499 E.02379
G1 X121.392 Y102.457 E.02376
G1 X120.79 Y102.33 E.02238
G1 X120.463 Y102.239 E.01235
G1 X119.859 Y101.969 E.02406
G1 X119.278 Y101.595 E.02513
G1 X118.761 Y101.138 E.0251
G1 X118.32 Y100.606 E.02513
G1 X117.976 Y100.032 E.02434
G1 X117.721 Y99.413 E.02435
G1 X117.554 Y98.74 E.02522
G1 X117.496 Y98.087 E.02384
G1 X117.533 Y97.434 E.02379
G1 X117.652 Y96.851 E.02164
G1 X128.989 Y93.401 F9000
;TYPE:Solid infill
;WIDTH:0.424069
G1 F944.512
G1 X127.614 Y92.026 E.07149
G1 X127.137 Y91.613 E.0232
G1 X126.696 Y91.279 E.02034
G1 X126.187 Y90.951 E.02226
G1 X125.775 Y90.726 E.01726
G1 X129.27 Y94.221 E.18171
G1 X129.406 Y94.482 E.01082
G1 X129.697 Y95.187 E.02804
G1 X124.815 Y90.306 E.2538
G1 X124.534 Y90.203 E.011
G1 X124.03 Y90.059 E.01927
G1 X129.937 Y95.967 E.30714
G1 X130.083 Y96.652 E.02575
G1 X123.344 Y89.913 E.35037
G1 X122.727 Y89.835 E.02286
G1 X130.163 Y97.27 E.38658
G1 X130.193 Y97.84 E.02098
G1 X122.161 Y89.807 E.41762
G1 X121.628 Y89.813 E.0196
G1 X130.185 Y98.371 E.44492
G1 X130.147 Y98.872 E.01847
G1 X121.128 Y89.853 E.46891
G1 X120.656 Y89.92 E.01753
G1 X130.083 Y99.347 E.49012
G1 X129.999 Y99.801 E.01697
G1 X126.476 Y96.279 E.18314
G1 X126.667 Y96.878 E.02311
G1 X126.692 Y97.034 E.00581
G1 X129.886 Y100.228 E.16606
G1 X129.757 Y100.638 E.0158
G1 X126.787 Y97.668 E.15441
G1 X126.785 Y98.204 E.01971
G1 X129.614 Y101.034 E.14711
G1 X129.452 Y101.411 E.01509
G1 X126.738 Y98.696 E.14113
G1 X126.656 Y99.153 E.01707
G1 X129.274 Y101.771 E.13611
G1 X129.085 Y102.121 E.01462
G1 X126.527 Y99.564 E.13297
G1 X126.463 Y99.767 E.00783
G1 X126.374 Y99.95 E.00748
G1 X128.879 Y102.454 E.13021
G1 X128.659 Y102.774 E.01428
G1 X126.196 Y100.311 E.12805
G1 X126.124 Y100.459 E.00605
G1 X125.992 Y100.646 E.00841
G1 X128.43 Y103.084 E.12676
G1 X128.183 Y103.376 E.01406
G1 X125.769 Y100.962 E.12551
G1 X125.701 Y101.058 E.00432
G1 X125.516 Y101.248 E.00975
G1 X127.926 Y103.658 E.1253
G1 X127.659 Y103.93 E.01401
G1 X125.251 Y101.522 E.1252
G1 X124.957 Y101.766 E.01405
G1 X127.374 Y104.184 E.12569
G1 X127.081 Y104.43 E.01406
G1 X124.65 Y101.999 E.12639
G1 X124.306 Y102.194 E.01454
G1 X126.774 Y104.662 E.12831
G1 X126.451 Y104.878 E.01429
G1 X123.954 Y102.381 E.12982
G1 X123.559 Y102.525 E.01546
G1 X126.119 Y105.086 E.13312
G1 X125.771 Y105.276 E.01458
G1 X123.148 Y102.653 E.13637
G1 X122.695 Y102.739 E.01695
G1 X125.407 Y105.451 E.141
G1 X125.032 Y105.615 E.01505
G1 X122.199 Y102.782 E.14729
G1 X121.787 Y102.795 E.01515
G1 X121.658 Y102.78 E.00477
G1 X124.637 Y105.759 E.15488
G1 X124.534 Y105.797 E.00404
G1 X124.224 Y105.885 E.01185
G1 X121.034 Y102.695 E.16585
G1 X120.408 Y102.528 E.02382
G1 X120.264 Y102.464 E.00579
G1 X123.938 Y106.139 E.19104
G1 X124.062 Y93.865 F9000
G1 F944.512
G1 X120.203 Y90.005 E.20066
G1 X119.77 Y90.111 E.01639
G1 X122.972 Y93.314 E.1665
G1 X122.556 Y93.231 E.0156
G1 X122.343 Y93.224 E.00783
G1 X119.362 Y90.243 E.15499
G1 X118.969 Y90.388 E.0154
G1 X121.786 Y93.206 E.14649
G1 X121.302 Y93.261 E.01791
G1 X118.588 Y90.547 E.1411
G1 X118.228 Y90.726 E.01478
G1 X120.853 Y93.351 E.13648
G1 X120.429 Y93.466 E.01615
G1 X117.881 Y90.918 E.13247
G1 X117.544 Y91.119 E.01443
G1 X120.053 Y93.629 E.13047
G1 X119.683 Y93.798 E.01495
G1 X117.226 Y91.341 E.12774
G1 X117.06 Y91.457 E.00745
G1 X116.919 Y91.573 E.00671
G1 X119.358 Y94.012 E.12681
G1 X119.036 Y94.229 E.01428
G1 X116.622 Y91.815 E.12551
G1 X116.59 Y91.84 E.00149
G1 X116.343 Y92.074 E.01251
G1 X118.752 Y94.483 E.12525
G1 X118.477 Y94.748 E.01404
G1 X116.072 Y92.343 E.12504
G1 X115.815 Y92.625 E.01403
G1 X118.233 Y95.043 E.12572
G1 X118.091 Y95.215 E.0082
G1 X118.007 Y95.356 E.00603
G1 X115.572 Y92.921 E.1266
G1 X115.338 Y93.226 E.01413
G1 X117.805 Y95.693 E.12826
G1 X117.695 Y95.875 E.00782
G1 X117.625 Y96.052 E.007
G1 X115.121 Y93.548 E.13019
G1 X114.917 Y93.883 E.01442
G1 X117.472 Y96.438 E.13284
G1 X117.415 Y96.58 E.00563
G1 X117.351 Y96.856 E.01042
G1 X114.722 Y94.227 E.13669
G1 X114.549 Y94.593 E.01488
G1 X117.253 Y97.297 E.14058
G1 X117.214 Y97.797 E.01844
G1 X114.388 Y94.971 E.14693
G1 X114.24 Y95.362 E.01537
G1 X117.225 Y98.347 E.15519
G1 X117.252 Y98.704 E.01316
G1 X117.315 Y98.976 E.01026
G1 X114.114 Y95.775 E.16642
G1 X114.009 Y96.209 E.01642
G1 X117.859 Y100.059 E.20017
G1 X113.771 Y96.511 F9000
G1 F944.512
G1 X123.347 Y106.087 E.49787
G1 X122.87 Y106.149 E.01768
G1 X113.85 Y97.128 E.46899
G1 X113.813 Y97.63 E.01851
G1 X122.368 Y106.185 E.44479
G1 X121.835 Y106.191 E.0196
G1 X113.808 Y98.164 E.41734
G1 X113.84 Y98.735 E.02102
G1 X121.264 Y106.16 E.38601
G1 X120.645 Y106.08 E.02295
G1 X113.919 Y99.353 E.34972
G1 X114.061 Y100.034 E.02557
G1 X119.962 Y105.936 E.30683
G1 X119.188 Y105.7 E.02975
G1 X114.307 Y100.819 E.25377
G1 X114.47 Y101.242 E.01667
G1 X114.724 Y101.775 E.02171
G1 X118.216 Y105.268 E.18158
G1 X117.557 Y104.889 E.02795
G1 X117.114 Y104.58 E.01986
G1 X116.59 Y104.159 E.02471
G1 X115.031 Y102.621 E.08051
; stop printing object 16_8.4mmConnector.STL id:1 copy 0
; printing object 16_8.4mmConnector.STL id:1 copy 1
G1 X119.749 Y113.818 F9000
;TYPE:External perimeter
;WIDTH:0.419999
G1 F954.707
G1 X120.465 Y113.659 E.02668
G1 X120.985 Y113.575 E.01916
G1 X121.604 Y113.523 E.02259
G1 X122.231 Y113.517 E.02281
G1 X122.857 Y113.557 E.02281
G1 X123.478 Y113.643 E.0228
G1 X124.105 Y113.779 E.02333
G1 X124.693 Y113.952 E.02229
G1 X125.325 Y114.193 E.0246
G1 X125.849 Y114.436 E.02101
G1 X126.469 Y114.787 E.02591
G1 X126.921 Y115.086 E.01971
G1 X127.498 Y115.542 E.02675
G1 X127.89 Y115.891 E.01909
G1 X128.322 Y116.337 E.02258
G1 X128.728 Y116.827 E.02314
G1 X129.087 Y117.33 E.02248
G1 X129.432 Y117.905 E.02439
G1 X129.697 Y118.425 E.02123
G1 X129.966 Y119.078 E.02569
G1 X130.14 Y119.598 E.01994
G1 X130.316 Y120.317 E.02692
G1 X130.405 Y120.823 E.01869
G1 X130.471 Y121.513 E.02521
G1 X130.487 Y122.074 E.02041
G1 X130.448 Y122.794 E.02623
G1 X130.383 Y123.323 E.01938
G1 X130.233 Y124.05 E.027
G1 X130.097 Y124.543 E.0186
G1 X129.887 Y125.134 E.02281
G1 X129.634 Y125.708 E.02281
G1 X129.339 Y126.262 E.02283
G1 X129.005 Y126.792 E.02279
G1 X128.632 Y127.296 E.02281
G1 X128.222 Y127.772 E.02285
G1 X127.759 Y128.233 E.02376
G1 X127.304 Y128.625 E.02184
G1 X126.766 Y129.021 E.0243
G1 X126.271 Y129.334 E.0213
G1 X125.638 Y129.665 E.02598
G1 X125.144 Y129.883 E.01964
G1 X124.553 Y130.094 E.02282
G1 X123.948 Y130.26 E.02282
G1 X123.333 Y130.381 E.0228
G1 X122.69 Y130.458 E.02355
G1 X122.084 Y130.486 E.02206
G1 X121.402 Y130.464 E.02482
G1 X120.833 Y130.406 E.0208
G1 X120.157 Y130.282 E.025
G1 X119.369 Y130.063 E.02975
G1 X118.896 Y129.896 E.01824
G1 X118.434 Y129.701 E.01824
G1 X117.809 Y129.377 E.0256
G1 X117.339 Y129.092 E.01999
G1 X116.75 Y128.665 E.02646
G1 X116.345 Y128.327 E.01919
G1 X115.81 Y127.802 E.02726
G1 X115.475 Y127.425 E.01834
G1 X115.092 Y126.929 E.02279
G1 X114.747 Y126.405 E.02282
G1 X114.441 Y125.857 E.02283
G1 X114.177 Y125.288 E.02281
G1 X113.964 Y124.718 E.02213
G1 X113.776 Y124.094 E.0237
G1 X113.64 Y123.449 E.02398
G1 X113.558 Y122.866 E.02141
G1 X113.517 Y122.167 E.02547
G1 X113.523 Y121.613 E.02015
G1 X113.591 Y120.881 E.02674
G1 X113.672 Y120.368 E.01889
G1 X113.816 Y119.758 E.0228
G1 X114.003 Y119.159 E.02282
G1 X114.235 Y118.577 E.02279
G1 X114.525 Y117.985 E.02398
G1 X114.824 Y117.47 E.02166
G1 X115.22 Y116.9 E.02524
G1 X115.57 Y116.462 E.02039
G1 X116.071 Y115.932 E.02653
G1 X116.456 Y115.575 E.0191
G1 X117.033 Y115.122 E.02668
G1 X117.462 Y114.829 E.0189
G1 X118.08 Y114.476 E.02589
G1 X118.568 Y114.239 E.01973
G1 X119.253 Y113.973 E.02673
G1 X119.692 Y113.836 E.01673
G1 X120.463 Y117.761 F9000
G1 F954.707
G1 X121.128 Y117.576 E.02511
G1 X121.793 Y117.497 E.02436
G1 X122.502 Y117.518 E.0258
G1 X123.167 Y117.645 E.02462
G1 X123.785 Y117.862 E.02382
G1 X124.365 Y118.166 E.02382
G1 X124.857 Y118.522 E.02209
G1 X125.363 Y119.008 E.02552
G1 X125.76 Y119.527 E.02377
G1 X126.078 Y120.099 E.0238
G1 X126.31 Y120.71 E.02377
G1 X126.451 Y121.348 E.02376
G1 X126.498 Y122 E.02378
G1 X126.451 Y122.652 E.02378
G1 X126.31 Y123.29 E.02376
G1 X126.078 Y123.901 E.02377
G1 X125.76 Y124.473 E.0238
G1 X125.471 Y124.881 E.01818
G1 X125.012 Y125.357 E.02405
G1 X124.513 Y125.74 E.02288
G1 X123.935 Y126.067 E.02415
G1 X123.334 Y126.3 E.02344
G1 X122.696 Y126.447 E.02381
G1 X122.044 Y126.499 E.02379
G1 X121.392 Y126.457 E.02376
G1 X120.79 Y126.33 E.02238
G1 X120.463 Y126.24 E.01234
G1 X119.859 Y125.969 E.02408
G1 X119.278 Y125.595 E.02513
G1 X118.761 Y125.138 E.0251
G1 X118.32 Y124.607 E.0251
G1 X117.976 Y124.032 E.02437
G1 X117.721 Y123.413 E.02435
G1 X117.554 Y122.74 E.02522
G1 X117.496 Y122.088 E.02381
G1 X117.533 Y121.434 E.02382
G1 X117.664 Y120.793 E.0238
G1 X117.886 Y120.178 E.02378
G1 X118.304 Y119.417 E.03158
G1 X118.741 Y118.883 E.0251
G1 X119.24 Y118.436 E.02437
G1 X119.833 Y118.046 E.02581
G1 X120.408 Y117.785 E.02297
G1 X128.989 Y117.402 F9000
;TYPE:Solid infill
;WIDTH:0.424069
G1 F944.512
G1 X127.614 Y116.027 E.07149
G1 X127.137 Y115.613 E.02322
G1 X126.696 Y115.28 E.02032
G1 X126.187 Y114.951 E.02228
G1 X125.775 Y114.727 E.01724
