; generated by PrusaSlicer 2.7.1+win64 on 2024-07-09 at 14:52:15 UTC

; 

; external perimeters extrusion width = 0.42mm
; perimeters extrusion width = 0.44mm
; infill extrusion width = 0.44mm
; solid infill extrusion width = 0.44mm
; top infill extrusion width = 0.40mm
; first layer extrusion width = 0.42mm

M201 X500 Y500 Z100 E5000 ; sets maximum accelerations, mm/sec^2
M203 X500 Y500 Z10 E60 ; sets maximum feedrates, mm / sec
M204 S500 T1000 ; sets acceleration (S) and retract acceleration (R), mm/sec^2
M205 X8.00 Y8.00 Z0.40 E5.00 ; sets the jerk limits, mm/sec
M205 S0 T0 ; sets the minimum extruding and travel feed rate, mm/sec

; printing object 16_8mmConnector.STL id:0 copy 0
; stop printing object 16_8mmConnector.STL id:0 copy 0

;TYPE:Custom
G90 ; use absolute coordinates
M83 ; extruder relative mode
M104 S130 ; set temporary nozzle temp to prevent oozing during homing
M140 S30 ; set final bed temp
G4 S30 ; allow partial nozzle warmup
G28 ; home all axis and restore leveling
G1 Z50 F240
G1 X2.0 Y10 F3000
M104 S245 ; set final nozzle temp
M190 S30 ; wait for bed temp to stabilize
M109 S245 ; wait for nozzle temp to stabilize
G1 Z0.28 F240
G92 E0
G1 X2.0 Y140 E10 F1500 ; prime the nozzle
G1 X2.3 Y140 F5000
G92 E0
G1 X2.3 Y10 E10 F1200 ; prime the nozzle
G92 E0
G21 ; set units to millimeters
G90 ; use absolute coordinates
M83 ; use relative distances for extrusion
; Filament gcode
M107
;LAYER_CHANGE
;Z:0.2
;HEIGHT:0.2
;BEFORE_LAYER_CHANGE
G92 E0
;0.2


G1 Z.2 F9000
;AFTER_LAYER_CHANGE
;0.2
G1 X100.84 Y101.202
M204 S500
;TYPE:Skirt/Brim
;WIDTH:0.42
G1 F954.706
G1 X102.457 Y99.782 E.07827
G1 X103.746 Y98.947 E.05586
G1 X105.762 Y98.027 E.0806
G1 X106.658 Y97.747 E.03414
G1 X108.224 Y97.424 E.05816
G1 X110.373 Y97.305 E.07828
G1 X111.31 Y97.367 E.03415
G1 X112.887 Y97.632 E.05816
G1 X114.934 Y98.297 E.07828
G1 X116.31 Y98.979 E.05586
G1 X118.13 Y100.243 E.08059
G1 X119.292 Y101.342 E.05817
G1 X120.621 Y103.035 E.07828
G1 X121.412 Y104.425 E.05817
G1 X121.893 Y105.542 E.04423
G1 X122.189 Y106.432 E.03411
G1 X122.541 Y107.992 E.05817
G1 X122.676 Y109.2 E.04421
G1 X122.678 Y110.736 E.05587
G1 X122.358 Y112.929 E.08061
G1 X122.108 Y113.833 E.03411
G1 X121.531 Y115.325 E.05818
G1 X120.466 Y117.195 E.07827
G1 X119.479 Y118.453 E.05816
G1 X118.627 Y119.321 E.04424
G1 X117.387 Y120.331 E.05817
G1 X116.604 Y120.849 E.03415
G1 X115.537 Y121.43 E.04419
G1 X114.056 Y122.036 E.0582
G1 X111.966 Y122.548 E.07826
G1 X110.437 Y122.692 E.05586
G1 X108.224 Y122.576 E.0806
G1 X106.658 Y122.253 E.05816
G1 X104.637 Y121.513 E.07828
G1 X103.801 Y121.085 E.03416
G1 X102.457 Y120.218 E.05817
G1 X101.515 Y119.45 E.04421
G1 X100.438 Y118.356 E.05584
G1 X99.129 Y116.568 E.0806
G1 X98.39 Y115.15 E.05816
G1 X98.041 Y114.278 E.03416
G1 X97.491 Y112.197 E.07829
G1 X97.314 Y110.608 E.05815
G1 X97.393 Y108.457 E.07829
G1 X97.687 Y106.885 E.05817
G1 X98.041 Y105.722 E.04422
G1 X98.674 Y104.253 E.05818
G1 X99.807 Y102.423 E.07828
G1 X100.801 Y101.248 E.05598
G1 X101.089 Y101.491 F9000
G1 F954.706
G1 X101.119 Y101.456 E.00168
G1 X102.673 Y100.091 E.07523
G1 X103.939 Y99.272 E.05484
G1 X105.879 Y98.386 E.07757
G1 X106.748 Y98.113 E.03313
G1 X108.287 Y97.796 E.05715
G1 X110.352 Y97.681 E.07522
G1 X111.261 Y97.741 E.03313
G1 X112.811 Y98.001 E.05716
G1 X114.779 Y98.64 E.07526
G1 X116.129 Y99.31 E.05482
G1 X117.881 Y100.526 E.07757
G1 X119.023 Y101.606 E.05717
G1 X120.3 Y103.234 E.07525
G1 X121.077 Y104.599 E.05713
G1 X121.536 Y105.665 E.04221
G1 X121.825 Y106.529 E.03314
G1 X122.17 Y108.061 E.05712
G1 X122.299 Y109.214 E.0422
G1 X122.301 Y110.722 E.05485
G1 X121.994 Y112.832 E.07755
G1 X121.752 Y113.71 E.03312
G1 X121.184 Y115.175 E.05715
G1 X120.161 Y116.974 E.07527
G1 X119.191 Y118.21 E.05715
G1 X118.378 Y119.038 E.04221
G1 X117.16 Y120.03 E.05713
G1 X116.4 Y120.532 E.03313
G1 X115.381 Y121.087 E.0422
G1 X113.927 Y121.681 E.05713
G1 X111.917 Y122.174 E.07527
G1 X110.416 Y122.315 E.05483
G1 X108.287 Y122.204 E.07754
G1 X106.748 Y121.887 E.05715
G1 X104.805 Y121.175 E.07526
G1 X103.994 Y120.761 E.03312
G1 X102.673 Y119.909 E.05717
G1 X101.774 Y119.176 E.04219
G1 X100.716 Y118.102 E.05483
G1 X99.457 Y116.381 E.07756
G1 X98.731 Y114.988 E.05713
G1 X98.393 Y114.142 E.03313
G1 X97.864 Y112.142 E.07524
G1 X97.69 Y110.58 E.05716
G1 X97.766 Y108.512 E.07527
G1 X98.055 Y106.968 E.05713
G1 X98.393 Y105.858 E.0422
G1 X99.014 Y104.415 E.05714
G1 X100.104 Y102.656 E.07526
G1 X101.05 Y101.537 E.05329
; printing object 16_8mmConnector.STL id:0 copy 0
G1 X103.993 Y104.005 F9000
;TYPE:External perimeter
;WIDTH:0.419999
G1 F954.707
G1 X104.452 Y103.578 E.0228
G1 X104.942 Y103.186 E.02282
G1 X105.459 Y102.831 E.02281
G1 X106.001 Y102.515 E.02282
G1 X106.564 Y102.24 E.02279
G1 X107.147 Y102.007 E.02283
G1 X107.745 Y101.818 E.02281
G1 X108.361 Y101.677 E.02298
G1 X108.981 Y101.575 E.02285
G1 X109.627 Y101.522 E.02357
G1 X110.227 Y101.516 E.02182
G1 X110.892 Y101.561 E.02424
G1 X111.474 Y101.642 E.02137
G1 X112.136 Y101.788 E.02466
G1 X112.689 Y101.951 E.02097
G1 X113.333 Y102.197 E.02507
G1 X113.845 Y102.435 E.02054
G1 X114.456 Y102.779 E.0255
G1 X114.918 Y103.083 E.02011
G1 X115.469 Y103.517 E.02551
G1 X115.887 Y103.888 E.02033
G1 X116.362 Y104.386 E.02503
G1 X116.72 Y104.817 E.02038
G1 X117.141 Y105.419 E.02672
G1 X117.41 Y105.863 E.01888
G1 X117.743 Y106.532 E.02718
G1 X117.939 Y107 E.01845
G1 X118.154 Y107.653 E.025
G1 X118.294 Y108.202 E.02061
G1 X118.412 Y108.887 E.02528
G1 X118.468 Y109.443 E.02032
G1 X118.486 Y110.07 E.02281
G1 X118.458 Y110.697 E.02283
G1 X118.368 Y111.402 E.02585
G1 X118.263 Y111.935 E.01976
G1 X118.068 Y112.627 E.02615
G1 X117.888 Y113.131 E.01946
G1 X117.589 Y113.794 E.02645
G1 X117.341 Y114.259 E.01917
G1 X116.943 Y114.877 E.02674
G1 X116.633 Y115.294 E.0189
G1 X116.143 Y115.852 E.02701
G1 X115.781 Y116.213 E.01859
G1 X115.208 Y116.698 E.0273
G1 X114.803 Y116.997 E.01831
G1 X114.273 Y117.332 E.0228
G1 X113.72 Y117.628 E.02281
G1 X113.147 Y117.882 E.0228
G1 X112.556 Y118.093 E.02282
G1 X111.951 Y118.259 E.02282
G1 X111.336 Y118.381 E.0228
G1 X110.713 Y118.457 E.02283
G1 X110.087 Y118.486 E.02279
G1 X109.46 Y118.469 E.02281
G1 X108.836 Y118.406 E.02281
G1 X108.218 Y118.298 E.02282
G1 X107.667 Y118.158 E.02068
G1 X107.01 Y117.942 E.02515
G1 X106.437 Y117.702 E.02259
G1 X105.872 Y117.415 E.02305
G1 X105.341 Y117.094 E.02257
G1 X104.815 Y116.718 E.02352
G1 X104.347 Y116.33 E.02211
G1 X103.889 Y115.888 E.02315
G1 X103.476 Y115.428 E.02248
G1 X103.075 Y114.904 E.024
G1 X102.748 Y114.408 E.02161
G1 X102.419 Y113.812 E.02476
G1 X102.178 Y113.292 E.02085
G1 X101.943 Y112.652 E.0248
G1 X101.777 Y112.098 E.02103
G1 X101.634 Y111.415 E.02538
G1 X101.558 Y110.87 E.02001
G1 X101.517 Y110.155 E.02605
G1 X101.522 Y109.617 E.01957
G1 X101.588 Y108.893 E.02644
G1 X101.671 Y108.372 E.01919
G1 X101.846 Y107.654 E.02688
G1 X102.002 Y107.163 E.01874
G1 X102.286 Y106.468 E.02731
G1 X102.507 Y106.016 E.0183
G1 X102.822 Y105.473 E.02283
G1 X103.175 Y104.955 E.0228
G1 X103.567 Y104.465 E.02282
G1 X103.952 Y104.049 E.02062
G1 X106.033 Y107.475 F9000
G1 F954.707
G1 X106.557 Y106.786 E.03148
G1 X107.052 Y106.327 E.02455
G1 X107.493 Y106.024 E.01946
G1 X108.103 Y105.7 E.02512
G1 X108.762 Y105.467 E.02542
G1 X109.438 Y105.334 E.02506
G1 X110.122 Y105.302 E.0249
G1 X110.809 Y105.371 E.02511
G1 X111.479 Y105.54 E.02513
G1 X112.117 Y105.805 E.02513
G1 X112.709 Y106.161 E.02512
G1 X113.246 Y106.604 E.02532
G1 X113.71 Y107.119 E.02521
G1 X113.899 Y107.358 E.01108
G1 X114.237 Y107.944 E.0246
G1 X114.496 Y108.598 E.02558
G1 X114.655 Y109.284 E.02561
G1 X114.71 Y109.986 E.02561
G1 X114.659 Y110.688 E.0256
G1 X114.505 Y111.375 E.02561
G1 X114.25 Y112.031 E.0256
G1 X113.899 Y112.641 E.0256
G1 X113.462 Y113.193 E.02561
G1 X112.948 Y113.673 E.02558
G1 X112.367 Y114.072 E.02563
G1 X111.734 Y114.379 E.02559
G1 X111.062 Y114.589 E.02561
G1 X110.366 Y114.696 E.02561
G1 X109.662 Y114.698 E.02561
G1 X108.966 Y114.595 E.02559
G1 X108.292 Y114.389 E.02563
G1 X107.664 Y114.089 E.02531
G1 X107.09 Y113.702 E.02518
G1 X106.579 Y113.234 E.0252
G1 X106.138 Y112.691 E.02544
G1 X105.79 Y112.103 E.02485
G1 X105.545 Y111.507 E.02344
G1 X105.362 Y110.791 E.02688
G1 X105.297 Y110.102 E.02517
G1 X105.333 Y109.412 E.02513
G1 X105.47 Y108.734 E.02516
G1 X105.705 Y108.084 E.02514
G1 X106.005 Y107.528 E.02298
G1 X116.988 Y105.401 F9000
;TYPE:Solid infill
;WIDTH:0.424069
G1 F944.512
G1 X115.614 Y104.027 E.07144
G1 X115.137 Y103.613 E.02322
G1 X114.696 Y103.279 E.02034
G1 X114.186 Y102.951 E.02229
G1 X113.775 Y102.727 E.01721
G1 X117.269 Y106.222 E.18168
G1 X117.405 Y106.482 E.01079
G1 X117.696 Y107.187 E.02804
G1 X112.815 Y102.306 E.25377
G1 X112.533 Y102.203 E.01104
G1 X112.029 Y102.059 E.01927
G1 X117.937 Y107.967 E.30717
G1 X118.083 Y108.652 E.02575
G1 X111.344 Y101.913 E.35037
G1 X110.727 Y101.835 E.02286
G1 X118.162 Y109.27 E.38656
G1 X118.192 Y109.84 E.02098
G1 X110.16 Y101.807 E.41762
G1 X109.627 Y101.813 E.0196
G1 X118.185 Y110.371 E.44494
G1 X118.146 Y110.872 E.01847
G1 X109.128 Y101.853 E.46888
G1 X108.656 Y101.92 E.01753
G1 X112.321 Y105.585 E.19055
G1 X112.525 Y105.684 E.00834
G1 X113.121 Y106.093 E.02657
G1 X113.631 Y106.564 E.02552
G1 X114.137 Y107.19 E.02959
G1 X114.417 Y107.682 E.02081
G1 X118.083 Y111.347 E.19057
G1 X117.998 Y111.801 E.01698
G1 X114.796 Y108.599 E.16648
G1 X114.945 Y109.287 E.02588
G1 X117.884 Y112.226 E.1528
G1 X117.752 Y112.633 E.01573
G1 X114.992 Y109.873 E.1435
G1 X114.97 Y110.391 E.01906
G1 X117.614 Y113.034 E.13744
G1 X117.451 Y113.411 E.0151
G1 X114.915 Y110.874 E.13188
G1 X114.813 Y111.312 E.01653
G1 X117.273 Y113.772 E.1279
G1 X117.084 Y114.122 E.01462
G1 X114.683 Y111.72 E.12486
G1 X114.531 Y112.107 E.01529
G1 X116.878 Y114.455 E.12205
G1 X116.658 Y114.774 E.01425
G1 X114.341 Y112.456 E.12049
G1 X114.143 Y112.798 E.01453
G1 X116.43 Y115.084 E.11888
G1 X116.183 Y115.376 E.01406
G1 X113.906 Y113.099 E.11838
G1 X113.667 Y113.399 E.0141
G1 X115.926 Y115.658 E.11745
G1 X115.659 Y115.93 E.01401
G1 X113.387 Y113.659 E.1181
G1 X113.107 Y113.918 E.01402
G1 X115.374 Y116.184 E.11784
G1 X115.08 Y116.43 E.01409
G1 X112.785 Y114.135 E.11932
G1 X112.462 Y114.351 E.01429
G1 X114.773 Y116.662 E.12015
G1 X114.449 Y116.877 E.0143
G1 X112.097 Y114.525 E.12228
G1 X111.722 Y114.688 E.01503
G1 X114.119 Y117.086 E.12465
G1 X113.77 Y117.276 E.01461
G1 X111.31 Y114.816 E.1279
G1 X111.14 Y114.868 E.00654
G1 X110.866 Y114.911 E.0102
G1 X113.406 Y117.451 E.13206
G1 X113.031 Y117.615 E.01505
G1 X110.399 Y114.983 E.13684
G1 X109.862 Y114.985 E.01974
G1 X112.637 Y117.759 E.14425
G1 X112.533 Y117.797 E.00407
G1 X112.223 Y117.885 E.01185
G1 X109.272 Y114.934 E.15343
G1 X108.881 Y114.874 E.01454
G1 X108.581 Y114.782 E.01154
G1 X111.938 Y118.139 E.17454
G1 X111.671 Y105.474 F9000
G1 F944.512
G1 X108.202 Y102.005 E.18036
G1 X107.769 Y102.111 E.01639
G1 X110.723 Y105.065 E.15358
G1 X110.366 Y105.013 E.01326
G1 X110.131 Y105.012 E.00864
G1 X107.362 Y102.243 E.14396
G1 X106.968 Y102.388 E.01543
G1 X109.6 Y105.02 E.13684
G1 X109.13 Y105.089 E.01746
G1 X106.588 Y102.547 E.13216
G1 X106.228 Y102.726 E.01478
G1 X108.689 Y105.187 E.12795
G1 X108.28 Y105.317 E.01578
G1 X105.88 Y102.918 E.12475
G1 X105.556 Y103.111 E.01386
G1 X105.543 Y103.12 E.00058
G1 X107.899 Y105.476 E.12249
G1 X107.536 Y105.652 E.01483
G1 X105.226 Y103.341 E.12013
G1 X105.059 Y103.458 E.0075
G1 X104.918 Y103.573 E.00669
G1 X107.211 Y105.865 E.11919
G1 X106.892 Y106.085 E.01425
G1 X104.621 Y103.815 E.11805
G1 X104.59 Y103.84 E.00146
G1 X104.344 Y104.077 E.01256
G1 X106.611 Y106.344 E.11786
G1 X106.331 Y106.602 E.014
G1 X104.071 Y104.343 E.11747
G1 X103.814 Y104.625 E.01403
G1 X106.093 Y106.903 E.11846
G1 X105.855 Y107.204 E.01411
G1 X103.571 Y104.921 E.11872
G1 X103.337 Y105.226 E.01413
G1 X105.658 Y107.546 E.12065
G1 X105.468 Y107.896 E.01464
G1 X103.121 Y105.548 E.12205
G1 X102.916 Y105.883 E.01444
G1 X105.316 Y108.283 E.12478
G1 X105.231 Y108.499 E.00853
G1 X105.186 Y108.692 E.00729
G1 X102.722 Y106.228 E.12811
G1 X102.548 Y106.593 E.01487
G1 X105.084 Y109.129 E.13185
G1 X105.055 Y109.255 E.00475
G1 X105.029 Y109.613 E.0132
G1 X102.387 Y106.971 E.13736
G1 X102.239 Y107.362 E.01537
G1 X105.008 Y110.131 E.14396
G1 X105.052 Y110.714 E.02149
G1 X102.113 Y107.775 E.1528
G1 X102.006 Y108.207 E.01636
G1 X105.491 Y111.692 E.18119
G1 X101.768 Y108.507 F9000
G1 F944.512
G1 X105.585 Y112.325 E.19848
G1 X105.886 Y112.842 E.02199
G1 X106.347 Y113.413 E.02698
G1 X106.86 Y113.891 E.02578
G1 X107.495 Y114.329 E.02836
G1 X107.674 Y114.414 E.00728
G1 X111.347 Y118.087 E.19096
G1 X110.87 Y118.149 E.01768
G1 X101.849 Y109.128 E.46901
G1 X101.812 Y109.63 E.01851
G1 X110.367 Y118.185 E.44479
G1 X109.834 Y118.191 E.0196
G1 X101.81 Y110.167 E.41718
G1 X101.839 Y110.735 E.02091
G1 X109.264 Y118.16 E.38604
G1 X108.645 Y118.08 E.02295
G1 X101.918 Y111.353 E.34975
G1 X102.06 Y112.034 E.02557
G1 X107.962 Y117.936 E.30685
G1 X107.187 Y117.7 E.02978
G1 X102.306 Y112.819 E.25377
G1 X102.47 Y113.242 E.01668
G1 X102.723 Y113.775 E.02169
G1 X106.216 Y117.268 E.18161
G1 X105.556 Y116.889 E.02798
G1 X105.111 Y116.578 E.01996
G1 X104.589 Y116.159 E.02461
G1 X103.037 Y114.628 E.08015
; stop printing object 16_8mmConnector.STL id:0 copy 0
;LAYER_CHANGE
;Z:0.36
;HEIGHT:0.16
;BEFORE_LAYER_CHANGE
G92 E0
;0.36


G1 Z.36 F9000
;AFTER_LAYER_CHANGE
;0.36
M104 S235 ; set temperature
G1 X99.567 Y117.166
;TYPE:Skirt/Brim
;WIDTH:0.42
G1 F1166.82
G1 X99.129 Y116.568 E.02206
G1 X98.39 Y115.15 E.04759
G1 X98.041 Y114.278 E.02795
G1 X97.491 Y112.197 E.06406
G1 X97.314 Y110.608 E.04758
G1 X97.393 Y108.457 E.06406
G1 X97.687 Y106.885 E.04759
G1 X98.041 Y105.722 E.03618
G1 X98.674 Y104.253 E.0476
G1 X99.807 Y102.423 E.06405
G1 X100.84 Y101.202 E.0476
G1 X102.457 Y99.782 E.06404
G1 X103.746 Y98.947 E.0457
G1 X105.762 Y98.027 E.06595
G1 X106.658 Y97.747 E.02794
G1 X108.224 Y97.424 E.04758
G1 X110.373 Y97.305 E.06405
G1 X111.31 Y97.367 E.02795
G1 X112.887 Y97.632 E.04759
G1 X114.934 Y98.297 E.06405
G1 X116.31 Y98.979 E.0457
G1 X118.13 Y100.243 E.06594
G1 X119.292 Y101.342 E.0476
G1 X120.621 Y103.035 E.06405
G1 X121.412 Y104.425 E.04759
G1 X121.893 Y105.542 E.03619
G1 X122.189 Y106.432 E.02791
G1 X122.541 Y107.992 E.04759
G1 X122.676 Y109.2 E.03617
G1 X122.678 Y110.736 E.04571
G1 X122.358 Y112.929 E.06595
G1 X122.108 Y113.833 E.02791
G1 X121.531 Y115.325 E.04761
G1 X120.466 Y117.195 E.06404
G1 X119.479 Y118.453 E.04758
G1 X118.627 Y119.321 E.0362
G1 X117.387 Y120.331 E.04759
G1 X116.604 Y120.849 E.02794
G1 X115.537 Y121.43 E.03616
G1 X114.056 Y122.036 E.04762
G1 X111.966 Y122.548 E.06404
G1 X110.437 Y122.692 E.0457
G1 X108.224 Y122.576 E.06595
G1 X106.658 Y122.253 E.04758
G1 X104.637 Y121.513 E.06405
G1 X103.801 Y121.085 E.02795
G1 X102.457 Y120.218 E.0476
G1 X101.515 Y119.45 E.03617
G1 X100.438 Y118.356 E.04569
G1 X99.603 Y117.215 E.04208
G1 X99.905 Y116.994 F9000
G1 F1166.82
G1 X99.457 Y116.381 E.02259
G1 X98.731 Y114.988 E.04675
G1 X98.393 Y114.142 E.02711
G1 X97.864 Y112.142 E.06157
G1 X97.69 Y110.58 E.04677
G1 X97.766 Y108.512 E.06158
G1 X98.055 Y106.968 E.04675
G1 X98.393 Y105.858 E.03453
G1 X99.014 Y104.415 E.04675
G1 X100.104 Y102.656 E.06158
G1 X101.119 Y101.456 E.04677
G1 X102.673 Y100.091 E.06155
G1 X103.939 Y99.272 E.04487
G1 X105.879 Y98.386 E.06347
G1 X106.748 Y98.113 E.02711
G1 X108.287 Y97.796 E.04676
G1 X110.352 Y97.681 E.06155
G1 X111.261 Y97.741 E.02711
G1 X112.811 Y98.001 E.04677
G1 X114.779 Y98.64 E.06158
G1 X116.129 Y99.31 E.04485
G1 X117.881 Y100.526 E.06347
G1 X119.023 Y101.606 E.04678
G1 X120.3 Y103.234 E.06157
G1 X121.077 Y104.599 E.04674
G1 X121.536 Y105.665 E.03454
G1 X121.825 Y106.529 E.02711
G1 X122.17 Y108.061 E.04673
G1 X122.299 Y109.214 E.03453
G1 X122.301 Y110.722 E.04488
G1 X121.994 Y112.832 E.06345
G1 X121.752 Y113.71 E.0271
G1 X121.184 Y115.175 E.04676
G1 X120.161 Y116.974 E.06159
G1 X119.191 Y118.21 E.04676
G1 X118.378 Y119.038 E.03453
G1 X117.16 Y120.03 E.04675
G1 X116.4 Y120.532 E.02711
G1 X115.381 Y121.087 E.03453
G1 X113.927 Y121.681 E.04674
G1 X111.917 Y122.174 E.06159
G1 X110.416 Y122.315 E.04487
G1 X108.287 Y122.204 E.06344
